; G-Code generated by Simplify3D(R) Version 4.1.2
; May 18, 2019 at 3:19:19 PM
; Settings Summary
;   processName,Petg
;   applyToModels,Vase_Mode_test_7
;   profileName,Ender-V6-PETG (modified)
;   profileVersion,2019-05-17 22:12:40
;   baseProfile,Default (modified)
;   printMaterial,PET-G
;   printQuality,Normal 0.20
;   printExtruders,
;   extruderName,Primary Extruder
;   extruderToolheadNumber,0
;   extruderDiameter,0.4
;   extruderAutoWidth,0
;   extruderWidth,0.5
;   extrusionMultiplier,0.9
;   extruderUseRetract,1
;   extruderRetractionDistance,1.7
;   extruderExtraRestartDistance,0
;   extruderRetractionZLift,0.4
;   extruderRetractionSpeed,2400
;   extruderUseCoasting,1
;   extruderCoastingDistance,0.2
;   extruderUseWipe,0
;   extruderWipeDistance,2
;   primaryExtruder,0
;   layerHeight,0.2
;   topSolidLayers,0
;   bottomSolidLayers,2
;   perimeterOutlines,1
;   printPerimetersInsideOut,1
;   startPointOption,3
;   startPointOriginX,230
;   startPointOriginY,230
;   sequentialIslands,0
;   spiralVaseMode,1
;   firstLayerHeightPercentage,115
;   firstLayerWidthPercentage,115
;   firstLayerUnderspeed,0.3
;   useRaft,0
;   raftExtruder,0
;   raftTopLayers,3
;   raftBaseLayers,2
;   raftOffset,3
;   raftSeparationDistance,0.14
;   raftTopInfill,100
;   aboveRaftSpeedMultiplier,0.3
;   useSkirt,1
;   skirtExtruder,0
;   skirtLayers,1
;   skirtOutlines,2
;   skirtOffset,5
;   usePrimePillar,0
;   primePillarExtruder,999
;   primePillarWidth,12
;   primePillarLocation,7
;   primePillarSpeedMultiplier,1
;   useOozeShield,0
;   oozeShieldExtruder,999
;   oozeShieldOffset,2
;   oozeShieldOutlines,1
;   oozeShieldSidewallShape,1
;   oozeShieldSidewallAngle,30
;   oozeShieldSpeedMultiplier,1
;   infillExtruder,0
;   internalInfillPattern,Rectilinear
;   externalInfillPattern,Rectilinear
;   infillPercentage,0
;   outlineOverlapPercentage,30
;   infillExtrusionWidthPercentage,100
;   minInfillLength,5
;   infillLayerInterval,1
;   internalInfillAngles,45,-45
;   overlapInternalInfillAngles,0
;   externalInfillAngles,45,-45
;   generateSupport,0
;   supportExtruder,0
;   supportInfillPercentage,30
;   supportExtraInflation,0.8
;   supportBaseLayers,2
;   denseSupportExtruder,0
;   denseSupportLayers,2
;   denseSupportInfillPercentage,85
;   supportLayerInterval,1
;   supportHorizontalPartOffset,0.7
;   supportUpperSeparationLayers,1
;   supportLowerSeparationLayers,1
;   supportType,0
;   supportGridSpacing,4
;   maxOverhangAngle,54
;   supportAngles,0
;   temperatureName,Primary Extruder,Heated Bed
;   temperatureNumber,0,0
;   temperatureSetpointCount,1,1
;   temperatureSetpointLayers,1,1
;   temperatureSetpointTemperatures,230,90
;   temperatureStabilizeAtStartup,1,1
;   temperatureHeatedBed,0,1
;   fanLayers,1,2
;   fanSpeeds,0,100
;   blipFanToFullPower,0
;   adjustSpeedForCooling,1
;   minSpeedLayerTime,1
;   minCoolingSpeedSlowdown,10
;   increaseFanForCooling,0
;   minFanLayerTime,45
;   maxCoolingFanSpeed,100
;   increaseFanForBridging,1
;   bridgingFanSpeed,100
;   use5D,1
;   relativeEdistances,0
;   allowEaxisZeroing,1
;   independentExtruderAxes,0
;   includeM10123,0
;   stickySupport,1
;   applyToolheadOffsets,0
;   gcodeXoffset,0
;   gcodeYoffset,0
;   gcodeZoffset,0
;   overrideMachineDefinition,1
;   machineTypeOverride,0
;   strokeXoverride,232
;   strokeYoverride,228
;   strokeZoverride,208
;   originOffsetXoverride,0
;   originOffsetYoverride,0
;   originOffsetZoverride,0
;   homeXdirOverride,-1
;   homeYdirOverride,1
;   homeZdirOverride,-1
;   flipXoverride,1
;   flipYoverride,-1
;   flipZoverride,1
;   toolheadOffsets,4,-13|0,0|0,0|0,0|0,0|0,0
;   overrideFirmwareConfiguration,0
;   firmwareTypeOverride,RepRap (Marlin/Repetier/Sprinter)
;   GPXconfigOverride,r2
;   baudRateOverride,115200
;   overridePrinterModels,0
;   printerModelsOverride
;   startingGcode,G28 ; home all axes,M300 S2500 P100; Beep,,; Start of print,G21; metric values,G90 ; absolute positioning,M82; set extruder to absolute mode,,; Prepare nozzle,G91;,G92 E0 ; Set extrusion distance to 0,G1 F1800 E3;,G92 E0 ; Set extrusion distance to 0,G90;,,,; You may want to adjust the X and Y here so the nozzle is really above the bed!,G1 Z0.6; Move nozzle above 0.6 mm of the bed,G1 X0.5 Y7.0 F7200 ; Move to a position in the left front of the bed,,,G91 ; Use relative mode,; Make some jerky zick-zack move at the beginning,; This is supposed to get rid of residue at the nozzle,G1 X5.0 Y1.0 Z-0.1 E-1.0 F7200 ,G1 X-5.0 Y1.0 Z0.1 E2.0 F7200 ,G1 X5.0 Y2 Z-0.1 F7200,G1 X-5 Y2 Z0.1 F7200,G1 X5 Y2 F7200,G1 X-5 2 F7200,,; now print a line of filament to prepare extrusion,G1 Y200 E40 F1000 ; prints a line in the fron,,; Done with the dancing :),G92 E0 ; Set extrusion distance to 0,G90 ; switch back to absolute mode,,,; Start of actual GCode for the print
;   layerChangeGcode,
;   retractionGcode,
;   toolChangeGcode,
;   endingGcode,M104 S0 ; turn off extruder,M140 S0 ; turn off bed,M106 S0 ; turn off cooling fan,G91,G1 F1800 E-4,G1 Z5 ,G90,G1 X1 ; home x ,G1 Y180; Remove Print Position,M84 ; disable motors
;   exportFileFormat,gcode
;   celebration,0
;   celebrationSong,Funky Town
;   postProcessing,curl  -F "file=@[output_filepath]" "http:///192.168.0.107/rr_upload?name=gcodes/[output_filename].gcode&time=YYY",curl "http:///192.168.0.107/rr_gcode?gcode=M32[output_filename].gcode",curl "http:///192.168.0.107/rr_disconnect"
;   defaultSpeed,5400
;   outlineUnderspeed,0.5
;   solidInfillUnderspeed,0.6
;   supportUnderspeed,0.7
;   rapidXYspeed,9000
;   rapidZspeed,1200
;   minBridgingArea,30
;   bridgingExtraInflation,0
;   bridgingExtrusionMultiplier,0.9
;   bridgingSpeedMultiplier,1.1
;   useFixedBridgingAngle,0
;   fixedBridgingAngle,0
;   applyBridgingToPerimeters,0
;   filamentDiameters,1.75|1.75|1.75|1.75|1.75|1.75
;   filamentPricesPerKg,46|46|46|46|46|46
;   filamentDensities,1.25|1.25|1.25|1.25|1.25|1.25
;   useMinPrintHeight,0
;   minPrintHeight,0
;   useMaxPrintHeight,0
;   maxPrintHeight,10
;   useDiaphragm,0
;   diaphragmLayerInterval,20
;   robustSlicing,1
;   mergeAllIntoSolid,0
;   onlyRetractWhenCrossingOutline,1
;   retractBetweenLayers,1
;   useRetractionMinTravel,0
;   retractionMinTravel,3
;   retractWhileWiping,1
;   onlyWipeOutlines,1
;   avoidCrossingOutline,1
;   maxMovementDetourFactor,4
;   toolChangeRetractionDistance,30
;   toolChangeExtraRestartDistance,-0.5
;   toolChangeRetractionSpeed,600
;   externalThinWallType,0
;   internalThinWallType,1
;   thinWallAllowedOverlapPercentage,30
;   singleExtrusionMinLength,0.6
;   singleExtrusionMinPrintingWidthPercentage,50
;   singleExtrusionMaxPrintingWidthPercentage,200
;   singleExtrusionEndpointExtension,0.2
;   horizontalSizeCompensation,0
G90
M82
M106 S0
M140 S90
M190 S90
M104 S230 T0
M109 S230 T0
G28 ; home all axes
M300 S2500 P100; Beep
; Start of print
G21; metric values
G90 ; absolute positioning
M82; set extruder to absolute mode
; Prepare nozzle
G91;
G92 E0 ; Set extrusion distance to 0
G1 F1800 E3;
G92 E0 ; Set extrusion distance to 0
G90;
; You may want to adjust the X and Y here so the nozzle is really above the bed!
G1 Z0.6; Move nozzle above 0.6 mm of the bed
G1 X0.5 Y7.0 F7200 ; Move to a position in the left front of the bed
G91 ; Use relative mode
; Make some jerky zick-zack move at the beginning
; This is supposed to get rid of residue at the nozzle
G1 X5.0 Y1.0 Z-0.1 E-1.0 F7200 
G1 X-5.0 Y1.0 Z0.1 E2.0 F7200 
G1 X5.0 Y2 Z-0.1 F7200
G1 X-5 Y2 Z0.1 F7200
G1 X5 Y2 F7200
G1 X-5 2 F7200
; now print a line of filament to prepare extrusion
G1 Y200 E40 F1000 ; prints a line in the fron
; Done with the dancing :)
G92 E0 ; Set extrusion distance to 0
G90 ; switch back to absolute mode
; Start of actual GCode for the print
; process Petg
; layer 1, Z = 0.230
T0
G92 E0.0000
G1 E-1.7000 F2400
; feature skirt
; tool H0.230 W0.575
G1 Z0.400 F1200
G1 X130.203 Y152.343 F9000
G1 Z0.230 F1200
G1 E0.0000 F2400
G92 E0.0000
G1 X127.217 Y153.320 E0.1555 F1620
G1 X89.898 Y145.470 E2.0426
G1 X87.560 Y143.375 E2.1980
G1 X78.311 Y115.170 E3.6668
G1 X78.308 Y115.163 E3.6672
G1 X75.695 Y107.121 E4.0856
G1 X76.343 Y104.054 E4.2408
G1 X101.797 Y75.657 E6.1278
G1 X104.783 Y74.680 E6.2833
G1 X142.101 Y82.530 E8.1704
G1 X144.439 Y84.625 E8.3258
G1 X153.688 Y112.830 E9.7946
G1 X153.691 Y112.837 E9.7950
G1 X156.304 Y120.879 E10.2134
G1 X155.656 Y123.946 E10.3685
G1 X130.203 Y152.343 E12.2556
G92 E0.0000
G1 E-1.7000 F2400
G1 Z0.630 F1200
G1 X129.878 Y151.844 F9000
G1 Z0.230 F1200
G1 E0.0000 F2400
G92 E0.0000
G1 X127.185 Y152.726 E0.1402 F1620
G1 X90.168 Y144.939 E2.0121
G1 X88.059 Y143.049 E2.1522
G1 X78.857 Y114.992 E3.6134
G1 X78.855 Y114.985 E3.6138
G1 X76.289 Y107.089 E4.0246
G1 X76.874 Y104.323 E4.1645
G1 X102.122 Y76.156 E6.0363
G1 X104.815 Y75.274 E6.1766
G1 X141.831 Y83.061 E8.0484
G1 X143.940 Y84.951 E8.1885
G1 X153.142 Y113.008 E9.6497
G1 X153.144 Y113.015 E9.6501
G1 X155.710 Y120.911 E10.0609
G1 X155.125 Y123.677 E10.2008
G1 X129.878 Y151.844 E12.0726
G92 E0.0000
G1 E-1.7000 F2400
; feature outer perimeter
G1 Z0.630 F1200
G1 X126.772 Y146.957 F9000
G1 X131.266 Y141.962
G1 Z0.230 F1200
G1 E0.0000 F2400
G92 E0.0000
G1 X126.772 Y146.957 E0.3325 F810
G1 X113.231 Y144.093 E1.0174
G1 X113.116 Y144.084 E1.0231
G1 X106.379 Y142.652 E1.3639
G1 X106.264 Y142.644 E1.3696
G1 X92.846 Y139.806 E2.0483
G1 X90.732 Y133.298 E2.3869
G1 X90.682 Y133.194 E2.3926
G1 X88.554 Y126.646 E2.7333
G1 X88.505 Y126.543 E2.7390
G1 X86.377 Y119.995 E3.0797
G1 X86.327 Y119.891 E3.0854
G1 X84.200 Y113.344 E3.4260
G1 X84.150 Y113.240 E3.4317
G1 X82.074 Y106.852 E3.7641
G1 X91.324 Y96.553 E4.4491
G1 X91.388 Y96.458 E4.4548
G1 X105.228 Y81.043 E5.4800
G1 X118.769 Y83.907 E6.1649
G1 X118.884 Y83.916 E6.1705
G1 X125.620 Y85.348 E6.5113
G1 X125.735 Y85.356 E6.5170
G1 X139.153 Y88.194 E7.1957
G1 X141.267 Y94.702 E7.5343
G1 X141.317 Y94.806 E7.5400
G1 X143.445 Y101.354 E7.8807
G1 X143.494 Y101.457 E7.8864
G1 X145.622 Y108.005 E8.2271
G1 X145.672 Y108.109 E8.2328
G1 X147.799 Y114.656 E8.5734
G1 X147.849 Y114.760 E8.5791
G1 X149.925 Y121.148 E8.9115
G1 X145.347 Y126.233 E9.2501
G1 X145.282 Y126.328 E9.2558
G1 X136.005 Y136.657 E9.9428
G1 X135.940 Y136.752 E9.9485
G1 X131.388 Y141.804 E10.2850
G1 X131.331 Y141.867 F810
G1 X131.266 Y141.962
; feature solid layer
G1 X93.570 Y139.547 F9000
G92 E0.0000
G1 X93.000 Y138.978 E0.0399 F972
G1 X92.609 Y137.773 E0.1025
G1 X94.601 Y139.765 E0.2420
G1 X95.633 Y139.983 E0.2941
G1 X92.218 Y136.569 E0.5331
G1 X91.826 Y135.364 E0.5958
G1 X96.664 Y140.202 E0.9343
G1 X97.695 Y140.420 E0.9865
G1 X91.435 Y134.159 E1.4246
G1 X91.106 Y133.148 E1.4773
G1 X91.056 Y133.044 E1.4830
G1 X91.020 Y132.931 E1.4888
G1 X98.727 Y140.638 E2.0282
G1 X99.758 Y140.856 E2.0804
G1 X90.628 Y131.726 E2.7193
G1 X90.237 Y130.522 E2.7819
G1 X100.789 Y141.074 E3.5204
G1 X101.821 Y141.292 E3.5726
G1 X89.845 Y129.317 E4.4106
G1 X89.454 Y128.113 E4.4733
G1 X102.852 Y141.511 E5.4109
G1 X103.883 Y141.729 E5.4631
G1 X89.063 Y126.908 E6.5003
G1 X88.929 Y126.496 E6.5217
G1 X88.879 Y126.393 E6.5274
G1 X88.647 Y125.680 E6.5645
G1 X104.915 Y141.947 E7.7029
G1 X105.946 Y142.165 E7.7551
G1 X88.256 Y124.475 E8.9930
G1 X87.865 Y123.271 E9.0557
G1 X106.958 Y142.364 E10.3919
G1 X107.991 Y142.583 E10.4442
G1 X87.473 Y122.066 E11.8800
G1 X87.082 Y120.861 E11.9427
G1 X109.023 Y142.803 E13.4782
G1 X110.056 Y143.022 E13.5304
G1 X86.666 Y119.633 E15.1673
G1 X86.275 Y118.428 E15.2300
G1 X111.089 Y143.242 E16.9665
G1 X112.121 Y143.461 E17.0187
G1 X85.884 Y117.224 E18.8549
G1 X85.492 Y116.019 E18.9176
G1 X113.154 Y143.681 E20.8534
G1 X113.174 Y143.685 E20.8544
G1 X113.288 Y143.694 E20.8601
G1 X114.166 Y143.879 E20.9044
G1 X85.101 Y114.815 E22.9385
G1 X84.710 Y113.610 E23.0011
G1 X115.197 Y144.098 E25.1347
G1 X116.228 Y144.316 E25.1869
G1 X84.294 Y112.382 E27.4217
G1 X83.903 Y111.177 E27.4844
G1 X117.260 Y144.534 E29.8188
G1 X118.291 Y144.752 E29.8709
G1 X83.511 Y109.972 E32.3049
G1 X83.120 Y108.768 E32.3675
G1 X119.322 Y144.970 E34.9011
G1 X120.354 Y145.188 E34.9532
G1 X82.729 Y107.563 E37.5863
G1 X82.529 Y106.948 E37.6183
G1 X82.717 Y106.739 E37.6322
G1 X121.385 Y145.406 E40.3383
G1 X122.416 Y145.625 E40.3905
G1 X83.102 Y106.310 E43.1418
G1 X83.486 Y105.882 E43.1703
G1 X123.448 Y145.843 E45.9668
G1 X124.479 Y146.061 E46.0190
G1 X83.871 Y105.453 E48.8608
G1 X84.256 Y105.025 E48.8893
G1 X125.510 Y146.279 E51.7764
G1 X126.542 Y146.497 E51.8285
G1 X84.641 Y104.596 E54.7608
G1 X85.025 Y104.168 E54.7893
G1 X126.981 Y146.123 E57.7255
G1 X127.366 Y145.695 E57.7540
G1 X85.410 Y103.740 E60.6901
G1 X85.795 Y103.311 E60.7186
G1 X127.751 Y145.267 E63.6548
G1 X128.136 Y144.839 E63.6833
G1 X86.180 Y102.883 E66.6195
G1 X86.564 Y102.454 E66.6480
G1 X128.521 Y144.411 E69.5842
G1 X128.906 Y143.983 E69.6127
G1 X86.949 Y102.026 E72.5489
G1 X87.334 Y101.597 E72.5774
G1 X129.292 Y143.555 E75.5137
G1 X129.677 Y143.127 E75.5422
G1 X87.719 Y101.169 E78.4785
G1 X88.103 Y100.741 E78.5070
G1 X130.062 Y142.699 E81.4433
G1 X130.447 Y142.271 E81.4718
G1 X88.488 Y100.312 E84.4082
G1 X88.873 Y99.884 E84.4367
G1 X130.832 Y141.843 E87.3731
G1 X130.949 Y141.713 E87.3817
G1 X131.014 Y141.618 E87.3874
G1 X131.206 Y141.404 E87.4017
G1 X89.258 Y99.455 E90.3373
G1 X89.642 Y99.027 E90.3658
G1 X131.592 Y140.976 E93.3015
G1 X131.977 Y140.548 E93.3300
G1 X90.027 Y98.598 E96.2658
G1 X90.412 Y98.170 E96.2943
G1 X132.363 Y140.121 E99.2301
G1 X132.748 Y139.693 E99.2585
G1 X90.797 Y97.742 E102.1944
G1 X91.181 Y97.313 E102.2229
G1 X133.133 Y139.265 E105.1588
G1 X133.519 Y138.837 E105.1873
G1 X91.566 Y96.885 E108.1232
G1 X91.641 Y96.802 E108.1287
G1 X91.706 Y96.707 E108.1344
G1 X91.940 Y96.446 E108.1518
G1 X133.904 Y138.410 E111.0885
G1 X134.290 Y137.982 E111.1170
G1 X92.325 Y96.017 E114.0538
G1 X92.710 Y95.589 E114.0823
G1 X134.675 Y137.554 E117.0191
G1 X135.061 Y137.126 E117.0476
G1 X93.094 Y95.160 E119.9845
G1 X93.479 Y94.732 E120.0130
G1 X135.446 Y136.699 E122.9500
G1 X135.623 Y136.502 E122.9630
G1 X135.687 Y136.408 E122.9687
G1 X135.820 Y136.260 E122.9785
G1 X93.864 Y94.303 E125.9148
G1 X94.248 Y93.875 E125.9433
G1 X136.205 Y135.831 E128.8795
G1 X136.590 Y135.403 E128.9080
G1 X94.633 Y93.446 E131.8442
G1 X95.018 Y93.018 E131.8727
G1 X136.975 Y134.975 E134.8089
G1 X137.359 Y134.546 E134.8374
G1 X95.402 Y92.589 E137.7737
G1 X95.787 Y92.161 E137.8022
G1 X137.744 Y134.118 E140.7384
G1 X138.129 Y133.689 E140.7669
G1 X96.172 Y91.732 E143.7031
G1 X96.557 Y91.304 E143.7316
G1 X138.514 Y133.261 E146.6679
G1 X138.898 Y132.833 E146.6964
G1 X96.941 Y90.875 E149.6326
G1 X97.326 Y90.447 E149.6611
G1 X139.283 Y132.404 E152.5974
G1 X139.668 Y131.976 E152.6259
G1 X97.711 Y90.018 E155.5622
G1 X98.095 Y89.590 E155.5906
G1 X140.053 Y131.547 E158.5269
G1 X140.437 Y131.119 E158.5554
G1 X98.480 Y89.161 E161.4917
G1 X98.865 Y88.733 E161.5202
G1 X140.822 Y130.691 E164.4565
G1 X141.207 Y130.262 E164.4850
G1 X99.249 Y88.304 E167.4212
G1 X99.634 Y87.876 E167.4497
G1 X141.592 Y129.834 E170.3860
G1 X141.977 Y129.405 E170.4145
G1 X100.019 Y87.448 E173.3508
G1 X100.403 Y87.019 E173.3793
G1 X142.361 Y128.977 E176.3156
G1 X142.746 Y128.549 E176.3441
G1 X100.788 Y86.591 E179.2804
G1 X101.173 Y86.162 E179.3089
G1 X143.131 Y128.120 E182.2452
G1 X143.516 Y127.692 E182.2737
G1 X101.558 Y85.734 E185.2100
G1 X101.942 Y85.305 E185.2385
G1 X143.900 Y127.263 E188.1748
G1 X144.285 Y126.835 E188.2033
G1 X102.327 Y84.877 E191.1397
G1 X102.712 Y84.448 E191.1682
G1 X144.670 Y126.406 E194.1045
G1 X144.964 Y126.079 E194.1263
G1 X145.029 Y125.983 E194.1320
G1 X145.044 Y125.967 E194.1331
G1 X103.096 Y84.020 E197.0687
