--------------------------79f7818c34d04795
Content-Disposition: form-data; name="file"; filename="coin_X24.gcode"
Content-Type: application/octet-stream

; G-Code generated by Simplify3D(R) Version 4.1.2
; May 21, 2019 at 12:39:30 PM
; Settings Summary
;   processName,Ender3-PLA
;   applyToModels,coin,coin(2),coin(3),coin(4),coin(5),coin(6),coin(7),coin(2)(2),coin(3)(2),coin(4)(2),coin(5)(2),coin(6)(2),coin(8),coin(2)(3),coin(3)(3),coin(4)(3),coin(5)(3),coin(6)(3),coin(9),coin(2)(4),coin(3)(4),coin(4)(4),coin(5)(4),coin(6)(4)
;   profileName,Ender-V6-PLA
;   profileVersion,2019-05-07 00:13:04
;   baseProfile,Default (modified)
;   printMaterial,PLA
;   printQuality,Normal 0.20
;   printExtruders,
;   extruderName,Primary Extruder
;   extruderToolheadNumber,0
;   extruderDiameter,0.4
;   extruderAutoWidth,0
;   extruderWidth,0.5
;   extrusionMultiplier,0.9
;   extruderUseRetract,1
;   extruderRetractionDistance,1.7
;   extruderExtraRestartDistance,0
;   extruderRetractionZLift,0.4
;   extruderRetractionSpeed,2400
;   extruderUseCoasting,1
;   extruderCoastingDistance,0.2
;   extruderUseWipe,0
;   extruderWipeDistance,2
;   primaryExtruder,0
;   layerHeight,0.2
;   topSolidLayers,4
;   bottomSolidLayers,3
;   perimeterOutlines,2
;   printPerimetersInsideOut,1
;   startPointOption,3
;   startPointOriginX,230
;   startPointOriginY,230
;   sequentialIslands,0
;   spiralVaseMode,0
;   firstLayerHeightPercentage,115
;   firstLayerWidthPercentage,115
;   firstLayerUnderspeed,0.3
;   useRaft,0
;   raftExtruder,0
;   raftTopLayers,3
;   raftBaseLayers,2
;   raftOffset,3
;   raftSeparationDistance,0.14
;   raftTopInfill,100
;   aboveRaftSpeedMultiplier,0.3
;   useSkirt,1
;   skirtExtruder,0
;   skirtLayers,1
;   skirtOutlines,2
;   skirtOffset,5
;   usePrimePillar,0
;   primePillarExtruder,999
;   primePillarWidth,12
;   primePillarLocation,7
;   primePillarSpeedMultiplier,1
;   useOozeShield,0
;   oozeShieldExtruder,999
;   oozeShieldOffset,2
;   oozeShieldOutlines,1
;   oozeShieldSidewallShape,1
;   oozeShieldSidewallAngle,30
;   oozeShieldSpeedMultiplier,1
;   infillExtruder,0
;   internalInfillPattern,Rectilinear
;   externalInfillPattern,Rectilinear
;   infillPercentage,15
;   outlineOverlapPercentage,30
;   infillExtrusionWidthPercentage,100
;   minInfillLength,5
;   infillLayerInterval,1
;   internalInfillAngles,45,-45
;   overlapInternalInfillAngles,0
;   externalInfillAngles,45,-45
;   generateSupport,0
;   supportExtruder,0
;   supportInfillPercentage,30
;   supportExtraInflation,0.8
;   supportBaseLayers,2
;   denseSupportExtruder,0
;   denseSupportLayers,2
;   denseSupportInfillPercentage,85
;   supportLayerInterval,1
;   supportHorizontalPartOffset,0.7
;   supportUpperSeparationLayers,1
;   supportLowerSeparationLayers,1
;   supportType,1
;   supportGridSpacing,4
;   maxOverhangAngle,54
;   supportAngles,0
;   temperatureName,Primary Extruder,Heated Bed
;   temperatureNumber,0,0
;   temperatureSetpointCount,1,1
;   temperatureSetpointLayers,1,1
;   temperatureSetpointTemperatures,210,60
;   temperatureStabilizeAtStartup,1,1
;   temperatureHeatedBed,0,1
;   fanLayers,1,2,3
;   fanSpeeds,0,60,100
;   blipFanToFullPower,0
;   adjustSpeedForCooling,1
;   minSpeedLayerTime,1
;   minCoolingSpeedSlowdown,10
;   increaseFanForCooling,0
;   minFanLayerTime,45
;   maxCoolingFanSpeed,100
;   increaseFanForBridging,1
;   bridgingFanSpeed,100
;   use5D,1
;   relativeEdistances,0
;   allowEaxisZeroing,1
;   independentExtruderAxes,0
;   includeM10123,0
;   stickySupport,1
;   applyToolheadOffsets,0
;   gcodeXoffset,0
;   gcodeYoffset,0
;   gcodeZoffset,0
;   overrideMachineDefinition,1
;   machineTypeOverride,0
;   strokeXoverride,232
;   strokeYoverride,228
;   strokeZoverride,208
;   originOffsetXoverride,0
;   originOffsetYoverride,0
;   originOffsetZoverride,0
;   homeXdirOverride,-1
;   homeYdirOverride,1
;   homeZdirOverride,-1
;   flipXoverride,1
;   flipYoverride,-1
;   flipZoverride,1
;   toolheadOffsets,4,-13|0,0|0,0|0,0|0,0|0,0
;   overrideFirmwareConfiguration,0
;   firmwareTypeOverride,RepRap (Marlin/Repetier/Sprinter)
;   GPXconfigOverride,r2
;   baudRateOverride,115200
;   overridePrinterModels,0
;   printerModelsOverride
;   startingGcode,G28 ; home all axes,M300 S2500 P100; Beep,,; Start of print,G21; metric values,G90 ; absolute positioning,M82; set extruder to absolute mode,,; Prepare nozzle,G91;,G92 E0 ; Set extrusion distance to 0,G1 F1800 E3;,G92 E0 ; Set extrusion distance to 0,G90;,,,; You may want to adjust the X and Y here so the nozzle is really above the bed!,G1 Z0.6; Move nozzle above 0.6 mm of the bed,G1 X0.5 Y7.0 F7200 ; Move to a position in the left front of the bed,,,G91 ; Use relative mode,; Make some jerky zick-zack move at the beginning,; This is supposed to get rid of residue at the nozzle,G1 X5.0 Y1.0 Z-0.1 E-1.0 F7200 ,G1 X-5.0 Y1.0 Z0.1 E2.0 F7200 ,G1 X5.0 Y2 Z-0.1 F7200,G1 X-5 Y2 Z0.1 F7200,G1 X5 Y2 F7200,G1 X-5 2 F7200,,; now print a line of filament to prepare extrusion,G1 Y200 E40 F1000 ; prints a line in the fron,,; Done with the dancing :),G92 E0 ; Set extrusion distance to 0,G90 ; switch back to absolute mode,,,; Start of actual GCode for the print
;   layerChangeGcode,
;   retractionGcode,
;   toolChangeGcode,
;   endingGcode,M104 S0 ; turn off extruder,M140 S0 ; turn off bed,M106 S0 ; turn off cooling fan,G91,G1 F1800 E-4,G1 Z5 ,G90,G1 X1 ; home x ,G1 Y180; Remove Print Position,M84 ; disable motors
;   exportFileFormat,gcode
;   celebration,0
;   celebrationSong,Funky Town
;   postProcessing,curl  -F "file=@[output_filepath]" "http:///192.168.0.107/rr_upload?name=gcodes/[output_filename].gcode&time=YYY",;curl "http:///192.168.0.93/rr_gcode?gcode=M32[output_filename].gcode",;curl "http:///192.168.0.93/rr_disconnect"
;   defaultSpeed,5400
;   outlineUnderspeed,0.5
;   solidInfillUnderspeed,0.6
;   supportUnderspeed,0.7
;   rapidXYspeed,9000
;   rapidZspeed,1200
;   minBridgingArea,30
;   bridgingExtraInflation,0
;   bridgingExtrusionMultiplier,0.9
;   bridgingSpeedMultiplier,1.1
;   useFixedBridgingAngle,0
;   fixedBridgingAngle,0
;   applyBridgingToPerimeters,0
;   filamentDiameters,1.75|1.75|1.75|1.75|1.75|1.75
;   filamentPricesPerKg,46|46|46|46|46|46
;   filamentDensities,1.25|1.25|1.25|1.25|1.25|1.25
;   useMinPrintHeight,0
;   minPrintHeight,0
;   useMaxPrintHeight,0
;   maxPrintHeight,10
;   useDiaphragm,0
;   diaphragmLayerInterval,20
;   robustSlicing,1
;   mergeAllIntoSolid,0
;   onlyRetractWhenCrossingOutline,1
;   retractBetweenLayers,0
;   useRetractionMinTravel,0
;   retractionMinTravel,3
;   retractWhileWiping,1
;   onlyWipeOutlines,1
;   avoidCrossingOutline,0
;   maxMovementDetourFactor,4
;   toolChangeRetractionDistance,30
;   toolChangeExtraRestartDistance,-0.5
;   toolChangeRetractionSpeed,600
;   externalThinWallType,0
;   internalThinWallType,1
;   thinWallAllowedOverlapPercentage,30
;   singleExtrusionMinLength,0.6
;   singleExtrusionMinPrintingWidthPercentage,50
;   singleExtrusionMaxPrintingWidthPercentage,200
;   singleExtrusionEndpointExtension,0.2
;   horizontalSizeCompensation,0
G90
M82
M106 S0
M140 S60
M190 S60
M104 S210 T0
M109 S210 T0
G28 ; home all axes
M300 S2500 P100; Beep
; Start of print
G21; metric values
G90 ; absolute positioning
M82; set extruder to absolute mode
; Prepare nozzle
G91;
G92 E0 ; Set extrusion distance to 0
G1 F1800 E3;
G92 E0 ; Set extrusion distance to 0
G90;
; You may want to adjust the X and Y here so the nozzle is really above the bed!
G1 Z0.6; Move nozzle above 0.6 mm of the bed
G1 X0.5 Y7.0 F7200 ; Move to a position in the left front of the bed
G91 ; Use relative mode
; Make some jerky zick-zack move at the beginning
; This is supposed to get rid of residue at the nozzle
G1 X5.0 Y1.0 Z-0.1 E-1.0 F7200 
G1 X-5.0 Y1.0 Z0.1 E2.0 F7200 
G1 X5.0 Y2 Z-0.1 F7200
G1 X-5 Y2 Z0.1 F7200
G1 X5 Y2 F7200
G1 X-5 2 F7200
; now print a line of filament to prepare extrusion
G1 Y200 E40 F1000 ; prints a line in the fron
; Done with the dancing :)
G92 E0 ; Set extrusion distance to 0
G90 ; switch back to absolute mode
; Start of actual GCode for the print
; process Ender3-PLA
; layer 1, Z = 0.230
T0
G92 E0.0000
G1 E-1.7000 F2400
; feature skirt
; tool H0.230 W0.575
G1 Z0.400 F1200
G1 X194.657 Y171.664 F9000
G1 Z0.230 F1200
G1 E0.0000 F2400
G92 E0.0000
G1 X194.415 Y171.789 E0.0135 F1620
G1 X193.096 Y172.390 E0.0852
G1 X192.818 Y172.499 E0.1000
G1 X191.433 Y172.967 E0.1723
G1 X191.146 Y173.048 E0.1871
G1 X189.720 Y173.373 E0.2595
G1 X189.426 Y173.424 E0.2742
G1 X187.975 Y173.602 E0.3466
G1 X187.677 Y173.623 E0.3613
G1 X186.215 Y173.653 E0.4337
G1 X185.917 Y173.643 E0.4485
G1 X184.460 Y173.524 E0.5208
G1 X184.164 Y173.485 E0.5356
G1 X182.726 Y173.218 E0.6079
G1 X182.436 Y173.149 E0.6227
G1 X181.033 Y172.738 E0.6951
G1 X180.751 Y172.639 E0.7098
G1 X179.411 Y172.093 E0.7814
G1 X179.168 Y171.981 E0.7947
G1 X178.109 Y171.431 E0.8537
G1 X177.877 Y171.297 E0.8670
G1 X176.659 Y170.517 E0.9386
G1 X176.416 Y170.344 E0.9533
G1 X175.272 Y169.434 E1.0257
G1 X175.048 Y169.237 E1.0405
G1 X174.001 Y168.215 E1.1128
G1 X173.799 Y167.996 E1.1276
G1 X172.867 Y166.881 E1.1995
G1 X172.697 Y166.656 E1.2134
G1 X172.478 Y166.336 E1.2326
G1 X172.329 Y166.556 E1.2458
G1 X172.185 Y166.752 E1.2578
G1 X171.444 Y167.673 E1.3163
G1 X171.264 Y167.876 E1.3297
G1 X170.256 Y168.915 E1.4014
G1 X170.038 Y169.119 E1.4162
G1 X168.918 Y170.060 E1.4885
G1 X168.680 Y170.240 E1.5033
G1 X167.471 Y171.062 E1.5756
G1 X167.216 Y171.217 E1.5904
G1 X165.930 Y171.912 E1.6628
G1 X165.660 Y172.040 E1.6775
G1 X164.310 Y172.601 E1.7499
G1 X164.029 Y172.701 E1.7647
G1 X162.642 Y173.118 E1.8363
G1 X162.379 Y173.183 E1.8497
G1 X161.220 Y173.417 E1.9083
G1 X160.980 Y173.456 E1.9203
G1 X159.712 Y173.604 E1.9834
G1 X159.431 Y173.623 E1.9974
G1 X157.977 Y173.653 E2.0693
G1 X157.679 Y173.643 E2.0841
G1 X156.221 Y173.524 E2.1565
G1 X155.926 Y173.485 E2.1712
G1 X154.488 Y173.218 E2.2436
G1 X154.198 Y173.149 E2.2583
G1 X152.795 Y172.738 E2.3307
G1 X152.513 Y172.639 E2.3455
G1 X151.173 Y172.093 E2.4171
G1 X150.930 Y171.981 E2.4303
G1 X149.871 Y171.431 E2.4894
G1 X149.639 Y171.297 E2.5026
G1 X148.421 Y170.517 E2.5742
G1 X148.178 Y170.344 E2.5890
G1 X147.033 Y169.434 E2.6613
G1 X146.809 Y169.237 E2.6761
G1 X145.763 Y168.215 E2.7484
G1 X145.560 Y167.996 E2.7632
G1 X144.629 Y166.881 E2.8351
G1 X144.459 Y166.656 E2.8491
G1 X144.245 Y166.343 E2.8678
G1 X144.138 Y166.494 E2.8770
G1 X143.232 Y167.641 E2.9493
G1 X143.036 Y167.866 E2.9641
G1 X142.018 Y168.915 E3.0364
G1 X141.799 Y169.119 E3.0512
G1 X140.686 Y170.055 E3.1232
G1 X140.460 Y170.227 E3.1372
G1 X139.409 Y170.949 E3.2004
G1 X139.206 Y171.077 E3.2122
G1 X138.181 Y171.664 E3.2707
G1 X137.938 Y171.789 E3.2842
G1 X136.619 Y172.390 E3.3559
G1 X136.342 Y172.499 E3.3707
G1 X134.956 Y172.967 E3.4430
G1 X134.669 Y173.048 E3.4578
G1 X133.243 Y173.373 E3.5301
G1 X132.949 Y173.424 E3.5449
G1 X131.498 Y173.602 E3.6173
G1 X131.200 Y173.623 E3.6320
G1 X129.739 Y173.653 E3.7044
G1 X129.440 Y173.643 E3.7192
G1 X127.983 Y173.524 E3.7915
G1 X127.687 Y173.485 E3.8063
G1 X126.250 Y173.218 E3.8786
G1 X125.959 Y173.149 E3.8934
G1 X124.556 Y172.738 E3.9657
G1 X124.274 Y172.639 E3.9805
G1 X122.935 Y172.093 E4.0521
G1 X122.691 Y171.981 E4.0654
G1 X121.632 Y171.431 E4.1244
G1 X121.401 Y171.297 E4.1377
G1 X120.182 Y170.517 E4.2092
G1 X119.940 Y170.344 E4.2240
G1 X118.795 Y169.434 E4.2964
G1 X118.571 Y169.237 E4.3111
G1 X117.525 Y168.215 E4.3835
G1 X117.322 Y167.996 E4.3983
G1 X116.390 Y166.880 E4.4702
G1 X116.221 Y166.656 E4.4841
G1 X116.007 Y166.343 E4.5029
G1 X115.900 Y166.494 E4.5120
G1 X114.994 Y167.641 E4.5844
G1 X114.797 Y167.866 E4.5991
G1 X113.779 Y168.915 E4.6715
G1 X113.561 Y169.119 E4.6862
G1 X112.447 Y170.055 E4.7582
G1 X112.222 Y170.227 E4.7723
G1 X111.170 Y170.949 E4.8354
G1 X110.968 Y171.077 E4.8473
G1 X109.942 Y171.664 E4.9057
G1 X109.700 Y171.789 E4.9192
G1 X108.381 Y172.390 E4.9909
G1 X108.103 Y172.499 E5.0057
G1 X106.718 Y172.967 E5.0781
G1 X106.431 Y173.048 E5.0928
G1 X105.005 Y173.373 E5.1652
G1 X104.711 Y173.424 E5.1800
G1 X103.260 Y173.602 E5.2523
G1 X102.962 Y173.623 E5.2671
G1 X101.500 Y173.653 E5.3394
G1 X101.202 Y173.643 E5.3542
G1 X99.745 Y173.524 E5.4266
G1 X99.449 Y173.485 E5.4413
G1 X98.011 Y173.218 E5.5137
G1 X97.721 Y173.149 E5.5284
G1 X96.318 Y172.738 E5.6008
G1 X96.036 Y172.639 E5.6156
G1 X94.696 Y172.093 E5.6872
G1 X94.453 Y171.981 E5.7004
G1 X93.394 Y171.431 E5.7595
G1 X93.162 Y171.297 E5.7727
G1 X91.944 Y170.517 E5.8443
G1 X91.701 Y170.344 E5.8591
G1 X90.557 Y169.434 E5.9314
G1 X90.333 Y169.237 E5.9462
G1 X89.286 Y168.215 E6.0185
G1 X89.084 Y167.996 E6.0333
G1 X88.152 Y166.881 E6.1052
G1 X87.982 Y166.656 E6.1191
G1 X87.768 Y166.343 E6.1379
G1 X87.661 Y166.494 E6.1471
G1 X86.756 Y167.641 E6.2194
G1 X86.559 Y167.866 E6.2342
G1 X85.541 Y168.915 E6.3065
G1 X85.323 Y169.119 E6.3213
G1 X84.209 Y170.055 E6.3933
G1 X83.983 Y170.227 E6.4073
G1 X82.932 Y170.949 E6.4704
G1 X82.729 Y171.077 E6.4823
G1 X81.704 Y171.664 E6.5408
G1 X81.461 Y171.789 E6.5543
G1 X80.143 Y172.389 E6.6260
G1 X79.865 Y172.499 E6.6407
G1 X78.480 Y172.967 E6.7131
G1 X78.192 Y173.048 E6.7279
G1 X76.767 Y173.373 E6.8002
G1 X76.473 Y173.424 E6.8150
G1 X75.021 Y173.602 E6.8874
G1 X74.724 Y173.623 E6.9021
G1 X73.262 Y173.653 E6.9745
G1 X72.964 Y173.643 E6.9892
G1 X71.506 Y173.524 E7.0616
G1 X71.210 Y173.485 E7.0764
G1 X69.773 Y173.218 E7.1487
G1 X69.483 Y173.149 E7.1635
G1 X68.080 Y172.738 E7.2358
G1 X67.798 Y172.639 E7.2506
G1 X66.458 Y172.093 E7.3222
G1 X66.215 Y171.981 E7.3355
G1 X65.156 Y171.431 E7.3945
G1 X64.924 Y171.297 E7.4077
G1 X63.706 Y170.517 E7.4793
G1 X63.463 Y170.344 E7.4941
G1 X62.318 Y169.434 E7.5665
G1 X62.094 Y169.237 E7.5812
G1 X61.048 Y168.215 E7.6536
G1 X60.845 Y167.996 E7.6683
G1 X59.914 Y166.881 E7.7403
G1 X59.744 Y166.656 E7.7542
G1 X59.530 Y166.343 E7.7730
G1 X59.423 Y166.494 E7.7821
G1 X58.517 Y167.641 E7.8544
G1 X58.321 Y167.866 E7.8692
G1 X57.303 Y168.915 E7.9416
G1 X57.084 Y169.119 E7.9563
G1 X55.971 Y170.055 E8.0283
G1 X55.745 Y170.227 E8.0424
G1 X54.694 Y170.949 E8.1055
G1 X54.491 Y171.077 E8.1173
G1 X53.466 Y171.664 E8.1758
G1 X53.223 Y171.789 E8.1893
G1 X51.904 Y172.390 E8.2610
G1 X51.627 Y172.499 E8.2758
G1 X50.241 Y172.967 E8.3481
G1 X49.954 Y173.048 E8.3629
G1 X48.528 Y173.373 E8.4353
G1 X48.234 Y173.424 E8.4500
G1 X46.783 Y173.602 E8.5224
G1 X46.485 Y173.623 E8.5372
G1 X45.024 Y173.653 E8.6095
G1 X44.725 Y173.643 E8.6243
G1 X43.268 Y173.524 E8.6966
G1 X42.972 Y173.485 E8.7114
G1 X41.535 Y173.218 E8.7838
G1 X41.244 Y173.149 E8.7985
G1 X39.841 Y172.738 E8.8709
G1 X39.559 Y172.639 E8.8857
G1 X38.220 Y172.093 E8.9573
G1 X37.976 Y171.981 E8.9705
G1 X36.917 Y171.431 E9.0296
G1 X36.686 Y171.297 E9.0428
G1 X35.467 Y170.517 E9.1144
G1 X35.225 Y170.344 E9.1292
G1 X34.080 Y169.434 E9.2015
G1 X33.856 Y169.237 E9.2163
G1 X32.810 Y168.215 E9.2886
G1 X32.607 Y167.996 E9.3034
G1 X31.675 Y166.880 E9.3753
G1 X31.505 Y166.656 E9.3892
G1 X30.785 Y165.602 E9.4524
G1 X30.655 Y165.395 E9.4645
G1 X30.072 Y164.366 E9.5230
G1 X29.949 Y164.125 E9.5364
G1 X29.353 Y162.806 E9.6081
G1 X29.244 Y162.528 E9.6229
G1 X28.781 Y161.141 E9.6952
G1 X28.701 Y160.853 E9.7100
G1 X28.381 Y159.427 E9.7823
G1 X28.331 Y159.133 E9.7971
G1 X28.157 Y157.681 E9.8694
G1 X28.137 Y157.383 E9.8842
G1 X28.112 Y155.921 E9.9566
G1 X28.122 Y155.623 E9.9713
G1 X28.246 Y154.166 E10.0437
G1 X28.287 Y153.870 E10.0585
G1 X28.558 Y152.433 E10.1308
G1 X28.628 Y152.143 E10.1456
G1 X29.044 Y150.742 E10.2179
G1 X29.144 Y150.460 E10.2327
G1 X29.700 Y149.108 E10.3051
G1 X29.827 Y148.838 E10.3198
