; G-Code generated by Simplify3D(R) Version 4.1.2
; May 24, 2019 at 8:43:21 AM
; Settings Summary
;   processName,Ender3-PLA
;   applyToModels,Full-Size-Whistle-V3,Micro-Size-Whistle-V3
;   profileName,Ender-V6-PLA
;   profileVersion,2019-05-21 12:37:48
;   baseProfile,Default (modified)
;   printMaterial,PLA
;   printQuality,Normal 0.20
;   printExtruders,
;   extruderName,Primary Extruder
;   extruderToolheadNumber,0
;   extruderDiameter,0.4
;   extruderAutoWidth,0
;   extruderWidth,0.5
;   extrusionMultiplier,0.9
;   extruderUseRetract,1
;   extruderRetractionDistance,1.7
;   extruderExtraRestartDistance,0
;   extruderRetractionZLift,0.4
;   extruderRetractionSpeed,2400
;   extruderUseCoasting,1
;   extruderCoastingDistance,0.2
;   extruderUseWipe,0
;   extruderWipeDistance,2
;   primaryExtruder,0
;   layerHeight,0.2
;   topSolidLayers,4
;   bottomSolidLayers,3
;   perimeterOutlines,2
;   printPerimetersInsideOut,1
;   startPointOption,3
;   startPointOriginX,230
;   startPointOriginY,230
;   sequentialIslands,0
;   spiralVaseMode,0
;   firstLayerHeightPercentage,115
;   firstLayerWidthPercentage,115
;   firstLayerUnderspeed,0.3
;   useRaft,0
;   raftExtruder,0
;   raftTopLayers,3
;   raftBaseLayers,2
;   raftOffset,3
;   raftSeparationDistance,0.14
;   raftTopInfill,100
;   aboveRaftSpeedMultiplier,0.3
;   useSkirt,1
;   skirtExtruder,0
;   skirtLayers,1
;   skirtOutlines,2
;   skirtOffset,5
;   usePrimePillar,0
;   primePillarExtruder,999
;   primePillarWidth,12
;   primePillarLocation,7
;   primePillarSpeedMultiplier,1
;   useOozeShield,0
;   oozeShieldExtruder,999
;   oozeShieldOffset,2
;   oozeShieldOutlines,1
;   oozeShieldSidewallShape,1
;   oozeShieldSidewallAngle,30
;   oozeShieldSpeedMultiplier,1
;   infillExtruder,0
;   internalInfillPattern,Rectilinear
;   externalInfillPattern,Rectilinear
;   infillPercentage,15
;   outlineOverlapPercentage,30
;   infillExtrusionWidthPercentage,100
;   minInfillLength,5
;   infillLayerInterval,1
;   internalInfillAngles,45,-45
;   overlapInternalInfillAngles,0
;   externalInfillAngles,45,-45
;   generateSupport,0
;   supportExtruder,0
;   supportInfillPercentage,30
;   supportExtraInflation,0.8
;   supportBaseLayers,2
;   denseSupportExtruder,0
;   denseSupportLayers,2
;   denseSupportInfillPercentage,85
;   supportLayerInterval,1
;   supportHorizontalPartOffset,0.7
;   supportUpperSeparationLayers,1
;   supportLowerSeparationLayers,1
;   supportType,1
;   supportGridSpacing,4
;   maxOverhangAngle,54
;   supportAngles,0
;   temperatureName,Primary Extruder,Heated Bed
;   temperatureNumber,0,0
;   temperatureSetpointCount,1,1
;   temperatureSetpointLayers,1,1
;   temperatureSetpointTemperatures,210,60
;   temperatureStabilizeAtStartup,1,1
;   temperatureHeatedBed,0,1
;   fanLayers,1,2,3
;   fanSpeeds,0,60,100
;   blipFanToFullPower,0
;   adjustSpeedForCooling,1
;   minSpeedLayerTime,1
;   minCoolingSpeedSlowdown,10
;   increaseFanForCooling,0
;   minFanLayerTime,45
;   maxCoolingFanSpeed,100
;   increaseFanForBridging,1
;   bridgingFanSpeed,100
;   use5D,1
;   relativeEdistances,0
;   allowEaxisZeroing,1
;   independentExtruderAxes,0
;   includeM10123,0
;   stickySupport,1
;   applyToolheadOffsets,0
;   gcodeXoffset,0
;   gcodeYoffset,0
;   gcodeZoffset,0
;   overrideMachineDefinition,1
;   machineTypeOverride,0
;   strokeXoverride,232
;   strokeYoverride,228
;   strokeZoverride,208
;   originOffsetXoverride,0
;   originOffsetYoverride,0
;   originOffsetZoverride,0
;   homeXdirOverride,-1
;   homeYdirOverride,1
;   homeZdirOverride,-1
;   flipXoverride,1
;   flipYoverride,-1
;   flipZoverride,1
;   toolheadOffsets,4,-13|0,0|0,0|0,0|0,0|0,0
;   overrideFirmwareConfiguration,0
;   firmwareTypeOverride,RepRap (Marlin/Repetier/Sprinter)
;   GPXconfigOverride,r2
;   baudRateOverride,115200
;   overridePrinterModels,0
;   printerModelsOverride
;   startingGcode,G28 ; home all axes,M300 S2500 P100; Beep,,; Start of print,G21; metric values,G90 ; absolute positioning,M82; set extruder to absolute mode,,; Prepare nozzle,G91;,G92 E0 ; Set extrusion distance to 0,G1 F1800 E3;,G92 E0 ; Set extrusion distance to 0,G90;,,,; You may want to adjust the X and Y here so the nozzle is really above the bed!,G1 Z0.6; Move nozzle above 0.6 mm of the bed,G1 X0.5 Y7.0 F7200 ; Move to a position in the left front of the bed,,,G91 ; Use relative mode,; Make some jerky zick-zack move at the beginning,; This is supposed to get rid of residue at the nozzle,G1 X5.0 Y1.0 Z-0.1 E-1.0 F7200 ,G1 X-5.0 Y1.0 Z0.1 E2.0 F7200 ,G1 X5.0 Y2 Z-0.1 F7200,G1 X-5 Y2 Z0.1 F7200,G1 X5 Y2 F7200,G1 X-5 2 F7200,,; now print a line of filament to prepare extrusion,G1 Y200 E40 F1000 ; prints a line in the fron,,; Done with the dancing :),G92 E0 ; Set extrusion distance to 0,G90 ; switch back to absolute mode,,,; Start of actual GCode for the print
;   layerChangeGcode,
;   retractionGcode,
;   toolChangeGcode,
;   endingGcode,M104 S0 ; turn off extruder,M140 S0 ; turn off bed,M106 S0 ; turn off cooling fan,G91,G1 F1800 E-4,G1 Z5 ,G90,G1 X1 ; home x ,G1 Y180; Remove Print Position,M84 ; disable motors
;   exportFileFormat,gcode
;   celebration,0
;   celebrationSong,Funky Town
;   postProcessing,curl  -F "file=@[output_filepath]" "http:///192.168.0.107/rr_upload?name=gcodes/[output_filename].gcode&time=YYY",;curl "http:///192.168.0.93/rr_gcode?gcode=M32[output_filename].gcode",;curl "http:///192.168.0.93/rr_disconnect"
;   defaultSpeed,5400
;   outlineUnderspeed,0.5
;   solidInfillUnderspeed,0.6
;   supportUnderspeed,0.7
;   rapidXYspeed,9000
;   rapidZspeed,1200
;   minBridgingArea,30
;   bridgingExtraInflation,0
;   bridgingExtrusionMultiplier,0.9
;   bridgingSpeedMultiplier,1.1
;   useFixedBridgingAngle,0
;   fixedBridgingAngle,0
;   applyBridgingToPerimeters,0
;   filamentDiameters,1.75|1.75|1.75|1.75|1.75|1.75
;   filamentPricesPerKg,46|46|46|46|46|46
;   filamentDensities,1.25|1.25|1.25|1.25|1.25|1.25
;   useMinPrintHeight,0
;   minPrintHeight,0
;   useMaxPrintHeight,0
;   maxPrintHeight,10
;   useDiaphragm,0
;   diaphragmLayerInterval,20
;   robustSlicing,1
;   mergeAllIntoSolid,0
;   onlyRetractWhenCrossingOutline,1
;   retractBetweenLayers,0
;   useRetractionMinTravel,0
;   retractionMinTravel,3
;   retractWhileWiping,1
;   onlyWipeOutlines,1
;   avoidCrossingOutline,0
;   maxMovementDetourFactor,4
;   toolChangeRetractionDistance,30
;   toolChangeExtraRestartDistance,-0.5
;   toolChangeRetractionSpeed,600
;   externalThinWallType,0
;   internalThinWallType,1
;   thinWallAllowedOverlapPercentage,30
;   singleExtrusionMinLength,0.6
;   singleExtrusionMinPrintingWidthPercentage,50
;   singleExtrusionMaxPrintingWidthPercentage,200
;   singleExtrusionEndpointExtension,0.2
;   horizontalSizeCompensation,0
G90
M82
M106 S0
M140 S60
M190 S60
M104 S210 T0
M109 S210 T0
G28 ; home all axes
M300 S2500 P100; Beep
; Start of print
G21; metric values
G90 ; absolute positioning
M82; set extruder to absolute mode
; Prepare nozzle
G91;
G92 E0 ; Set extrusion distance to 0
G1 F1800 E3;
G92 E0 ; Set extrusion distance to 0
G90;
; You may want to adjust the X and Y here so the nozzle is really above the bed!
G1 Z0.6; Move nozzle above 0.6 mm of the bed
G1 X0.5 Y7.0 F7200 ; Move to a position in the left front of the bed
G91 ; Use relative mode
; Make some jerky zick-zack move at the beginning
; This is supposed to get rid of residue at the nozzle
G1 X5.0 Y1.0 Z-0.1 E-1.0 F7200 
G1 X-5.0 Y1.0 Z0.1 E2.0 F7200 
G1 X5.0 Y2 Z-0.1 F7200
G1 X-5 Y2 Z0.1 F7200
G1 X5 Y2 F7200
G1 X-5 2 F7200
; now print a line of filament to prepare extrusion
G1 Y200 E40 F1000 ; prints a line in the fron
; Done with the dancing :)
G92 E0 ; Set extrusion distance to 0
G90 ; switch back to absolute mode
; Start of actual GCode for the print
; process Ender3-PLA
; layer 1, Z = 0.230
T0
G92 E0.0000
G1 E-1.7000 F2400
; feature skirt
; tool H0.230 W0.575
G1 Z0.400 F1200
G1 X130.749 Y140.517 F9000
G1 Z0.230 F1200
G1 E0.0000 F2400
G92 E0.0000
G1 X130.510 Y140.600 E0.0125 F1620
G1 X130.425 Y140.725 E0.0200
G1 X127.847 Y142.093 E0.1644
G1 X109.898 Y142.093 E1.0526
G1 X109.086 Y141.979 E1.0932
G1 X108.461 Y141.799 E1.1254
G1 X97.869 Y141.799 E1.6495
G1 X97.652 Y141.791 E1.6603
G1 X87.574 Y141.042 E2.1603
G1 X86.585 Y140.792 E2.2108
G1 X85.462 Y140.289 E2.2717
G1 X84.463 Y139.557 E2.3330
G1 X83.250 Y138.198 E2.4231
G1 X82.481 Y136.180 E2.5300
G1 X82.481 Y119.050 E3.3777
G1 X83.250 Y117.032 E3.4845
G1 X83.868 Y116.340 E3.5305
G1 X83.429 Y115.906 E3.5610
G1 X82.522 Y113.736 E3.6774
G1 X82.522 Y92.015 E4.7523
G1 X83.457 Y89.816 E4.8705
G1 X84.801 Y88.521 E4.9628
G1 X85.725 Y87.917 E5.0175
G1 X86.790 Y87.478 E5.0745
G1 X87.697 Y87.263 E5.1206
G1 X100.088 Y86.344 E5.7354
G1 X100.305 Y86.336 E5.7462
G1 X114.614 Y86.336 E6.4543
G1 X115.286 Y86.089 E6.4897
G1 X116.305 Y85.907 E6.5409
G1 X138.831 Y85.907 E7.6556
G1 X140.462 Y86.771 E7.7470
G1 X141.331 Y86.749 E7.7899
G1 X146.959 Y95.688 E8.3127
G1 X147.052 Y95.848 E8.3218
G1 X147.638 Y96.923 E8.3824
G1 X147.783 Y97.231 E8.3993
G1 X148.226 Y98.331 E8.4579
G1 X148.337 Y98.665 E8.4754
G1 X148.673 Y99.914 E8.5394
G1 X148.736 Y100.211 E8.5544
G1 X148.893 Y101.187 E8.6033
G1 X148.922 Y101.437 E8.6157
G1 X148.982 Y102.253 E8.6562
G1 X148.990 Y102.479 E8.6674
G1 X148.986 Y103.323 E8.7092
G1 X148.974 Y103.583 E8.7220
G1 X148.884 Y104.554 E8.7703
G1 X148.836 Y104.874 E8.7863
G1 X148.551 Y106.262 E8.8565
G1 X148.455 Y106.616 E8.8746
G1 X148.074 Y107.735 E8.9331
G1 X147.954 Y108.033 E8.9490
G1 X147.457 Y109.097 E9.0071
G1 X147.290 Y109.405 E9.0245
G1 X141.942 Y117.999 E9.5253
G1 X141.697 Y118.084 E9.5382
G1 X141.443 Y118.468 E9.5609
G1 X138.845 Y119.862 E9.7068
G1 X134.009 Y119.862 E9.9462
G1 X134.931 Y121.327 E10.0318
G1 X135.024 Y121.486 E10.0409
G1 X135.528 Y122.411 E10.0930
G1 X135.703 Y122.795 E10.1139
G1 X136.174 Y124.064 E10.1809
G1 X136.269 Y124.370 E10.1968
G1 X136.417 Y124.960 E10.2268
G1 X136.465 Y125.195 E10.2387
G1 X136.624 Y126.155 E10.2869
G1 X136.662 Y126.546 E10.3063
G1 X136.702 Y127.873 E10.3720
G1 X136.692 Y128.216 E10.3890
G1 X136.628 Y128.950 E10.4254
G1 X136.583 Y129.263 E10.4411
G1 X136.335 Y130.519 E10.5045
G1 X136.234 Y130.895 E10.5237
G1 X135.911 Y131.845 E10.5734
G1 X135.797 Y132.131 E10.5886
G1 X135.418 Y132.951 E10.6333
G1 X135.248 Y133.267 E10.6511
G1 X130.749 Y140.517 E11.0733
G92 E0.0000
G1 E-1.7000 F2400
G1 Z0.630 F1200
G1 X130.368 Y140.040 F9000
G1 Z0.230 F1200
G1 E0.0000 F2400
G92 E0.0000
G1 X130.141 Y140.119 E0.0119 F1620
G1 X130.029 Y140.284 E0.0218
G1 X127.704 Y141.518 E0.1520
G1 X109.938 Y141.518 E1.0312
G1 X109.206 Y141.415 E1.0677
G1 X108.542 Y141.224 E1.1019
G1 X97.880 Y141.224 E1.6295
G1 X97.684 Y141.217 E1.6392
G1 X87.667 Y140.473 E2.1363
G1 X86.775 Y140.247 E2.1818
G1 X85.753 Y139.789 E2.2372
G1 X84.852 Y139.129 E2.2925
G1 X83.750 Y137.894 E2.3744
G1 X83.056 Y136.074 E2.4708
G1 X83.056 Y119.156 E3.3080
G1 X83.750 Y117.336 E3.4044
G1 X84.661 Y116.315 E3.4721
G1 X83.915 Y115.578 E3.5240
G1 X83.097 Y113.621 E3.6289
G1 X83.097 Y92.132 E4.6923
G1 X83.940 Y90.149 E4.7990
G1 X85.161 Y88.973 E4.8828
G1 X85.994 Y88.428 E4.9321
G1 X86.967 Y88.027 E4.9842
G1 X87.785 Y87.833 E5.0257
G1 X100.120 Y86.918 E5.6378
G1 X100.316 Y86.911 E5.6475
G1 X114.634 Y86.911 E6.3561
G1 X114.721 Y86.906 E6.3604
G1 X114.754 Y86.897 E6.3621
G1 X115.437 Y86.646 E6.3981
G1 X116.356 Y86.482 E6.4443
G1 X138.688 Y86.482 E7.5494
G1 X140.326 Y87.350 E7.6411
G1 X141.019 Y87.332 E7.6754
G1 X146.467 Y95.987 E8.1814
G1 X146.552 Y96.131 E8.1897
G1 X147.125 Y97.183 E8.2490
G1 X147.256 Y97.462 E8.2642
G1 X147.686 Y98.530 E8.3212
G1 X147.786 Y98.831 E8.3369
G1 X148.114 Y100.049 E8.3993
G1 X148.171 Y100.316 E8.4129
G1 X148.323 Y101.266 E8.4605
G1 X148.349 Y101.491 E8.4717
G1 X148.408 Y102.284 E8.5110
G1 X148.415 Y102.488 E8.5211
G1 X148.411 Y103.308 E8.5617
G1 X148.400 Y103.542 E8.5733
G1 X148.313 Y104.485 E8.6201
G1 X148.270 Y104.773 E8.6346
G1 X147.991 Y106.129 E8.7030
G1 X147.904 Y106.448 E8.7194
G1 X147.535 Y107.535 E8.7763
G1 X147.427 Y107.804 E8.7906
G1 X146.943 Y108.838 E8.8471
G1 X146.793 Y109.116 E8.8627
G1 X141.561 Y117.523 E9.3527
G1 X141.325 Y117.605 E9.3651
G1 X141.044 Y118.030 E9.3903
G1 X138.701 Y119.287 E9.5219
G1 X132.968 Y119.287 E9.8056
G1 X134.439 Y121.625 E9.9423
G1 X134.523 Y121.769 E9.9505
G1 X135.014 Y122.668 E10.0012
G1 X135.171 Y123.014 E10.0200
G1 X135.629 Y124.249 E10.0852
G1 X135.715 Y124.525 E10.0995
G1 X135.856 Y125.089 E10.1282
G1 X135.900 Y125.301 E10.1389
G1 X136.054 Y126.230 E10.1855
G1 X136.088 Y126.583 E10.2031
G1 X136.126 Y127.874 E10.2670
G1 X136.118 Y128.183 E10.2823
G1 X136.056 Y128.884 E10.3171
G1 X136.016 Y129.167 E10.3313
G1 X135.774 Y130.389 E10.3929
G1 X135.684 Y130.728 E10.4102
G1 X135.371 Y131.646 E10.4582
G1 X135.268 Y131.904 E10.4720
G1 X134.903 Y132.694 E10.5150
G1 X134.750 Y132.979 E10.5311
G1 X130.368 Y140.040 E10.9423
G92 E0.0000
G1 E-1.7000 F2400
; feature inner perimeter
G1 Z0.630 F1200
G1 X136.917 Y113.137 F9000
G1 Z0.230 F1200
G1 E0.0000 F2400
G92 E0.0000
G1 X116.976 Y113.137 E0.9868 F1215
G1 X116.600 Y112.999 E1.0066
G1 X115.982 Y112.837 E1.0382
G1 X115.420 Y112.745 E1.0664
G1 X114.813 Y112.709 E1.0965
G1 X100.446 Y112.709 E1.8074
G1 X89.247 Y111.877 E2.3631
G1 X89.247 Y93.892 E3.2531
G1 X100.446 Y93.061 E3.8088
G1 X114.813 Y93.061 E4.5198
G1 X115.420 Y93.025 E4.5499
G1 X115.982 Y92.933 E4.5780
G1 X116.600 Y92.771 E4.6097
G1 X116.976 Y92.632 E4.6295
G1 X136.918 Y92.632 E5.6163
G1 X137.448 Y93.414 E5.6630
G1 X137.655 Y93.533 E5.6749
G1 X140.890 Y98.672 E5.9753
G1 X140.369 Y98.648 E6.0012
G1 X140.049 Y98.671 E6.0170
G1 X139.523 Y98.788 E6.0437
G1 X139.231 Y98.898 E6.0591
G1 X138.971 Y99.027 E6.0735
G1 X138.706 Y99.191 E6.0889
G1 X138.298 Y99.536 E6.1154
G1 X137.847 Y100.035 E6.1487
G1 X137.839 Y105.693 E6.4287
G1 X138.273 Y106.208 E6.4620
G1 X138.493 Y106.413 E6.4769
G1 X138.724 Y106.590 E6.4912
G1 X138.971 Y106.743 E6.5056
G1 X139.231 Y106.872 E6.5200
G1 X139.503 Y106.975 E6.5344
G1 X139.783 Y107.051 E6.5488
G1 X140.070 Y107.100 E6.5631
G1 X140.360 Y107.121 E6.5775
G1 X140.814 Y107.110 E6.6000
G1 X137.499 Y112.411 E6.9094
G1 X137.217 Y112.663 E6.9281
G1 X137.030 Y112.972 E6.9460
G1 X136.917 Y113.137 F1215
; feature outer perimeter
G1 X137.513 Y113.284 F9000
G92 E0.0000
G1 X137.220 Y113.712 E0.0257 F810
G1 X116.874 Y113.712 E1.0325
G1 X116.428 Y113.548 E1.0560
G1 X115.862 Y113.400 E1.0850
G1 X115.357 Y113.317 E1.1103
G1 X114.796 Y113.284 E1.1381
G1 X100.424 Y113.284 E1.8493
G1 X88.672 Y112.411 E2.4325
G1 X88.672 Y93.358 E3.3753
G1 X100.424 Y92.486 E3.9584
G1 X114.796 Y92.486 E4.6696
G1 X115.357 Y92.453 E4.6974
G1 X115.862 Y92.370 E4.7228
G1 X116.428 Y92.221 E4.7517
G1 X116.874 Y92.057 E4.7752
G1 X137.222 Y92.057 E5.7822
G1 X137.850 Y92.982 E5.8375
G1 X138.051 Y93.098 E5.8489
G1 X138.059 Y93.095 E5.8494
G1 X141.702 Y98.882 E6.1877
G1 X141.967 Y99.339 E6.2139
G1 X142.147 Y99.699 E6.2338
G1 X142.308 Y100.070 E6.2538
G1 X142.332 Y100.133 E6.2571
G1 X142.296 Y100.089 E6.2599
G1 X142.088 Y99.875 E6.2747
G1 X141.903 Y99.719 E6.2866
G1 X141.517 Y99.479 E6.3092
G1 X141.295 Y99.382 E6.3212
G1 X141.066 Y99.307 E6.3331
G1 X140.679 Y99.238 E6.3525
G1 X140.377 Y99.224 E6.3675
G1 X140.132 Y99.242 E6.3796
G1 X139.688 Y99.340 E6.4021
G1 X139.461 Y99.426 E6.4141
G1 X139.251 Y99.530 E6.4257
G1 X139.045 Y99.658 E6.4377
G1 X138.698 Y99.951 E6.4602
G1 X138.422 Y100.257 E6.4806
G1 X138.414 Y105.484 E6.7393
G1 X138.690 Y105.811 E6.7604
G1 X138.865 Y105.973 E6.7722
G1 X139.051 Y106.116 E6.7838
G1 X139.251 Y106.240 E6.7955
G1 X139.461 Y106.344 E6.8071
G1 X139.681 Y106.427 E6.8187
