; generated by PrusaSlicer 2.0.0+win64 on 2019-07-25 at 16:59:25

; 

; external perimeters extrusion width = 0.60mm
; perimeters extrusion width = 0.60mm
; infill extrusion width = 0.60mm
; solid infill extrusion width = 0.60mm
; top infill extrusion width = 0.60mm
; support material extrusion width = 0.60mm
; first layer extrusion width = 0.60mm

M107
M83  ; extruder relative mode
M140 S95 ; set bed temp
M109 S160 ; Set extruder temp before bed level
M190 S95 ; wait for bed temp

G28  ; home all without mesh bed level

M109 S240 ; wait for extruder temp

G1 Y4.0 F1000.0 ; go outside print area
G92 E0.0
G1 E8 ; Purge Bubble
G1 X60.0 E9.0  F1000.0 ; intro line
G1 X100.0 E12.5  F1000.0 ; intro line
G92 E0.0
G21 ; set units to millimeters
G90 ; use absolute coordinates
M82 ; use absolute distances for extrusion
G92 E0

G10 ; retract
G92 E0
G1 Z0.200 F10800.000
G1 Z0.400
;AFTER_LAYER_CHANGE
;0.4
G1 Z0.600
G1 X85.770 Y138.254
G1 Z0.400
G11 ; unretract
G92 E0
M204 S1000
G1 F1800
G1 X85.340 Y137.541 E0.06905
G1 X85.185 Y136.722 E0.13819
G1 X85.184 Y106.150 E2.67377
G1 X85.315 Y104.959 E2.77318
G1 X85.653 Y103.984 E2.85873
G1 X85.982 Y103.439 E2.91155
G1 X86.442 Y102.925 E2.96872
G1 X107.060 Y84.791 E5.24610
G1 X107.878 Y84.229 E5.32839
G1 X108.813 Y83.790 E5.41413
G1 X109.971 Y83.480 E5.51352
G1 X111.000 Y83.395 E5.59914
G1 X111.988 Y83.473 E5.68135
G1 X112.987 Y83.719 E5.76667
G1 X114.080 Y84.205 E5.86591
G1 X114.923 Y84.777 E5.95046
G1 X135.546 Y102.915 E8.22834
G1 X136.096 Y103.549 E8.29788
G1 X136.488 Y104.308 E8.36877
G1 X136.728 Y105.178 E8.44365
G1 X136.817 Y106.164 E8.52572
G1 X136.814 Y135.968 E10.99767
G1 X136.709 Y136.594 E11.05032
G1 X135.812 Y139.165 E11.27619
G1 X135.453 Y139.675 E11.32791
G1 X134.976 Y140.082 E11.37989
G1 X114.720 Y152.751 E13.36144
G1 X114.060 Y153.085 E13.42282
G1 X113.193 Y153.390 E13.49904
G1 X112.495 Y153.535 E13.55822
G1 X111.586 Y153.605 E13.63381
G1 X110.857 Y153.565 E13.69434
G1 X109.947 Y153.393 E13.77116
G1 X109.075 Y153.089 E13.84779
G1 X108.438 Y152.769 E13.90686
G1 X88.138 Y140.086 E15.89220
G1 X85.829 Y138.299 E16.13431
G10 ; retract
G92 E0
G1 Z0.600 F10800.000
G1 X120.303 Y136.331
G1 Z0.400
G11 ; unretract
G92 E0
G1 F1800
G1 X120.681 Y135.535 E0.07313
G1 X120.680 Y134.089 E0.19301
G1 X120.513 Y133.570 E0.23825
G1 X120.303 Y133.331 E0.26464
G1 X120.681 Y132.535 E0.33777
G1 X120.680 Y131.089 E0.45765
G1 X120.513 Y130.570 E0.50287
G1 X120.303 Y130.331 E0.52925
G1 X120.681 Y129.534 E0.60245
G1 X120.680 Y128.089 E0.72227
G1 X120.513 Y127.570 E0.76749
G1 X120.303 Y127.331 E0.79390
G1 X120.681 Y126.535 E0.86703
G1 X120.680 Y125.089 E0.98691
G1 X120.513 Y124.570 E1.03213
G1 X120.303 Y124.331 E1.05854
G1 X120.681 Y123.535 E1.13167
G1 X120.680 Y122.089 E1.25155
G1 X120.491 Y121.500 E1.30290
G1 X120.680 Y121.459 E1.31899
G1 X120.679 Y119.607 E1.47256
G1 X121.363 Y120.228 E1.54913
G1 X121.744 Y120.528 E1.58941
G1 X122.075 Y120.755 E1.62264
G1 X122.633 Y121.080 E1.67622
G1 X123.387 Y121.425 E1.74498
G1 X123.782 Y121.565 E1.77979
G1 X124.497 Y121.756 E1.84112
G1 X125.227 Y121.872 E1.90244
G1 X125.639 Y121.904 E1.93672
G1 X126.361 Y121.904 E1.99661
G1 X126.773 Y121.872 E2.03088
G1 X127.486 Y121.759 E2.09077
G1 X127.885 Y121.663 E2.12481
G1 X128.500 Y121.466 E2.17839
G1 X129.261 Y121.136 E2.24715
G1 X129.630 Y120.936 E2.28196
G1 X130.235 Y120.543 E2.34184
G1 X130.563 Y120.291 E2.37612
G1 X131.113 Y119.796 E2.43745
G1 X131.608 Y119.247 E2.49877
G1 X131.857 Y118.921 E2.53282
G1 X132.212 Y118.381 E2.58640
G1 X132.595 Y117.646 E2.65516
G1 X132.756 Y117.258 E2.68997
G1 X132.969 Y116.603 E2.74708
G1 X133.229 Y116.645 E2.76893
G1 X133.229 Y119.990 E3.04642
G1 X131.321 Y120.413 E3.20853
G1 X131.319 Y123.855 E3.49397
G1 X131.487 Y123.880 E3.50802
G1 X131.322 Y124.427 E3.55540
G1 X131.321 Y125.894 E3.67706
G1 X131.708 Y126.637 E3.74656
G1 X131.471 Y126.933 E3.77807
G1 X131.322 Y127.427 E3.82078
G1 X131.321 Y128.835 E3.93756
G1 X131.683 Y129.668 E4.01296
G1 X131.471 Y129.933 E4.04115
G1 X131.322 Y130.427 E4.08386
G1 X131.321 Y131.835 E4.20064
G1 X131.683 Y132.668 E4.27604
G1 X131.471 Y132.934 E4.30423
G1 X131.322 Y133.427 E4.34694
G1 X131.321 Y134.835 E4.46372
G1 X131.683 Y135.668 E4.53911
G1 X131.471 Y135.934 E4.56731
G1 X131.322 Y136.427 E4.61002
G1 X131.322 Y136.855 E4.64558
G1 X120.605 Y136.855 E5.53443
G1 X120.513 Y136.570 E5.55929
G1 X120.352 Y136.387 E5.57946
G10 ; retract
G92 E0
G1 Z0.600 F10800.000
G1 X119.478 Y117.830
G1 Z0.400
G11 ; unretract
G92 E0
G1 F1800
G1 X118.770 Y117.719 E0.05939
G1 X118.770 Y116.643 E0.14868
G1 X119.031 Y116.602 E0.17058
G1 X119.212 Y117.166 E0.21973
G1 X119.450 Y117.760 E0.27281
G10 ; retract
G92 E0
G1 Z0.600 F10800.000
G1 X131.835 Y120.826
G1 Z0.400
G11 ; unretract
G92 E0
G1 F1800
G1 X131.834 Y123.413 E0.21455
G1 X132.423 Y123.502 E0.26400
G1 X132.459 Y123.724 E0.28267
G1 X132.187 Y123.862 E0.30797
G1 X131.934 Y124.177 E0.34146
G1 X131.836 Y124.503 E0.36966
G1 X131.836 Y125.768 E0.47460
G1 X132.098 Y126.273 E0.52178
G1 X132.712 Y126.596 E0.57934
G1 X132.187 Y126.862 E0.62820
G1 X131.934 Y127.177 E0.66169
G1 X131.836 Y127.503 E0.68987
G1 X131.835 Y128.728 E0.79150
G1 X132.058 Y129.240 E0.83784
G1 X132.705 Y129.600 E0.89921
G1 X132.187 Y129.862 E0.94736
G1 X131.934 Y130.177 E0.98085
G1 X131.836 Y130.503 E1.00903
G1 X131.835 Y131.728 E1.11066
G1 X132.058 Y132.240 E1.15700
G1 X132.705 Y132.600 E1.21837
G1 X132.187 Y132.862 E1.26652
G1 X131.934 Y133.177 E1.30001
G1 X131.836 Y133.503 E1.32819
G1 X131.835 Y134.728 E1.42982
G1 X132.058 Y135.240 E1.47615
G1 X132.705 Y135.600 E1.53752
G1 X132.187 Y135.862 E1.58567
G1 X131.934 Y136.177 E1.61916
G1 X131.836 Y136.503 E1.64734
G1 X131.836 Y137.369 E1.71924
G1 X120.166 Y137.369 E2.68709
G1 X120.166 Y137.170 E2.70365
G1 X120.057 Y136.829 E2.73330
G1 X119.778 Y136.513 E2.76824
G1 X119.280 Y136.300 E2.81316
G1 X119.927 Y135.924 E2.87521
G1 X120.167 Y135.419 E2.92160
G1 X120.166 Y134.170 E3.02518
G1 X120.057 Y133.829 E3.05485
G1 X119.778 Y133.513 E3.08979
G1 X119.280 Y133.300 E3.13471
G1 X119.927 Y132.924 E3.19676
G1 X120.167 Y132.419 E3.24314
G1 X120.166 Y131.170 E3.34672
G1 X120.057 Y130.830 E3.37639
G1 X119.778 Y130.513 E3.41134
G1 X119.280 Y130.300 E3.45626
G1 X119.927 Y129.924 E3.51834
G1 X120.167 Y129.418 E3.56474
G1 X120.166 Y128.170 E3.66827
G1 X120.057 Y127.830 E3.69794
G1 X119.778 Y127.513 E3.73288
G1 X119.280 Y127.300 E3.77780
G1 X119.927 Y126.924 E3.83985
G1 X120.167 Y126.419 E3.88624
G1 X120.166 Y125.170 E3.98982
G1 X120.057 Y124.830 E4.01948
G1 X119.778 Y124.513 E4.05443
G1 X119.280 Y124.300 E4.09935
G1 X119.927 Y123.924 E4.16140
G1 X120.167 Y123.419 E4.20778
G1 X120.166 Y122.170 E4.31136
G1 X120.057 Y121.830 E4.34103
G1 X119.778 Y121.513 E4.37598
G1 X119.522 Y121.404 E4.39909
G1 X119.543 Y121.179 E4.41778
G1 X120.166 Y121.044 E4.47061
G1 X120.164 Y118.458 E4.68512
G1 X118.256 Y118.159 E4.84530
G1 X118.255 Y106.199 E5.83725
G1 X118.291 Y105.748 E5.87483
G1 X118.382 Y105.415 E5.90341
G1 X118.479 Y105.222 E5.92137
G1 X119.171 Y105.227 E5.97876
G1 X119.240 Y105.550 E6.00618
G1 X119.273 Y105.835 E6.02996
G1 X119.294 Y115.036 E6.79302
G1 X119.367 Y115.734 E6.85129
G1 X119.513 Y116.420 E6.90945
G1 X119.696 Y116.992 E6.95927
G1 X119.868 Y117.421 E6.99755
G1 X120.179 Y118.032 E7.05447
G1 X120.377 Y118.355 E7.08588
G1 X120.781 Y118.910 E7.14281
G1 X121.250 Y119.431 E7.20097
G1 X121.695 Y119.835 E7.25079
G1 X122.049 Y120.113 E7.28818
G1 X122.350 Y120.320 E7.31847
G1 X122.870 Y120.623 E7.36835
G1 X123.580 Y120.948 E7.43310
G1 X123.935 Y121.073 E7.46435
G1 X124.604 Y121.253 E7.52177
G1 X125.287 Y121.361 E7.57919
G1 X125.659 Y121.390 E7.61012
G1 X126.341 Y121.390 E7.66665
G1 X126.713 Y121.361 E7.69757
G1 X127.386 Y121.254 E7.75410
G1 X127.747 Y121.168 E7.78489
G1 X128.319 Y120.984 E7.83477
G1 X129.036 Y120.674 E7.89952
G1 X129.367 Y120.494 E7.93078
G1 X129.938 Y120.123 E7.98731
G1 X130.234 Y119.896 E8.01823
G1 X130.749 Y119.432 E8.07565
G1 X131.212 Y118.918 E8.13307
G1 X131.438 Y118.624 E8.16385
G1 X131.768 Y118.121 E8.21373
G1 X132.129 Y117.428 E8.27848
G1 X132.273 Y117.080 E8.30974
G1 X132.487 Y116.422 E8.36716
G1 X132.633 Y115.734 E8.42546
G1 X132.706 Y115.036 E8.48373
G1 X132.727 Y105.836 E9.24673
G1 X132.765 Y105.514 E9.27366
G1 X132.839 Y105.227 E9.29818
G1 X133.522 Y105.223 E9.35483
G1 X133.628 Y105.435 E9.37447
G1 X133.680 Y105.604 E9.38916
G1 X133.741 Y106.030 E9.42485
G1 X133.744 Y120.403 E10.61696
G1 X131.908 Y120.810 E10.77287
G1 X132.349 Y121.239 F10800.000
G1 F1800
G1 X132.348 Y122.971 E10.91652
G1 X134.042 Y123.228 E11.05865
G1 X134.258 Y123.279 E11.07703
G1 X134.258 Y123.810 E11.12101
G1 X132.752 Y124.152 E11.24909
G1 X132.518 Y124.271 E11.27082
G1 X132.398 Y124.421 E11.28681
G1 X132.350 Y124.579 E11.30046
G1 X132.350 Y125.642 E11.38869
G1 X132.480 Y125.893 E11.41209
G1 X132.727 Y126.023 E11.43524
G1 X134.040 Y126.227 E11.54548
G1 X134.258 Y126.282 E11.56406
G1 X134.258 Y126.810 E11.60786
G1 X132.752 Y127.152 E11.73594
G1 X132.518 Y127.271 E11.75767
G1 X132.398 Y127.421 E11.77366
G1 X132.350 Y127.579 E11.78731
G1 X132.349 Y128.621 E11.87379
G1 X132.460 Y128.876 E11.89679
G1 X132.724 Y129.022 E11.92181
G1 X134.040 Y129.227 E12.03233
G1 X134.258 Y129.282 E12.05092
G1 X134.258 Y129.810 E12.09472
G1 X132.752 Y130.152 E12.22280
G1 X132.518 Y130.271 E12.24453
G1 X132.398 Y130.421 E12.26052
G1 X132.350 Y130.579 E12.27417
G1 X132.349 Y131.621 E12.36065
G1 X132.460 Y131.876 E12.38365
G1 X132.724 Y132.022 E12.40867
G1 X134.040 Y132.227 E12.51919
G1 X134.258 Y132.282 E12.53778
G1 X134.258 Y132.810 E12.58158
G1 X132.752 Y133.152 E12.70966
G1 X132.518 Y133.271 E12.73139
G1 X132.398 Y133.421 E12.74738
G1 X132.350 Y133.579 E12.76103
G1 X132.349 Y134.621 E12.84751
G1 X132.460 Y134.876 E12.87050
G1 X132.724 Y135.022 E12.89552
G1 X134.040 Y135.227 E13.00605
G1 X134.258 Y135.282 E13.02464
G1 X134.258 Y135.810 E13.06843
G1 X132.752 Y136.152 E13.19652
G1 X132.518 Y136.271 E13.21825
G1 X132.398 Y136.421 E13.23424
G1 X132.350 Y136.579 E13.24789
G1 X132.349 Y137.616 E13.33391
G1 X132.455 Y137.884 E13.35778
G1 X119.653 Y137.884 E14.41960
G1 X119.652 Y137.251 E14.47209
G1 X119.600 Y137.089 E14.48619
G1 X119.469 Y136.940 E14.50262
G1 X119.223 Y136.835 E14.52482
G1 X117.742 Y136.596 E14.64927
G1 X117.743 Y136.068 E14.69306
G1 X117.977 Y135.994 E14.71345
G1 X119.278 Y135.707 E14.82391
G1 X119.531 Y135.560 E14.84819
G1 X119.653 Y135.303 E14.87175
G1 X119.652 Y134.251 E14.95903
G1 X119.600 Y134.089 E14.97314
G1 X119.469 Y133.940 E14.98957
G1 X119.223 Y133.835 E15.01177
G1 X117.742 Y133.596 E15.13622
G1 X117.743 Y133.068 E15.18001
G1 X117.977 Y132.994 E15.20040
G1 X119.278 Y132.707 E15.31086
G1 X119.531 Y132.560 E15.33514
G1 X119.653 Y132.303 E15.35870
G1 X119.652 Y131.251 E15.44598
G1 X119.600 Y131.089 E15.46009
G1 X119.469 Y130.940 E15.47651
G1 X119.223 Y130.835 E15.49872
G1 X117.742 Y130.596 E15.62317
G1 X117.743 Y130.068 E15.66696
G1 X117.977 Y129.994 E15.68735
G1 X119.278 Y129.707 E15.79780
G1 X119.531 Y129.560 E15.82210
G1 X119.653 Y129.303 E15.84568
G1 X119.652 Y128.251 E15.93293
G1 X119.600 Y128.089 E15.94704
G1 X119.469 Y127.940 E15.96346
G1 X119.223 Y127.835 E15.98569
G1 X117.742 Y127.598 E16.11004
G1 X117.743 Y127.068 E16.15400
G1 X117.977 Y126.994 E16.17439
G1 X119.278 Y126.707 E16.28484
G1 X119.531 Y126.560 E16.30913
G1 X119.653 Y126.303 E16.33268
G1 X119.652 Y125.251 E16.41997
G1 X119.600 Y125.089 E16.43407
G1 X119.469 Y124.940 E16.45050
G1 X119.223 Y124.835 E16.47272
G1 X117.742 Y124.598 E16.59708
G1 X117.743 Y124.068 E16.64104
G1 X117.977 Y123.994 E16.66142
G1 X119.278 Y123.707 E16.77188
G1 X119.531 Y123.560 E16.79616
G1 X119.653 Y123.303 E16.81972
G1 X119.652 Y122.251 E16.90700
G1 X119.600 Y122.089 E16.92111
G1 X119.469 Y121.940 E16.93753
G1 X119.223 Y121.835 E16.95976
G1 X117.742 Y121.598 E17.08411
G1 X117.743 Y121.067 E17.12817
G1 X118.014 Y120.985 E17.15167
G1 X119.651 Y120.630 E17.29064
G1 X119.650 Y118.898 E17.43428
G1 X117.742 Y118.599 E17.59448
G1 X117.740 Y106.189 E18.62375
G1 X117.786 Y105.647 E18.66892
G1 X117.899 Y105.230 E18.70469
G1 X118.022 Y104.986 E18.72742
G1 X118.151 Y104.831 E18.74415
G1 X118.314 Y104.730 E18.76007
G1 X118.457 Y104.708 E18.77199
G1 X119.496 Y104.715 E18.85818
G1 X119.586 Y104.877 E18.87355
G1 X119.666 Y105.082 E18.89178
G1 X119.748 Y105.467 E18.92445
G1 X119.786 Y105.797 E18.95199
G1 X119.800 Y106.189 E18.98452
G1 X119.808 Y115.008 E19.71599
G1 X119.875 Y115.654 E19.76981
G1 X120.010 Y116.288 E19.82359
G1 X120.180 Y116.818 E19.86974
G1 X120.336 Y117.208 E19.90458
G1 X120.628 Y117.781 E19.95790
G1 X120.802 Y118.064 E19.98548
G1 X121.181 Y118.586 E20.03898
G1 X121.615 Y119.068 E20.09276
G1 X122.027 Y119.442 E20.13892
G1 X122.626 Y119.886 E20.20073
G1 X123.107 Y120.166 E20.24691
G1 X123.773 Y120.471 E20.30766
G1 X124.088 Y120.582 E20.33536
G1 X124.711 Y120.749 E20.38887
G1 X125.348 Y120.850 E20.44237
G1 X125.679 Y120.876 E20.46995
G1 X126.321 Y120.876 E20.52313
G1 X126.652 Y120.850 E20.55070
G1 X127.285 Y120.750 E20.60388
G1 X127.608 Y120.672 E20.63141
G1 X128.138 Y120.502 E20.67758
G1 X128.810 Y120.211 E20.73834
G1 X129.104 Y120.052 E20.76603
G1 X129.641 Y119.702 E20.81921
G1 X129.905 Y119.500 E20.84679
G1 X130.385 Y119.068 E20.90030
G1 X130.816 Y118.589 E20.95380
G1 X131.018 Y118.326 E20.98133
G1 X131.324 Y117.860 E21.02750
G1 X131.662 Y117.211 E21.08825
G1 X131.790 Y116.902 E21.11595
G1 X131.990 Y116.289 E21.16946
G1 X132.125 Y115.654 E21.22329
G1 X132.192 Y115.008 E21.27711
G1 X132.200 Y106.189 E22.00859
G1 X132.214 Y105.797 E22.04108
G1 X132.258 Y105.419 E22.07268
G1 X132.375 Y104.966 E22.11146
G1 X132.504 Y104.715 E22.13487
G1 X133.570 Y104.708 E22.22327
G1 X133.672 Y104.725 E22.23180
G1 X133.793 Y104.786 E22.24306
G1 X133.869 Y104.851 E22.25133
G1 X133.977 Y104.983 E22.26544
G1 X134.106 Y105.242 E22.28952
G1 X134.180 Y105.480 E22.31019
G1 X134.255 Y106.006 E22.35420
G1 X134.258 Y120.785 E23.57999
G1 X134.104 Y120.850 E23.59382
G1 X132.422 Y121.222 E23.73671
G1 X131.851 Y121.277 F10800.000
G10 ; retract
G92 E0
G1 Z0.600
G1 X132.806 Y137.958
G1 Z0.400
G11 ; unretract
G92 E0
G1 F1800
G1 X133.086 Y137.982 E0.01868
G1 X133.365 Y138.005 E0.03579
G1 X133.645 Y138.029 E0.05134
G1 X133.687 Y138.045 E0.05357
G1 X133.704 Y138.043 E0.05432
G1 X133.823 Y138.000 E0.05951
G10 ; retract
G92 E0
G1 Z0.600 F10800.000
G1 X131.219 Y130.875
G1 Z0.400
G11 ; unretract
G92 E0
G1 F1800
G1 X121.014 Y120.670 E1.20434
G1 X121.014 Y121.402 E1.26543
G1 X130.987 Y131.375 E2.44236
G1 X130.987 Y131.904 E2.48651
G1 X131.142 Y132.261 E2.51904
G1 X121.015 Y122.134 E3.71424
G1 X121.015 Y122.866 E3.77532
G1 X131.113 Y132.964 E4.96701
G1 X130.988 Y133.377 E5.00306
G1 X130.988 Y133.570 E5.01918
G1 X121.015 Y123.598 E6.19612
G1 X120.784 Y124.098 E6.24210
G1 X130.987 Y134.301 E7.44629
G1 X130.987 Y134.904 E7.49657
G1 X131.085 Y135.131 E7.51725
G1 X121.014 Y125.060 E8.70578
G1 X121.015 Y125.792 E8.76685
G1 X131.130 Y135.907 E9.96056
G1 X130.988 Y136.377 E10.00155
G1 X130.988 Y136.497 E10.01153
G1 X121.015 Y126.524 E11.18847
G1 X121.015 Y126.610 E11.19563
G1 X120.807 Y127.048 E11.23609
G1 X130.281 Y136.521 E12.35409
G1 X129.549 Y136.521 E12.41514
G1 X120.991 Y127.963 E13.42515
G1 X121.014 Y128.037 E13.43164
G1 X121.015 Y128.718 E13.48853
G1 X128.817 Y136.521 E14.40936
G1 X128.086 Y136.521 E14.47041
G1 X121.015 Y129.450 E15.30487
G1 X121.015 Y129.609 E15.31810
G1 X120.831 Y129.998 E15.35401
G1 X127.354 Y136.521 E16.12386
G1 X126.623 Y136.521 E16.18491
G1 X120.956 Y130.854 E16.85370
G1 X121.014 Y131.037 E16.86970
G1 X121.015 Y131.645 E16.92044
G1 X125.891 Y136.521 E17.49592
G1 X125.159 Y136.521 E17.55697
G1 X121.015 Y132.377 E18.04608
G1 X121.015 Y132.610 E18.06553
G1 X120.855 Y132.948 E18.09676
G1 X124.428 Y136.521 E18.51846
G1 X123.696 Y136.521 E18.57951
G1 X120.921 Y133.746 E18.90706
G1 X121.014 Y134.037 E18.93257
G1 X121.015 Y134.571 E18.97717
G1 X122.965 Y136.521 E19.20730
G1 X122.233 Y136.521 E19.26835
G1 X121.015 Y135.303 E19.41210
G1 X121.015 Y135.610 E19.43770
G1 X120.878 Y135.898 E19.46432
G1 X121.733 Y136.753 E19.56517
G10 ; retract
G92 E0
G1 Z0.600 F10800.000
G1 X119.188 Y136.021
G1 Z0.400
