; generated by PrusaSlicer 2.0.0+win64 on 2019-07-12 at 09:44:25

; 

; external perimeters extrusion width = 0.60mm
; perimeters extrusion width = 0.60mm
; infill extrusion width = 0.60mm
; solid infill extrusion width = 0.60mm
; top infill extrusion width = 0.60mm
; support material extrusion width = 0.60mm
; first layer extrusion width = 0.60mm

M107
M83  ; extruder relative mode
M140 S95 ; set bed temp
M109 S160 ; Set extruder temp before bed level
M190 S95 ; wait for bed temp

G28  ; home all without mesh bed level

M109 S240 ; wait for extruder temp

G1 Y4.0 F1000.0 ; go outside print area
G92 E0.0
G1 E8 ; Purge Bubble
G1 X60.0 E9.0  F1000.0 ; intro line
G1 X100.0 E12.5  F1000.0 ; intro line
G92 E0.0
G21 ; set units to millimeters
G90 ; use absolute coordinates
M82 ; use absolute distances for extrusion
G92 E0

G10 ; retract
G92 E0
G1 Z0.200 F10800.000
G1 Z0.400
;AFTER_LAYER_CHANGE
;0.4
G1 Z0.600
G1 X126.371 Y95.418
G1 Z0.400
G11 ; unretract
G92 E0
M204 S1000
G1 F1800
G1 X127.107 Y95.916 E0.07371
G1 X131.157 Y100.672 E0.59178
G1 X131.545 Y101.376 E0.65853
G1 X131.663 Y102.076 E0.71739
G1 X131.662 Y113.502 E1.66502
G1 X131.588 Y113.996 E1.70649
G1 X129.528 Y121.554 E2.35617
G1 X124.096 Y134.710 E3.53669
G1 X121.082 Y137.864 E3.89855
G1 X114.575 Y141.485 E4.51616
G1 X114.011 Y141.698 E4.56619
G1 X113.507 Y141.757 E4.60828
G1 X96.463 Y141.757 E6.02191
G1 X95.835 Y141.657 E6.07468
G1 X95.262 Y141.387 E6.12715
G1 X94.869 Y141.060 E6.16954
G1 X94.558 Y140.650 E6.21223
G1 X94.348 Y140.180 E6.25493
G1 X94.250 Y139.675 E6.29763
G1 X94.243 Y129.797 E7.11693
G1 X94.311 Y129.257 E7.16207
G1 X106.385 Y96.711 E10.04122
G1 X106.613 Y96.261 E10.08300
G1 X106.951 Y95.858 E10.12662
G1 X107.376 Y95.543 E10.17054
G1 X107.860 Y95.336 E10.21415
G1 X108.378 Y95.246 E10.25777
G1 X125.504 Y95.243 E11.67819
G1 X126.298 Y95.403 E11.74537
G10 ; retract
G92 E0
G1 Z0.600 F10800.000
G1 X115.010 Y105.617
G1 Z0.400
G11 ; unretract
G92 E0
G1 F1800
G1 X115.010 Y136.009 E2.52075
G1 X116.038 Y136.009 E2.60604
G1 X116.038 Y105.514 E5.13532
G1 X116.533 Y105.461 E5.17659
G1 X117.066 Y105.461 E5.22084
G1 X117.066 Y136.009 E7.75451
G1 X118.095 Y136.009 E7.83979
G1 X118.095 Y105.461 E10.37346
G1 X119.123 Y105.461 E10.45875
G1 X119.123 Y136.009 E12.99242
G1 X119.796 Y136.009 E13.04820
G1 X119.796 Y133.474 E13.25850
G1 X120.151 Y133.474 E13.28801
G1 X120.151 Y105.461 E15.61137
G1 X121.180 Y105.461 E15.69666
G1 X121.180 Y133.474 E18.02002
G1 X122.208 Y133.474 E18.10531
G1 X122.208 Y105.461 E20.42867
G1 X123.236 Y105.461 E20.51396
G1 X123.236 Y125.867 E22.20641
G1 X124.265 Y125.867 E22.29170
G1 X124.265 Y105.461 E23.98415
G1 X125.293 Y105.461 E24.06944
G1 X125.293 Y120.796 E25.34128
G1 X126.321 Y120.796 E25.42657
G1 X126.321 Y102.096 E26.97750
G1 X127.350 Y102.096 E27.06279
G1 X127.350 Y120.796 E28.61371
G1 X127.402 Y120.796 E28.61810
G1 X127.402 Y113.189 E29.24901
G1 X128.378 Y113.189 E29.32991
G1 X128.378 Y102.096 E30.24993
G1 X129.406 Y102.096 E30.33522
G1 X129.406 Y113.420 E31.27442
G10 ; retract
G92 E0
G1 Z0.600 F10800.000
G1 X124.172 Y103.516
G1 Z0.400
G11 ; unretract
G92 E0
G1 F1800
G1 X116.429 Y103.516 E0.64216
G1 X115.440 Y103.622 E0.72471
G1 X114.432 Y103.958 E0.81283
G1 X113.534 Y104.515 E0.90047
G1 X112.807 Y105.280 E0.98795
G1 X112.325 Y106.221 E1.07567
G1 X112.172 Y107.156 E1.15427
G1 X112.172 Y138.172 E3.72670
G1 X97.828 Y138.172 E4.91634
G1 X97.828 Y131.136 E5.49985
G1 X109.828 Y131.136 E6.49513
G1 X109.828 Y98.828 E9.17475
G1 X124.172 Y98.828 E10.36439
G1 X124.172 Y103.441 E10.74694
G10 ; retract
G92 E0
G1 Z0.600 F10800.000
G1 X109.314 Y130.622
G1 Z0.400
G11 ; unretract
G92 E0
G1 F1800
G1 X109.314 Y98.314 E2.67962
G1 X124.686 Y98.314 E3.95455
G1 X124.686 Y104.030 E4.42861
G1 X116.457 Y104.030 E5.11114
G1 X115.550 Y104.127 E5.18679
G1 X114.652 Y104.427 E5.26531
G1 X113.861 Y104.917 E5.34248
G1 X113.231 Y105.580 E5.41833
G1 X112.819 Y106.384 E5.49321
G1 X112.686 Y107.198 E5.56165
G1 X112.686 Y138.686 E8.17326
G1 X97.314 Y138.686 E9.44818
G1 X97.314 Y130.622 E10.11698
G1 X109.239 Y130.622 E11.10604
G1 X108.800 Y130.108 F10800.000
G1 F1800
G1 X108.800 Y97.800 E13.78566
G1 X125.200 Y97.800 E15.14588
G1 X125.200 Y104.544 E15.70522
G1 X116.484 Y104.544 E16.42813
G1 X115.660 Y104.632 E16.49688
G1 X114.872 Y104.896 E16.56580
G1 X114.188 Y105.319 E16.63250
G1 X113.655 Y105.881 E16.69672
G1 X113.313 Y106.546 E16.75876
G1 X113.200 Y107.240 E16.81704
G1 X113.200 Y139.200 E19.46783
G1 X96.800 Y139.200 E20.82804
G1 X96.800 Y130.108 E21.58213
G1 X108.725 Y130.108 E22.57119
G1 X109.288 Y130.001 F10800.000
G10 ; retract
G92 E0
G1 Z0.600
G1 X97.931 Y137.018
G1 Z0.400
G11 ; unretract
G92 E0
G1 F1800
G1 X98.750 Y137.838 E0.09705
G1 X99.485 Y137.838 E0.15860
G1 X98.162 Y136.515 E0.31529
G1 X98.162 Y135.781 E0.37684
G1 X100.219 Y137.838 E0.62057
G1 X100.954 Y137.838 E0.68212
G1 X98.162 Y135.046 E1.01290
G1 X98.162 Y134.311 E1.07445
G1 X101.689 Y137.838 E1.49227
G1 X102.423 Y137.838 E1.55382
G1 X98.162 Y133.577 E2.05869
G1 X98.162 Y132.842 E2.12024
G1 X103.158 Y137.838 E2.71216
G1 X103.892 Y137.838 E2.77371
G1 X98.162 Y132.108 E3.45268
G1 X98.162 Y131.470 E3.50607
G1 X98.260 Y131.470 E3.51423
G1 X104.627 Y137.838 E4.26870
G1 X105.361 Y137.838 E4.33025
G1 X98.994 Y131.470 E5.08473
G1 X99.729 Y131.470 E5.14628
G1 X106.096 Y137.838 E5.90075
G1 X106.831 Y137.838 E5.96231
G1 X100.464 Y131.470 E6.71678
G1 X101.198 Y131.470 E6.77833
G1 X107.565 Y137.838 E7.53281
G1 X108.300 Y137.838 E7.59436
G1 X101.933 Y131.470 E8.34883
G1 X102.667 Y131.470 E8.41038
G1 X109.034 Y137.838 E9.16486
G1 X109.769 Y137.838 E9.22641
G1 X103.402 Y131.470 E9.98088
G1 X104.137 Y131.470 E10.04243
G1 X110.504 Y137.838 E10.79691
G1 X111.238 Y137.838 E10.85846
G1 X104.871 Y131.470 E11.61294
G1 X105.606 Y131.470 E11.67449
G1 X111.838 Y137.702 E12.41294
G1 X111.838 Y136.968 E12.47449
G1 X106.340 Y131.470 E13.12589
G1 X107.075 Y131.470 E13.18744
G1 X111.838 Y136.233 E13.75180
G1 X111.838 Y135.499 E13.81335
G1 X107.809 Y131.470 E14.29066
G1 X108.544 Y131.470 E14.35221
G1 X111.838 Y134.764 E14.74247
G1 X111.838 Y134.029 E14.80402
G1 X109.279 Y131.470 E15.10724
G1 X110.013 Y131.470 E15.16879
G1 X111.838 Y133.295 E15.38496
G1 X111.838 Y132.560 E15.44651
G1 X110.162 Y130.885 E15.64499
G1 X110.162 Y130.151 E15.70654
G1 X111.838 Y131.826 E15.90503
G1 X111.838 Y131.091 E15.96658
G1 X110.162 Y129.416 E16.16506
G1 X110.162 Y128.681 E16.22661
G1 X111.838 Y130.356 E16.42510
G1 X111.838 Y129.622 E16.48665
G1 X110.162 Y127.947 E16.68513
G1 X110.162 Y127.212 E16.74668
G1 X111.838 Y128.887 E16.94517
G1 X111.838 Y128.153 E17.00672
G1 X110.162 Y126.478 E17.20520
G1 X110.162 Y125.743 E17.26675
G1 X111.838 Y127.418 E17.46524
G1 X111.838 Y126.683 E17.52679
G1 X110.162 Y125.008 E17.72527
G1 X110.162 Y124.274 E17.78682
G1 X111.838 Y125.949 E17.98531
G1 X111.838 Y125.214 E18.04686
G1 X110.162 Y123.539 E18.24534
G1 X110.162 Y122.805 E18.30689
G1 X111.838 Y124.480 E18.50538
G1 X111.838 Y123.745 E18.56693
G1 X110.162 Y122.070 E18.76541
G1 X110.162 Y121.336 E18.82696
G1 X111.838 Y123.011 E19.02545
G1 X111.838 Y122.276 E19.08700
G1 X110.162 Y120.601 E19.28548
G1 X110.162 Y119.866 E19.34703
G1 X111.838 Y121.541 E19.54552
G1 X111.838 Y120.807 E19.60707
G1 X110.162 Y119.132 E19.80555
G1 X110.162 Y118.397 E19.86710
G1 X111.838 Y120.072 E20.06559
G1 X111.838 Y119.338 E20.12714
G1 X110.162 Y117.663 E20.32562
G1 X110.162 Y116.928 E20.38717
G1 X111.838 Y118.603 E20.58566
G1 X111.838 Y117.868 E20.64721
G1 X110.162 Y116.193 E20.84569
G1 X110.162 Y115.459 E20.90724
G1 X111.838 Y117.134 E21.10573
G1 X111.838 Y116.399 E21.16728
G1 X110.162 Y114.724 E21.36576
G1 X110.162 Y113.990 E21.42731
G1 X111.838 Y115.665 E21.62580
G1 X111.838 Y114.930 E21.68735
G1 X110.162 Y113.255 E21.88583
G1 X110.162 Y112.520 E21.94738
G1 X111.838 Y114.195 E22.14587
G1 X111.838 Y113.461 E22.20742
G1 X110.162 Y111.786 E22.40590
G1 X110.162 Y111.051 E22.46745
G1 X111.838 Y112.726 E22.66594
G1 X111.838 Y111.992 E22.72749
G1 X110.162 Y110.317 E22.92597
G1 X110.162 Y109.582 E22.98752
G1 X111.838 Y111.257 E23.18601
G1 X111.838 Y110.523 E23.24756
G1 X110.162 Y108.848 E23.44604
G1 X110.162 Y108.113 E23.50759
G1 X111.838 Y109.788 E23.70608
G1 X111.838 Y109.053 E23.76763
G1 X110.162 Y107.378 E23.96611
G1 X110.162 Y106.644 E24.02766
G1 X111.838 Y108.319 E24.22615
G1 X111.838 Y107.584 E24.28770
G1 X110.162 Y105.909 E24.48618
G1 X110.162 Y105.175 E24.54773
G1 X111.877 Y106.889 E24.75087
G1 X111.980 Y106.258 E24.80447
G1 X110.162 Y104.440 E25.01985
G1 X110.162 Y103.705 E25.08140
G1 X112.196 Y105.739 E25.32239
G1 X112.445 Y105.253 E25.36811
G1 X110.162 Y102.971 E25.63860
G1 X110.162 Y102.236 E25.70015
G1 X112.765 Y104.839 E26.00856
G1 X113.123 Y104.462 E26.05210
G1 X110.162 Y101.502 E26.40292
G1 X110.162 Y100.767 E26.46447
G1 X113.524 Y104.128 E26.86276
G1 X113.977 Y103.847 E26.90747
G1 X110.162 Y100.032 E27.35949
G1 X110.162 Y99.298 E27.42104
G1 X114.461 Y103.596 E27.93039
G1 X115.011 Y103.412 E27.97903
G1 X110.762 Y99.162 E28.48262
G1 X111.496 Y99.162 E28.54417
G1 X115.602 Y103.268 E29.03067
G1 X116.265 Y103.197 E29.08659
G1 X112.231 Y99.162 E29.56468
G1 X112.965 Y99.162 E29.62623
G1 X116.984 Y103.182 E30.10248
G1 X117.719 Y103.182 E30.16403
G1 X113.700 Y99.162 E30.64027
G1 X114.435 Y99.162 E30.70182
G1 X118.454 Y103.182 E31.17806
G1 X119.188 Y103.182 E31.23961
G1 X115.169 Y99.162 E31.71586
G1 X115.904 Y99.162 E31.77741
G1 X119.923 Y103.182 E32.25365
G1 X120.657 Y103.182 E32.31520
G1 X116.638 Y99.162 E32.79144
G1 X117.373 Y99.162 E32.85299
G1 X121.392 Y103.182 E33.32924
G1 X122.127 Y103.182 E33.39079
G1 X118.108 Y99.162 E33.86703
G1 X118.842 Y99.162 E33.92858
G1 X122.861 Y103.182 E34.40482
G1 X123.596 Y103.182 E34.46637
G1 X119.577 Y99.162 E34.94261
G1 X120.311 Y99.162 E35.00417
G1 X123.838 Y102.689 E35.42201
G1 X123.838 Y101.954 E35.48356
G1 X121.046 Y99.162 E35.81435
G1 X121.781 Y99.162 E35.87590
G1 X123.838 Y101.219 E36.11965
G1 X123.838 Y100.485 E36.18120
G1 X122.515 Y99.162 E36.33790
G1 X123.250 Y99.162 E36.39945
G1 X124.069 Y99.982 E36.49652

G10 ; retract
G92 E0
G1 Z0.600 F10800.000
G1 Z0.646
;AFTER_LAYER_CHANGE
;0.646094
G1 Z0.846
G1 X127.168 Y105.107
G1 Z0.646
G11 ; unretract
G92 E0
G1 F3000
G1 X126.125 Y105.107 E0.05667
G1 X125.760 Y105.472 E0.08469
G1 X116.533 Y105.472 E0.58575
G1 X115.858 Y105.544 E0.62261
G1 X115.269 Y105.741 E0.65639
G1 X114.778 Y106.045 E0.68770
G1 X114.419 Y106.423 E0.71601
G1 X114.249 Y106.755 E0.73626
G1 X114.249 Y107.642 E0.78447
G1 X126.927 Y107.642 E1.47296
G1 X126.927 Y110.178 E1.61066
G1 X114.249 Y110.178 E2.29915
G1 X114.249 Y112.714 E2.43685
G1 X124.392 Y112.714 E2.98764
G1 X124.392 Y115.249 E3.12534
G1 X114.249 Y115.249 E3.67614
G1 X114.249 Y117.785 E3.81383
G1 X124.392 Y117.785 E4.36463
G1 X121.856 Y117.785 E4.50232
G1 X121.856 Y120.321 E4.64002
G1 X114.249 Y120.321 E5.05312
G1 X114.249 Y122.856 E5.19082
G1 X121.856 Y122.856 E5.60391
G1 X119.321 Y122.856 E5.74161
G1 X119.321 Y125.392 E5.87931
G1 X114.249 Y125.392 E6.15470
G1 X114.249 Y127.927 E6.29240
G1 X119.321 Y127.927 E6.56780
G1 X119.321 Y130.463 E6.70550
G1 X114.249 Y130.463 E6.98090
G1 X114.249 Y132.999 E7.11859
G1 X117.026 Y132.999 E7.26938

G10 ; retract
G92 E0
G1 Z0.846 F10800.000
;AFTER_LAYER_CHANGE
;0.7
G1 X109.871 Y131.179
G1 Z0.700
G11 ; unretract
G92 E0
M204 S800
G1 F3600
G1 X109.871 Y98.871 E2.09360
G1 X124.129 Y98.871 E3.01750
G1 X124.129 Y103.473 E3.31569
G1 X116.427 Y103.473 E3.81478
G1 X115.430 Y103.579 E3.87973
G1 X114.413 Y103.919 E3.94920
G1 X113.506 Y104.482 E4.01836
G1 X112.772 Y105.255 E4.08746
G1 X112.284 Y106.207 E4.15681
G1 X112.129 Y107.147 E4.21853
G1 X112.129 Y138.129 E6.22621
G1 X97.871 Y138.129 E7.15011
G1 X97.871 Y131.179 E7.60045
G1 X109.796 Y131.179 E8.37321
M204 S1000
G1 X109.336 Y130.644 F10800.000
M204 S800
G1 F3600
G1 X109.336 Y98.336 E10.46680
G1 X124.664 Y98.336 E11.46013
G1 X124.664 Y104.008 E11.82773
G1 X116.455 Y104.008 E12.35968
G1 X115.545 Y104.106 E12.41901
G1 X114.643 Y104.407 E12.48067
G1 X113.847 Y104.900 E12.54131
G1 X113.213 Y105.568 E12.60095
G1 X112.798 Y106.377 E12.65987
G1 X112.664 Y107.191 E12.71331
G1 X112.664 Y138.664 E14.75286
G1 X97.336 Y138.664 E15.74618
G1 X97.336 Y130.644 E16.26594
G1 X109.261 Y130.644 E17.03869
M204 S1000
G1 X108.800 Y130.108 F10800.000
M204 S800
G1 F3000
G1 X108.800 Y97.800 E19.13229
G1 X125.200 Y97.800 E20.19503
G1 X125.200 Y104.544 E20.63205
G1 X116.484 Y104.544 E21.19686
G1 X115.660 Y104.632 E21.25058
G1 X114.872 Y104.896 E21.30442
G1 X114.188 Y105.319 E21.35654
G1 X113.655 Y105.881 E21.40671
G1 X113.313 Y106.547 E21.45520
G1 X113.200 Y107.234 E21.50038
G1 X113.200 Y139.200 E23.57179
G1 X96.800 Y139.200 E24.63453
G1 X96.800 Y130.108 E25.22371
G1 X108.725 Y130.108 E25.99646
M204 S1000
G1 X109.288 Y130.001 F10800.000
G10 ; retract
G92 E0
G1 Z0.900
G1 X110.931 Y138.022
G1 Z0.700
G11 ; unretract
G92 E0
M204 S1500
G1 F3000
G1 X111.781 Y137.172 E0.07843
G1 X111.781 Y136.409 E0.12821
G1 X110.409 Y137.781 E0.25479
G1 X109.646 Y137.781 E0.30458
G1 X111.781 Y135.646 E0.50157
G1 X111.781 Y134.883 E0.55135
G1 X108.883 Y137.781 E0.81874
G1 X108.121 Y137.781 E0.86853
G1 X111.781 Y134.121 E1.20633
G1 X111.781 Y133.358 E1.25611
G1 X107.358 Y137.781 E1.66431
G1 X106.595 Y137.781 E1.71410
G1 X111.781 Y132.595 E2.19271
G1 X111.781 Y131.832 E2.24249
G1 X105.832 Y137.781 E2.79150
G1 X105.069 Y137.781 E2.84129
G1 X111.781 Y131.069 E3.46070
G1 X111.781 Y130.306 E3.51049
G1 X104.306 Y137.781 E4.20031
G1 X103.543 Y137.781 E4.25009
G1 X111.781 Y129.543 E5.01032
G1 X111.781 Y128.781 E5.06010
G1 X110.219 Y130.342 E5.20419
G1 X110.219 Y129.579 E5.25398
G1 X111.781 Y128.018 E5.39807
G1 X111.781 Y127.255 E5.44785
G1 X110.219 Y128.816 E5.59194
G1 X110.219 Y128.053 E5.64173
G1 X111.781 Y126.492 E5.78582
G1 X111.781 Y125.729 E5.83560
G1 X110.219 Y127.290 E5.97969
G1 X110.219 Y126.528 E6.02947
G1 X111.781 Y124.966 E6.17356
G1 X111.781 Y124.204 E6.22335
G1 X110.219 Y125.765 E6.36744
G1 X110.219 Y125.002 E6.41722
G1 X111.781 Y123.441 E6.56131
G1 X111.781 Y122.678 E6.61109
G1 X110.219 Y124.239 E6.75518
G1 X110.219 Y123.476 E6.80497
G1 X111.781 Y121.915 E6.94906
G1 X111.781 Y121.152 E6.99884
G1 X110.219 Y122.713 E7.14293
G1 X110.219 Y121.951 E7.19272
G1 X111.781 Y120.389 E7.33681
G1 X111.781 Y119.626 E7.38659
G1 X110.219 Y121.188 E7.53068
G1 X110.219 Y120.425 E7.58046
G1 X111.781 Y118.864 E7.72455
G1 X111.781 Y118.101 E7.77434
G1 X110.219 Y119.662 E7.91843
G1 X110.219 Y118.899 E7.96821
G1 X111.781 Y117.338 E8.11230
G1 X111.781 Y116.575 E8.16208
G1 X110.219 Y118.136 E8.30617
G1 X110.219 Y117.373 E8.35596
G1 X111.781 Y115.812 E8.50005
G1 X111.781 Y115.049 E8.54983
G1 X110.219 Y116.611 E8.69392
G1 X110.219 Y115.848 E8.74371
G1 X111.781 Y114.287 E8.88780
G1 X111.781 Y113.524 E8.93758
G1 X110.219 Y115.085 E9.08167
G1 X110.219 Y114.322 E9.13145
G1 X111.781 Y112.761 E9.27554
G1 X111.781 Y111.998 E9.32533
G1 X110.219 Y113.559 E9.46942
G1 X110.219 Y112.796 E9.51920
G1 X111.781 Y111.235 E9.66329
G1 X111.781 Y110.472 E9.71307
G1 X110.219 Y112.034 E9.85716
G1 X110.219 Y111.271 E9.90695
G1 X111.781 Y109.709 E10.05104
G1 X111.781 Y108.947 E10.10082
G1 X110.219 Y110.508 E10.24491
G1 X110.219 Y109.745 E10.29470
G1 X111.781 Y108.184 E10.43879
G1 X111.781 Y107.421 E10.48857
G1 X110.219 Y108.982 E10.63266
G1 X110.219 Y108.219 E10.68244
G1 X112.164 Y106.275 E10.86190
M204 S1000
G10 ; retract
G92 E0
G1 Z0.900 F10800.000
G1 X109.978 Y107.697
G1 Z0.700
G11 ; unretract
G92 E0
M204 S1500
G1 F3000
G1 X118.456 Y99.219 E0.78246
G1 X117.694 Y99.219 E0.83224
G1 X110.219 Y106.694 E1.52205
G1 X110.219 Y105.931 E1.57184
G1 X116.931 Y99.219 E2.19124
G1 X116.168 Y99.219 E2.24103
G1 X110.219 Y105.168 E2.79003
G1 X110.219 Y104.405 E2.83981
G1 X115.405 Y99.219 E3.31841
G1 X114.642 Y99.219 E3.36819
G1 X110.219 Y103.642 E3.77638
G1 X110.219 Y102.879 E3.82617
G1 X113.879 Y99.219 E4.16395
G1 X113.117 Y99.219 E4.21374
G1 X110.219 Y102.117 E4.48112
G1 X110.219 Y101.354 E4.53090
G1 X112.354 Y99.219 E4.72788
G1 X111.591 Y99.219 E4.77766
G1 X110.219 Y100.591 E4.90423
G1 X110.219 Y99.828 E4.95402
G1 X111.069 Y98.978 E5.03243
M204 S1000
G10 ; retract
G92 E0
