; generated by PrusaSlicer 2.0.0+win64 on 2019-07-09 at 21:59:53

; 

; external perimeters extrusion width = 0.60mm
; perimeters extrusion width = 0.60mm
; infill extrusion width = 0.60mm
; solid infill extrusion width = 0.60mm
; top infill extrusion width = 0.60mm
; support material extrusion width = 0.60mm
; first layer extrusion width = 0.60mm

M107
M83  ; extruder relative mode
M140 S95 ; set bed temp
M109 S160 ; Set extruder temp before bed level
M190 S95 ; wait for bed temp

G28  ; home all without mesh bed level

M109 S240 ; wait for extruder temp

G1 Y4.0 F1000.0 ; go outside print area
G92 E0.0
G1 E8 ; Purge Bubble
G1 X60.0 E9.0  F1000.0 ; intro line
G1 X100.0 E12.5  F1000.0 ; intro line
G92 E0.0
G21 ; set units to millimeters
G90 ; use absolute coordinates
M82 ; use absolute distances for extrusion
G92 E0

G10 ; retract
G92 E0
G1 Z0.200 F10800.000
G1 Z0.400
;AFTER_LAYER_CHANGE
;0.4
G1 Z0.600
G1 X53.339 Y41.708
G1 Z0.400
G11 ; unretract
G92 E0
M204 S1000
G1 F1800
G1 X53.828 Y41.220 E0.05911
G1 X54.443 Y40.903 E0.11823
G1 X55.124 Y40.787 E0.17734
G1 X153.881 Y40.786 E8.62151
G1 X164.307 Y41.023 E9.51327
G1 X165.013 Y41.185 E9.57521
G1 X165.628 Y41.561 E9.63683
G1 X166.171 Y42.250 E9.71188
G1 X166.410 Y43.099 E9.78724
G1 X166.417 Y51.539 E10.50891
G1 X163.901 Y91.539 E13.93587
G1 X155.634 Y143.699 E18.45146
G1 X155.022 Y147.086 E18.74579
G1 X154.373 Y149.850 E18.98858
G1 X153.225 Y153.801 E19.34038
G1 X151.635 Y158.124 E19.73422
G1 X150.538 Y160.615 E19.96694
G1 X148.921 Y163.836 E20.27510
G1 X147.592 Y166.172 E20.50495
G1 X146.477 Y167.943 E20.68386
G1 X144.747 Y170.408 E20.94133
G1 X142.923 Y172.748 E21.19500
G1 X140.822 Y175.107 E21.46515
G1 X120.919 Y195.005 E23.87152
G1 X120.273 Y195.371 E23.93502
G1 X119.547 Y195.507 E23.99821
G1 X102.485 Y195.507 E25.45706
G1 X101.778 Y195.388 E25.51837
G1 X101.319 Y195.173 E25.56175
G1 X100.919 Y194.861 E25.60514
G1 X81.441 Y175.398 E27.95951
G1 X79.450 Y173.179 E28.21449
G1 X77.621 Y170.913 E28.46345
G1 X76.369 Y169.190 E28.64553
G1 X74.263 Y165.929 E28.97751
G1 X73.227 Y164.120 E29.15574
G1 X71.868 Y161.468 E29.41057
G1 X70.611 Y158.715 E29.66928
G1 X69.493 Y155.878 E29.93005
G1 X68.791 Y153.845 E30.11395
G1 X67.963 Y151.118 E30.35757
G1 X67.403 Y148.919 E30.55167
G1 X66.654 Y145.447 E30.85534
G1 X52.924 Y64.827 E37.84805
G1 X52.901 Y43.032 E39.71156
G1 X53.020 Y42.322 E39.77318
G1 X53.304 Y41.775 E39.82588
G10 ; retract
G92 E0
G1 Z0.600 F10800.000
G1 X55.158 Y43.044
G1 Z0.400
G11 ; unretract
G92 E0
G1 F1800
G1 X55.158 Y64.510 E1.83549
G1 X56.187 Y64.510 E1.92341
G1 X56.187 Y43.275 E3.73911
G1 X57.215 Y43.275 E3.82704
G1 X57.215 Y64.741 E5.66252
G10 ; retract
G92 E0
G1 Z0.600 F10800.000
G1 X64.413 Y64.741
G1 Z0.400
G11 ; unretract
G92 E0
G1 F1800
G1 X64.413 Y51.882 E1.09956
G1 X65.442 Y51.882 E1.18749
G1 X65.442 Y64.510 E2.26726
G1 X66.470 Y64.510 E2.35519
G1 X66.470 Y43.275 E4.17089
G1 X67.498 Y43.275 E4.25882
G1 X67.498 Y64.741 E6.09430
G10 ; retract
G92 E0
G1 Z0.600 F10800.000
G1 X64.714 Y51.598
G1 Z0.400
G11 ; unretract
G92 E0
G1 F1800
G1 X64.714 Y48.821 E0.23742
G1 X63.978 Y48.821 E0.30032
G1 X63.978 Y49.603 E0.36718
G1 X63.552 Y49.183 E0.41831
G1 X63.242 Y49.188 E0.44480
G1 X63.242 Y48.821 E0.47613
G1 X62.507 Y48.821 E0.53903
G1 X62.507 Y49.198 E0.57124
G1 X61.771 Y49.208 E0.63415
G1 X61.771 Y48.821 E0.66725
G1 X61.036 Y48.821 E0.73014
G1 X61.036 Y49.219 E0.76413
G1 X60.300 Y49.229 E0.82703
G1 X60.300 Y48.821 E0.86190
G1 X59.564 Y48.821 E0.92479
G1 X59.564 Y51.357 E1.14161
G1 X58.829 Y51.357 E1.20451
G1 X58.829 Y48.821 E1.42132
G1 X58.093 Y48.821 E1.48422
G1 X58.093 Y51.598 E1.72164
G1 X59.272 Y51.650 F10800.000
G1 F1800
G1 X59.272 Y64.510 E2.82120
G1 X58.243 Y64.510 E2.90913
G1 X58.243 Y51.882 E3.98890
G1 X57.239 Y51.882 E4.07474
G1 X57.239 Y48.296 E4.38131
G1 X58.243 Y48.296 E4.46715
G1 X58.243 Y43.275 E4.89651
G1 X59.272 Y43.275 E4.98443
G1 X59.272 Y48.296 E5.41378
G1 X60.300 Y48.296 E5.50171
G1 X60.300 Y43.275 E5.93106
G1 X61.328 Y43.275 E6.01899
G1 X61.328 Y48.296 E6.44834
G1 X62.357 Y48.296 E6.53627
G1 X62.357 Y43.275 E6.96562
G1 X63.385 Y43.275 E7.05355
G1 X63.385 Y48.296 E7.48290
G1 X64.413 Y48.296 E7.57083
G1 X64.413 Y43.275 E8.00018
G1 X65.442 Y43.275 E8.08810
G1 X65.442 Y48.528 E8.53724
G1 X63.385 Y51.828 F10800.000
G1 F1800
G1 X63.385 Y49.755 E8.71447
G1 X63.340 Y49.711 E8.71986
G1 X62.357 Y49.725 E8.80396
G1 X62.357 Y51.460 E8.95233
G1 X61.875 Y51.349 E8.99459
G1 X61.328 Y51.289 E9.04162
G1 X61.328 Y49.739 E9.17414
G1 X60.453 Y49.752 E9.24900
G1 X60.300 Y49.907 E9.26763
G1 X60.300 Y51.410 E9.39612
G10 ; retract
G92 E0
G1 Z0.600 F10800.000
G1 X153.877 Y43.044
G1 Z0.400
G11 ; unretract
G92 E0
G1 F1800
G1 X153.877 Y64.510 E1.83549
G1 X154.905 Y64.510 E1.92341
G1 X154.905 Y43.275 E3.73911
G1 X155.934 Y43.275 E3.82704
G1 X155.934 Y64.510 E5.64274
G1 X156.962 Y64.510 E5.73067
G1 X156.962 Y51.882 E6.81044
G1 X156.129 Y51.882 E6.88169
G1 X156.129 Y48.296 E7.18827
G1 X156.962 Y48.296 E7.25952
G1 X156.962 Y43.275 E7.68887
G1 X157.990 Y43.275 E7.77680
G1 X157.990 Y48.296 E8.20615
G1 X159.019 Y48.296 E8.29407
G1 X159.019 Y43.275 E8.72343
G1 X160.047 Y43.275 E8.81135
G1 X160.047 Y48.296 E9.24071
G1 X161.075 Y48.296 E9.32863
G1 X161.075 Y43.275 E9.75798
G1 X162.103 Y43.275 E9.84591
G1 X162.103 Y51.296 E10.53177
G1 X163.132 Y51.296 E10.61970
G1 X163.132 Y43.275 E11.30556
G1 X164.160 Y43.275 E11.39348
G1 X164.160 Y51.528 E12.09912
G1 X161.075 Y51.438 F10800.000
G1 F1800
G1 X161.075 Y49.736 E12.24464
G1 X160.047 Y49.707 E12.33260
G1 X160.047 Y51.207 E12.46080
G1 X159.019 Y51.207 E12.54872
G1 X159.019 Y49.463 E12.69782
G10 ; retract
G92 E0
G1 Z0.600 F10800.000
G1 X161.080 Y49.452
G1 Z0.400
G11 ; unretract
G92 E0
G1 F1800
G1 X161.080 Y48.821 E0.05398
G1 X160.344 Y48.821 E0.11688
G1 X160.344 Y49.191 E0.14847
G1 X159.609 Y49.170 E0.21139
G1 X159.609 Y48.821 E0.24121
G1 X158.873 Y48.821 E0.30411
G1 X158.873 Y49.173 E0.33417
G1 X158.425 Y49.183 E0.37245
G1 X158.137 Y49.477 E0.40767
G1 X158.137 Y48.821 E0.46376
G1 X157.402 Y48.821 E0.52666
G1 X157.402 Y51.357 E0.74347
G1 X156.666 Y51.357 E0.80637
G1 X156.666 Y48.580 E1.04379
G10 ; retract
G92 E0
G1 Z0.600 F10800.000
G1 X118.914 Y181.834
G1 Z0.400
G11 ; unretract
G92 E0
G1 F1800
G1 X118.914 Y177.663 E0.35663
G1 X117.886 Y177.663 E0.44456
G1 X117.886 Y181.806 E0.79881
G1 X116.857 Y182.014 E0.88852
G1 X116.857 Y177.663 E1.26057
G1 X115.829 Y177.663 E1.34850
G1 X115.829 Y182.222 E1.73836
G1 X115.184 Y182.353 E1.79460
G1 X114.801 Y182.375 E1.82746
G1 X114.801 Y177.663 E2.23037
G1 X113.773 Y177.663 E2.31830
G1 X113.773 Y182.408 E2.72405
G1 X112.744 Y182.441 E2.81202
G1 X112.744 Y177.663 E3.22060
G1 X111.716 Y177.663 E3.30853
G1 X111.716 Y182.474 E3.71995
G1 X110.688 Y182.508 E3.80792
G1 X110.688 Y177.663 E4.22218
G1 X109.659 Y177.663 E4.31010
G1 X109.659 Y182.541 E4.72719
G1 X109.079 Y182.560 E4.77679
G1 X108.631 Y182.528 E4.81524
G1 X108.631 Y177.663 E5.23128
G1 X107.603 Y177.663 E5.31921
G1 X107.603 Y182.429 E5.72674
G1 X106.809 Y182.352 E5.79491
G1 X106.574 Y182.310 E5.81530
G1 X106.574 Y177.663 E6.21265
G1 X105.546 Y177.663 E6.30057
G1 X105.546 Y182.125 E6.68210
G1 X104.518 Y181.940 E6.77144
G1 X104.518 Y177.663 E7.13715
G1 X103.489 Y177.663 E7.22507
G1 X103.489 Y181.948 E7.59145
G10 ; retract
G92 E0
G1 Z0.600 F10800.000
G1 X103.729 Y184.819
G1 Z0.400
G11 ; unretract
G92 E0
G1 F1800
G1 X106.398 Y185.299 E0.23192
G1 X108.630 Y185.517 E0.42368
G1 X109.081 Y185.535 E0.46227
G1 X115.146 Y185.339 E0.98108
G1 X115.613 Y185.300 E1.02117
G1 X118.218 Y184.772 E1.24843
G1 X117.483 Y186.335 E1.39604
G1 X117.143 Y188.201 E1.55827
G1 X117.143 Y190.893 E1.78847
G1 X104.850 Y190.893 E2.83961
G1 X104.842 Y188.147 E3.07442
G1 X104.648 Y186.749 E3.19511
G1 X104.299 Y185.786 E3.28272
G1 X103.767 Y184.884 E3.37227
G10 ; retract
G92 E0
G1 Z0.600 F10800.000
G1 X102.572 Y184.235
G1 Z0.400
G11 ; unretract
G92 E0
G1 F1800
G1 X102.692 Y184.041 E0.01953
G1 X103.490 Y184.254 E0.09014
G1 X106.469 Y184.790 E0.34893
G1 X108.666 Y185.004 E0.53764
G1 X109.083 Y185.021 E0.57339
G1 X115.116 Y184.826 E1.08948
G1 X115.540 Y184.790 E1.12588
G1 X119.411 Y184.006 E1.46354
G1 X119.521 Y184.200 E1.48263
G1 X118.552 Y185.271 E1.60614
G1 X117.977 Y186.493 E1.72155
G1 X117.658 Y188.248 E1.87408
G1 X117.658 Y191.408 E2.14427
G1 X104.337 Y191.408 E3.28321
G1 X104.328 Y188.184 E3.55887
G1 X104.146 Y186.874 E3.67197
G1 X103.832 Y186.006 E3.75089
G1 X103.236 Y184.996 E3.85111
G1 X102.621 Y184.292 E3.93109
G10 ; retract
G92 E0
G1 Z0.600 F10800.000
G1 X103.825 Y191.922
G1 Z0.400
G11 ; unretract
G92 E0
G1 F1800
G1 X103.814 Y188.220 E0.31652
G1 X103.644 Y186.998 E0.42202
G1 X103.364 Y186.226 E0.49225
G1 X102.818 Y185.298 E0.58429
G1 X102.060 Y184.431 E0.68279
G1 X100.612 Y183.528 E0.82866
G1 X98.108 Y182.589 E1.05737
G1 X95.415 Y181.380 E1.30976
G1 X92.759 Y179.925 E1.56874
G1 X90.850 Y178.713 E1.76199
G1 X88.718 Y177.146 E1.98826
G1 X86.624 Y175.416 E2.22054
G1 X85.281 Y174.172 E2.37705
G1 X84.014 Y172.900 E2.53056
G1 X82.179 Y170.853 E2.76560
G1 X80.444 Y168.702 E3.00193
G1 X79.361 Y167.213 E3.15934
G1 X77.316 Y164.049 E3.48151
G1 X76.400 Y162.449 E3.63916
G1 X75.095 Y159.905 E3.88363
G1 X73.907 Y157.302 E4.12822
G1 X72.854 Y154.629 E4.37395
G1 X72.206 Y152.751 E4.54377
G1 X71.415 Y150.149 E4.77633
G1 X70.869 Y147.999 E4.96600
G1 X70.182 Y144.809 E5.24497
G1 X69.697 Y141.708 E5.51334
G1 X69.378 Y138.898 E5.75522
G1 X69.155 Y135.108 E6.07980
G1 X69.128 Y133.240 E6.23952
G1 X69.128 Y118.576 E7.49340
G1 X69.091 Y116.676 E7.65588
G1 X68.880 Y113.797 E7.90271
G1 X68.516 Y110.935 E8.14942
G1 X67.956 Y108.075 E8.39860
G1 X67.261 Y105.313 E8.64215
G1 X66.685 Y103.448 E8.80897
G1 X66.047 Y101.644 E8.97266
G1 X64.945 Y98.986 E9.21863
G1 X63.704 Y96.392 E9.46452
G1 X62.801 Y94.737 E9.62577
G1 X62.288 Y93.667 E9.72720
G1 X61.923 Y92.608 E9.82298
G1 X61.713 Y91.502 E9.91919
G1 X61.628 Y90.332 E10.01955
G1 X61.628 Y53.287 E13.18704
G1 X62.172 Y53.415 E13.23477
G1 X62.172 Y90.415 E16.39841
G1 X62.215 Y91.247 E16.46966
G1 X62.449 Y92.463 E16.57554
G1 X62.851 Y93.641 E16.68194
G1 X63.236 Y94.402 E16.75491
G1 X64.178 Y96.126 E16.92289
G1 X65.428 Y98.739 E17.17052
G1 X66.561 Y101.469 E17.42327
G1 X67.207 Y103.302 E17.58948
G1 X68.278 Y107.029 E17.92102
G1 X68.702 Y108.926 E18.08722
G1 X69.187 Y111.812 E18.33745
G1 X69.516 Y114.717 E18.58748
G1 X69.672 Y118.616 E18.92105
G1 X69.672 Y133.279 E20.17484
G1 X69.900 Y138.544 E20.62542
G1 X70.382 Y142.681 E20.98156
G1 X70.928 Y145.815 E21.25362
G1 X71.901 Y149.888 E21.61164
G1 X72.808 Y152.848 E21.87635
G1 X73.862 Y155.782 E22.14289
G1 X74.999 Y158.458 E22.39153
G1 X76.553 Y161.624 E22.69314
G1 X78.140 Y164.393 E22.96600
G1 X79.881 Y167.041 E23.23696
G1 X82.095 Y169.948 E23.54941
G1 X84.504 Y172.654 E23.85919
G1 X87.120 Y175.153 E24.16857
G1 X89.852 Y177.359 E24.46884
G1 X92.752 Y179.312 E24.76777
G1 X96.561 Y181.338 E25.13668
G1 X98.930 Y182.344 E25.35674
G1 X101.344 Y183.150 E25.57428
G1 X103.602 Y183.751 E25.77412
G1 X106.540 Y184.280 E26.02932
G1 X108.701 Y184.491 E26.21500
G1 X109.085 Y184.506 E26.24790
G1 X115.086 Y184.312 E26.76126
G1 X115.467 Y184.280 E26.79398
G1 X119.824 Y183.398 E27.17402
G1 X122.120 Y182.679 E27.37978
G1 X124.361 Y181.826 E27.58484
G1 X126.331 Y180.914 E27.77042
G1 X128.243 Y179.905 E27.95526
G1 X129.527 Y179.139 E28.08310
G1 X131.296 Y177.962 E28.26478
G1 X132.974 Y176.732 E28.44268
G1 X134.417 Y175.541 E28.60263
G1 X136.486 Y173.669 E28.84123
G1 X138.422 Y171.649 E29.08047
G1 X140.295 Y169.469 E29.32622
G1 X142.016 Y167.171 E29.57174
G1 X143.624 Y164.774 E29.81852
G1 X144.938 Y162.542 E30.03995
G1 X146.154 Y160.252 E30.26168
G1 X146.920 Y158.647 E30.41375
G1 X148.412 Y155.060 E30.74594
G1 X149.411 Y152.185 E31.00618
G1 X150.404 Y148.738 E31.31287
G1 X150.921 Y146.542 E31.50579
G1 X151.520 Y143.295 E31.78814
G1 X151.976 Y139.943 E32.07736
G1 X152.231 Y136.596 E32.36440
G1 X152.328 Y133.269 E32.64896
G1 X152.328 Y118.611 E33.90230
G1 X152.427 Y115.663 E34.15455
G1 X152.678 Y112.770 E34.40279
G1 X153.297 Y108.935 E34.73501
G1 X154.223 Y105.143 E35.06876
G1 X154.798 Y103.286 E35.23498
G1 X155.799 Y100.567 E35.48271
G1 X156.958 Y97.872 E35.73355
G1 X158.967 Y94.000 E36.10654
G1 X159.431 Y92.900 E36.20857
G1 X159.665 Y92.022 E36.28632
G1 X159.828 Y90.449 E36.42155
G1 X159.828 Y53.157 E39.61021
G1 X160.372 Y53.159 E39.65667
G1 X160.372 Y90.351 E42.83684
G1 X160.339 Y91.115 E42.90218
G1 X160.159 Y92.233 E42.99901
G1 X159.853 Y93.324 E43.09592
G1 X159.382 Y94.382 E43.19488
G1 X157.877 Y97.238 E43.47099
G1 X156.666 Y99.857 E43.71773
G1 X155.954 Y101.643 E43.88207
G1 X155.030 Y104.367 E44.12805
G1 X154.251 Y107.145 E44.37472
G1 X153.659 Y109.970 E44.62150
G1 X153.218 Y112.822 E44.86825
G1 X152.966 Y115.734 E45.11818
G1 X152.872 Y118.567 E45.36058
G1 X152.872 Y133.227 E46.61409
G1 X152.719 Y137.668 E46.99404
G1 X152.533 Y139.822 E47.17891
G1 X152.097 Y143.111 E47.46254
G1 X151.510 Y146.364 E47.74519
G1 X150.883 Y149.026 E47.97904
G1 X149.820 Y152.677 E48.30422
G1 X149.111 Y154.712 E48.48848
G1 X148.332 Y156.728 E48.67328
G1 X147.298 Y159.080 E48.89299
G1 X145.766 Y162.131 E49.18481
G1 X144.512 Y164.335 E49.40166
G1 X143.497 Y165.948 E49.56468
G1 X141.864 Y168.276 E49.80779
G1 X140.127 Y170.502 E50.04922
G1 X138.268 Y172.589 E50.28815
G1 X136.314 Y174.559 E50.52544
G1 X134.609 Y176.078 E50.72068
G1 X132.464 Y177.776 E50.95465
G1 X130.934 Y178.858 E51.11487
G1 X128.504 Y180.365 E51.35930
G1 X126.621 Y181.364 E51.54156
G1 X124.610 Y182.301 E51.73125
G1 X123.232 Y182.856 E51.85828
G1 X121.129 Y183.634 E52.05007
G1 X120.161 Y184.260 E52.14863
G1 X118.984 Y185.559 E52.29850
G1 X118.471 Y186.651 E52.40163
G1 X118.172 Y188.294 E52.54445
G1 X118.172 Y191.922 E52.85463
G1 X103.900 Y191.922 E54.07496
G1 X103.312 Y192.436 F10800.000
G1 F1800
G1 X103.300 Y188.256 E54.43233
G1 X103.142 Y187.122 E54.53024
G1 X102.897 Y186.445 E54.59178
G1 X102.399 Y185.601 E54.67564
G1 X101.723 Y184.827 E54.76352
G1 X100.384 Y183.991 E54.89848
G1 X97.912 Y183.065 E55.12419
G1 X95.186 Y181.840 E55.37972
G1 X92.497 Y180.368 E55.64184
G1 X90.560 Y179.138 E55.83802
G1 X88.402 Y177.551 E56.06704
G1 X86.285 Y175.803 E56.30180
G1 X84.924 Y174.542 E56.46044
G1 X83.640 Y173.254 E56.61599
G1 X81.787 Y171.186 E56.85333
G1 X80.035 Y169.015 E57.09191
G1 X78.937 Y167.504 E57.25163
G1 X76.877 Y164.316 E57.57619
G1 X75.948 Y162.694 E57.73603
G1 X74.632 Y160.129 E57.98252
G1 X73.434 Y157.504 E58.22928
G1 X72.372 Y154.807 E58.47711
G1 X71.717 Y152.910 E58.64871
G1 X70.920 Y150.287 E58.88311
G1 X70.369 Y148.116 E59.07459
G1 X69.677 Y144.903 E59.35562
G1 X69.187 Y141.777 E59.62617
G1 X68.866 Y138.942 E59.87017
G1 X68.642 Y135.127 E60.19691
G1 X68.614 Y133.244 E60.35792
G1 X68.614 Y118.581 E61.61169
G1 X68.577 Y116.700 E61.77256
G1 X68.368 Y113.848 E62.01705
G1 X68.009 Y111.017 E62.26112
G1 X67.454 Y108.187 E62.50765
G1 X66.766 Y105.451 E62.74886
G1 X66.197 Y103.610 E62.91364
G1 X65.566 Y101.828 E63.07527
G1 X64.476 Y99.196 E63.31891
G1 X63.246 Y96.626 E63.56245
G1 X62.343 Y94.971 E63.72370
G1 X61.812 Y93.862 E63.82881
G1 X61.425 Y92.740 E63.93030
G1 X61.203 Y91.569 E64.03221
G1 X61.114 Y90.350 E64.13670
G1 X61.114 Y52.706 E67.35552
G1 X61.651 Y52.764 E67.40169
G1 X62.454 Y52.954 E67.47225
G1 X62.686 Y52.973 E67.49213
G1 X62.686 Y90.401 E70.69242
G1 X62.727 Y91.185 E70.75949
G1 X62.947 Y92.331 E70.85929
G1 X63.326 Y93.441 E70.95954
G1 X63.691 Y94.163 E71.02875
G1 X64.635 Y95.892 E71.19722
G1 X65.898 Y98.529 E71.44719
G1 X67.041 Y101.285 E71.70231
G1 X67.697 Y103.146 E71.87101
G1 X68.776 Y106.902 E72.20517
G1 X69.206 Y108.827 E72.37386
G1 X69.696 Y111.740 E72.62644
G1 X70.029 Y114.678 E72.87925
G1 X70.186 Y118.605 E73.21531
G1 X70.186 Y133.268 E74.46902
G1 X70.413 Y138.503 E74.91705
G1 X70.891 Y142.607 E75.27036
G1 X71.431 Y145.712 E75.53981
G1 X72.397 Y149.753 E75.89507
G1 X73.296 Y152.685 E76.15736
G1 X74.341 Y155.594 E76.42161
G1 X75.467 Y158.244 E76.66780
G1 X77.007 Y161.383 E76.96680
G1 X78.578 Y164.124 E77.23690
G1 X80.301 Y166.743 E77.50499
G1 X82.492 Y169.621 E77.81424
G1 X84.874 Y172.297 E78.12055
G1 X87.460 Y174.766 E78.42633
