; generated by PrusaSlicer 2.0.0+win64 on 2019-07-10 at 20:00:14

; 

; external perimeters extrusion width = 0.60mm
; perimeters extrusion width = 0.60mm
; infill extrusion width = 0.60mm
; solid infill extrusion width = 0.60mm
; top infill extrusion width = 0.60mm
; support material extrusion width = 0.60mm
; first layer extrusion width = 0.60mm

M107
M83  ; extruder relative mode
M140 S95 ; set bed temp
M109 S160 ; Set extruder temp before bed level
M190 S95 ; wait for bed temp

G28  ; home all without mesh bed level

M109 S240 ; wait for extruder temp

G1 Y4.0 F1000.0 ; go outside print area
G92 E0.0
G1 E8 ; Purge Bubble
G1 X60.0 E9.0  F1000.0 ; intro line
G1 X100.0 E12.5  F1000.0 ; intro line
G92 E0.0
G21 ; set units to millimeters
G90 ; use absolute coordinates
M82 ; use absolute distances for extrusion
G92 E0

G10 ; retract
G92 E0
G1 Z0.200 F10800.000
G1 Z0.400
;AFTER_LAYER_CHANGE
;0.4
G1 Z0.600
G1 X106.793 Y79.617
G1 Z0.400
G11 ; unretract
G92 E0
M204 S1000
G1 F1800
G1 X107.386 Y79.531 E0.04972
G1 X114.614 Y79.530 E0.64924
G1 X131.224 Y82.212 E2.04471
G1 X136.607 Y85.112 E2.55182
G1 X139.046 Y88.049 E2.86843
G1 X139.293 Y88.471 E2.90898
G1 X139.444 Y88.936 E2.94954
G1 X142.573 Y132.383 E6.56239
G1 X142.556 Y149.191 E7.95644
G1 X142.431 Y149.690 E7.99914
G1 X142.196 Y150.148 E8.04183
G1 X141.863 Y150.541 E8.08453
G1 X141.450 Y150.848 E8.12723
G1 X131.024 Y155.996 E9.09160
G1 X130.495 Y156.176 E9.13797
G1 X114.201 Y156.186 E10.48937
G1 X81.117 Y148.539 E13.30570
G1 X80.545 Y148.296 E13.35726
G1 X80.061 Y147.906 E13.40881
G1 X79.703 Y147.402 E13.46006
G1 X79.494 Y146.817 E13.51161
G1 X79.447 Y129.953 E14.91028
G1 X79.579 Y129.204 E14.97339
G1 X102.327 Y83.047 E19.24127
G1 X102.599 Y82.641 E19.28183
G1 X102.952 Y82.302 E19.32238
G1 X106.119 Y79.938 E19.65020
G1 X106.725 Y79.649 E19.70588
G10 ; retract
G92 E0
G1 Z0.600 F10800.000
G1 X104.327 Y84.092
G1 Z0.400
G11 ; unretract
G92 E0
G1 F1800
G1 X104.327 Y92.880 E0.72890
G1 X105.356 Y92.880 E0.81419
G1 X105.356 Y84.323 E1.52390
G1 X106.384 Y84.323 E1.60919
G1 X106.384 Y92.880 E2.31890
G1 X106.656 Y92.880 E2.34145
G1 X106.656 Y95.416 E2.55175
G1 X107.412 Y95.416 E2.61449
G1 X107.412 Y81.788 E3.74481
G1 X108.441 Y81.788 E3.83010
G1 X108.441 Y95.416 E4.96042
G1 X109.469 Y95.416 E5.04571
G1 X109.469 Y81.788 E6.17602
G1 X110.497 Y81.788 E6.26131
G1 X110.497 Y95.416 E7.39163
G1 X111.526 Y95.416 E7.47692
G1 X111.526 Y81.788 E8.60724
G1 X112.554 Y81.788 E8.69253
G1 X112.554 Y97.951 E10.03315
G1 X113.582 Y97.951 E10.11844
G1 X113.582 Y81.788 E11.45906
G1 X114.611 Y81.788 E11.54435
G1 X114.611 Y131.506 E15.66801
G1 X115.639 Y131.506 E15.75330
G1 X115.639 Y84.323 E19.66665
G1 X116.667 Y84.323 E19.75194
G1 X116.667 Y131.506 E23.66530
G1 X117.696 Y131.506 E23.75059
G1 X117.696 Y84.323 E27.66394
G1 X118.724 Y84.323 E27.74923
G1 X118.724 Y131.506 E31.66259
G1 X119.752 Y131.506 E31.74787
G1 X119.752 Y84.323 E35.66123
G1 X120.781 Y84.323 E35.74652
G1 X120.781 Y131.506 E39.65985
G1 X121.809 Y131.506 E39.74514
G1 X121.809 Y84.323 E43.65845
G1 X122.837 Y84.323 E43.74374
G1 X122.837 Y131.517 E47.65796
G1 X123.865 Y131.517 E47.74325
G1 X123.865 Y84.323 E51.65747
G1 X124.894 Y84.323 E51.74276
G1 X124.894 Y131.517 E55.65698
G1 X125.355 Y131.517 E55.69526
G1 X125.355 Y105.558 E57.84825
G1 X125.922 Y105.558 E57.89526
G1 X125.922 Y84.323 E59.65649
G1 X126.950 Y84.323 E59.74178
G1 X126.950 Y105.558 E61.50301
G1 X127.979 Y105.558 E61.58830
G1 X127.979 Y84.323 E63.34953
G1 X129.007 Y84.323 E63.43482
G1 X129.007 Y105.558 E65.19605
G1 X130.035 Y105.558 E65.28133
G1 X130.035 Y84.323 E67.04256
G1 X130.427 Y84.323 E67.07501
G1 X130.427 Y86.859 E67.28531
G1 X131.064 Y86.859 E67.33816
G1 X131.064 Y105.558 E68.88908
G1 X132.092 Y105.558 E68.97437
G1 X132.092 Y86.859 E70.52530
G1 X133.120 Y86.859 E70.61059
G1 X133.120 Y105.558 E72.16151
G1 X134.149 Y105.558 E72.24680
G1 X134.149 Y86.859 E73.79773
G1 X135.177 Y86.859 E73.88302
G1 X135.177 Y105.558 E75.43394
G1 X136.205 Y105.558 E75.51923
G1 X136.205 Y89.394 E76.85986
G1 X137.234 Y89.394 E76.94514
G1 X137.234 Y105.790 E78.30496
G10 ; retract
G92 E0
G1 Z0.600 F10800.000
G1 X136.205 Y132.269
G1 Z0.400
G11 ; unretract
G92 E0
G1 F1800
G1 X136.205 Y148.664 E1.35981
G1 X137.234 Y148.664 E1.44510
G1 X137.234 Y132.500 E2.78572
G1 X138.262 Y132.500 E2.87101
G1 X138.262 Y148.664 E4.21163
G1 X139.290 Y148.664 E4.29692
G1 X139.290 Y132.500 E5.63755
G1 X140.319 Y132.500 E5.72283
G1 X140.319 Y148.895 E7.08265
G10 ; retract
G92 E0
G1 Z0.600 F10800.000
G1 X130.035 Y153.966
G1 Z0.400
G11 ; unretract
G92 E0
G1 F1800
G1 X130.035 Y150.283 E0.30547
G1 X129.007 Y150.283 E0.39076
G1 X129.007 Y153.735 E0.67704
G1 X127.979 Y153.735 E0.76233
G1 X127.979 Y150.283 E1.04861
G1 X126.950 Y150.283 E1.13390
G1 X126.950 Y153.735 E1.42018
G1 X125.922 Y153.735 E1.50547
G1 X125.922 Y150.283 E1.79176
G1 X124.894 Y150.283 E1.87704
G1 X124.894 Y153.735 E2.16333
G1 X123.865 Y153.735 E2.24861
G1 X123.865 Y150.283 E2.53490
G1 X122.837 Y150.283 E2.62019
G1 X122.837 Y153.735 E2.90647
G1 X121.809 Y153.735 E2.99176
G1 X121.809 Y150.283 E3.27804
G1 X120.781 Y150.283 E3.36333
G1 X120.781 Y153.735 E3.64961
G1 X119.752 Y153.735 E3.73490
G1 X119.752 Y150.283 E4.02118
G1 X118.724 Y150.283 E4.10647
G1 X118.724 Y153.735 E4.39275
G1 X117.696 Y153.735 E4.47804
G1 X117.696 Y150.283 E4.76432
G1 X116.667 Y150.283 E4.84961
G1 X116.667 Y153.735 E5.13589
G1 X115.639 Y153.735 E5.22118
G1 X115.639 Y150.283 E5.50746
G1 X114.611 Y150.283 E5.59275
G1 X114.611 Y153.966 E5.89822
G10 ; retract
G92 E0
G1 Z0.600 F10800.000
G1 X112.554 Y146.359
G1 Z0.400
G11 ; unretract
G92 E0
G1 F1800
G1 X112.554 Y142.401 E0.32828
G1 X112.220 Y142.075 E0.36699
G1 X111.986 Y141.896 E0.39147
G1 X111.526 Y141.627 E0.43568
G1 X111.526 Y146.128 E0.80901
G1 X110.497 Y146.128 E0.89430
G1 X110.497 Y141.317 E1.29330
G1 X110.033 Y141.283 E1.33195
G1 X109.469 Y141.283 E1.37869
G1 X109.469 Y146.128 E1.78052
G1 X108.441 Y146.128 E1.86581
G1 X108.441 Y141.283 E2.26764
G1 X107.412 Y141.283 E2.35293
G1 X107.412 Y146.128 E2.75476
G1 X106.384 Y146.128 E2.84005
G1 X106.384 Y141.283 E3.24188
G1 X105.356 Y141.283 E3.32716
G1 X105.356 Y146.128 E3.72899
G1 X104.327 Y146.128 E3.81428
G1 X104.327 Y141.283 E4.21611
G1 X103.299 Y141.283 E4.30140
G1 X103.299 Y146.128 E4.70323
G1 X102.271 Y146.128 E4.78852
G1 X102.271 Y141.283 E5.19035
G1 X101.242 Y141.283 E5.27564
G1 X101.242 Y146.128 E5.67747
G1 X100.214 Y146.128 E5.76275
G1 X100.214 Y141.283 E6.16458
G1 X99.186 Y141.283 E6.24987
G1 X99.186 Y146.128 E6.65170
G1 X98.158 Y146.128 E6.73699
G1 X98.158 Y141.283 E7.13882
G1 X97.129 Y141.283 E7.22411
G1 X97.129 Y146.128 E7.62594
G1 X96.101 Y146.128 E7.71123
G1 X96.101 Y141.283 E8.11306
G1 X95.073 Y141.283 E8.19834
G1 X95.073 Y146.128 E8.60017
G1 X94.044 Y146.128 E8.68546
G1 X94.044 Y141.283 E9.08729
G1 X93.016 Y141.283 E9.17258
G1 X93.016 Y146.128 E9.57441
G1 X91.988 Y146.128 E9.65970
G1 X91.988 Y141.283 E10.06153
G1 X90.959 Y141.283 E10.14682
G1 X90.959 Y146.128 E10.54865
G1 X89.931 Y146.128 E10.63393
G1 X89.931 Y141.283 E11.03576
G1 X88.903 Y141.283 E11.12105
G1 X88.903 Y146.128 E11.52288
G1 X87.874 Y146.128 E11.60817
G1 X87.874 Y141.283 E12.01000
G1 X86.846 Y141.283 E12.09529
G1 X86.846 Y146.359 E12.51631
G1 X81.704 Y146.359 F10800.000
G1 F1800
G1 X81.704 Y129.964 E13.87612
G1 X82.733 Y129.964 E13.96141
G1 X82.733 Y146.128 E15.30203
G1 X83.761 Y146.128 E15.38732
G1 X83.761 Y129.964 E16.72794
G1 X84.789 Y129.964 E16.81323
G1 X84.789 Y146.128 E18.15385
G1 X85.818 Y146.128 E18.23914
G1 X85.818 Y129.964 E19.57976
G1 X86.846 Y129.964 E19.66505
G1 X86.846 Y132.561 E19.88045
G1 X87.874 Y132.561 E19.96573
G1 X87.874 Y129.964 E20.18113
G1 X88.903 Y129.964 E20.26642
G1 X88.903 Y132.561 E20.48181
G1 X89.931 Y132.561 E20.56710
G1 X89.931 Y129.964 E20.78249
G1 X90.959 Y129.964 E20.86778
G1 X90.959 Y132.561 E21.08318
G1 X91.988 Y132.561 E21.16846
G1 X91.988 Y129.964 E21.38386
G1 X93.016 Y129.964 E21.46915
G1 X93.016 Y132.561 E21.68454
G1 X94.044 Y132.561 E21.76983
G1 X94.044 Y129.964 E21.98522
G1 X95.073 Y129.964 E22.07051
G1 X95.073 Y132.561 E22.28590
G1 X96.101 Y132.561 E22.37119
G1 X96.101 Y129.964 E22.58659
G1 X97.129 Y129.964 E22.67188
G1 X97.129 Y132.561 E22.88727
G1 X98.158 Y132.561 E22.97256
G1 X98.158 Y129.964 E23.18795
G1 X99.186 Y129.964 E23.27324
G1 X99.186 Y132.561 E23.48863
G1 X100.214 Y132.561 E23.57392
G1 X100.214 Y129.964 E23.78932
G1 X101.242 Y129.964 E23.87460
G1 X101.242 Y132.561 E24.09000
G1 X102.271 Y132.561 E24.17529
G1 X102.271 Y129.964 E24.39068
G1 X103.299 Y129.964 E24.47597
G1 X103.299 Y132.561 E24.69136
G1 X104.327 Y132.561 E24.77665
G1 X104.327 Y129.964 E24.99205
G1 X105.356 Y129.964 E25.07733
G1 X105.356 Y132.561 E25.29273
G1 X106.384 Y132.561 E25.37802
G1 X106.384 Y129.964 E25.59341
G1 X106.656 Y129.964 E25.61596
G1 X106.656 Y127.429 E25.82626
G1 X107.412 Y127.429 E25.88900
G1 X107.412 Y132.561 E26.31470
G1 X108.441 Y132.561 E26.39999
G1 X108.441 Y127.429 E26.82569
G1 X109.469 Y127.429 E26.91098
G1 X109.469 Y132.561 E27.33667
G1 X110.497 Y132.561 E27.42196
G1 X110.497 Y127.429 E27.84766
G1 X111.526 Y127.429 E27.93295
G1 X111.526 Y132.561 E28.35865
G1 X112.128 Y132.561 E28.40856
G1 X112.554 Y132.306 E28.44980
G1 X112.554 Y124.893 E29.06460
G1 X113.582 Y124.893 E29.14989
G1 X113.582 Y131.959 E29.73594
G10 ; retract
G92 E0
G1 Z0.600 F10800.000
G1 X112.666 Y134.507
G1 Z0.400
G11 ; unretract
G92 E0
G1 F1800
G1 X114.425 Y133.452 E0.17013
G1 X133.826 Y133.462 E1.77919
G1 X133.826 Y148.338 E3.01299
G1 X115.374 Y148.338 E4.54334
G1 X115.374 Y144.637 E4.85027
G1 X115.355 Y144.202 E4.88643
G1 X115.295 Y143.741 E4.92499
G1 X115.194 Y143.287 E4.96355
G1 X115.054 Y142.843 E5.00212
G1 X114.876 Y142.414 E5.04068
G1 X114.662 Y142.001 E5.07924
G1 X114.412 Y141.609 E5.11780
G1 X114.129 Y141.240 E5.15637
G1 X113.815 Y140.898 E5.19493
G1 X113.472 Y140.583 E5.23349
G1 X113.103 Y140.300 E5.27205
G1 X112.711 Y140.051 E5.31062
G1 X112.298 Y139.836 E5.34918
G1 X111.869 Y139.658 E5.38774
G1 X111.425 Y139.518 E5.42631
G1 X110.972 Y139.418 E5.46487
G1 X110.511 Y139.357 E5.50343
G1 X110.075 Y139.338 E5.53959
G1 X88.174 Y139.338 E7.35603
G1 X88.174 Y134.507 E7.75672
G1 X112.591 Y134.507 E9.78183
G1 X112.524 Y133.993 F10800.000
G1 F1800
G1 X114.283 Y132.938 E9.95199
G1 X134.340 Y132.948 E11.61547
G1 X134.340 Y148.852 E12.93456
G1 X114.860 Y148.852 E14.55020
G1 X114.860 Y144.648 E14.89885
G1 X114.843 Y144.247 E14.93221
G1 X114.788 Y143.830 E14.96705
G1 X114.697 Y143.420 E15.00189
G1 X114.571 Y143.019 E15.03673
G1 X114.410 Y142.631 E15.07156
G1 X114.216 Y142.259 E15.10640
G1 X113.990 Y141.904 E15.14124
G1 X113.734 Y141.571 E15.17608
G1 X113.451 Y141.261 E15.21092
G1 X113.141 Y140.978 E15.24576
G1 X112.808 Y140.722 E15.28060
G1 X112.454 Y140.496 E15.31544
G1 X112.081 Y140.302 E15.35027
G1 X111.693 Y140.142 E15.38511
G1 X111.292 Y140.015 E15.41995
G1 X110.882 Y139.924 E15.45479
G1 X110.466 Y139.870 E15.48963
G1 X110.064 Y139.852 E15.52299
G1 X87.660 Y139.852 E17.38115
G1 X87.660 Y133.993 E17.86713
G1 X112.449 Y133.993 E19.92308
G1 X112.381 Y133.478 F10800.000
G1 F1800
G1 X114.141 Y132.423 E20.09328
G1 X134.854 Y132.434 E21.81118
G1 X134.854 Y149.366 E23.21555
G1 X114.346 Y149.366 E24.91648
G1 X114.346 Y144.660 E25.30684
G1 X114.330 Y144.291 E25.33741
G1 X114.281 Y143.919 E25.36852
G1 X114.200 Y143.553 E25.39964
G1 X114.087 Y143.195 E25.43076
G1 X113.943 Y142.849 E25.46187
G1 X113.770 Y142.516 E25.49299
G1 X113.569 Y142.200 E25.52410
G1 X113.340 Y141.902 E25.55521
G1 X113.087 Y141.625 E25.58633
G1 X112.810 Y141.372 E25.61745
G1 X112.513 Y141.144 E25.64856
G1 X112.196 Y140.942 E25.67968
G1 X111.863 Y140.769 E25.71079
G1 X111.517 Y140.625 E25.74191
G1 X111.159 Y140.512 E25.77302
G1 X110.793 Y140.431 E25.80414
G1 X110.421 Y140.382 E25.83525
G1 X110.053 Y140.366 E25.86582
G1 X87.146 Y140.366 E27.76569
G1 X87.146 Y133.478 E28.33696
G1 X112.306 Y133.478 E30.42376
G1 X112.794 Y133.760 F10800.000
G10 ; retract
G92 E0
G1 Z0.600
G1 X112.700 Y139.929
G1 Z0.400
G11 ; unretract
G92 E0
G1 F1800
G1 X107.612 Y134.841 E0.60055
G1 X106.880 Y134.841 E0.66161
G1 X111.155 Y139.116 E1.16621
G1 X110.540 Y139.024 E1.21814
G1 X110.321 Y139.014 E1.23636
G1 X106.148 Y134.841 E1.72894
G1 X105.417 Y134.841 E1.79001
G1 X109.579 Y139.004 E2.28135
G1 X108.848 Y139.004 E2.34242
G1 X104.685 Y134.841 E2.83376
G1 X103.953 Y134.841 E2.89483
G1 X108.116 Y139.004 E3.38617
G1 X107.384 Y139.004 E3.44723
G1 X103.221 Y134.841 E3.93858
G1 X102.490 Y134.841 E3.99964
G1 X106.653 Y139.004 E4.49099
G1 X105.921 Y139.004 E4.55205
G1 X101.758 Y134.841 E5.04339
G1 X101.026 Y134.841 E5.10446
G1 X105.189 Y139.004 E5.59580
G1 X104.457 Y139.004 E5.65687
G1 X100.295 Y134.841 E6.14821
G1 X99.563 Y134.841 E6.20928
G1 X103.726 Y139.004 E6.70062
G1 X102.994 Y139.004 E6.76169
G1 X98.831 Y134.841 E7.25303
G1 X98.100 Y134.841 E7.31410
G1 X102.262 Y139.004 E7.80544
G1 X101.531 Y139.004 E7.86651
G1 X97.368 Y134.841 E8.35785
G1 X96.636 Y134.841 E8.41892
G1 X100.799 Y139.004 E8.91026
G1 X100.067 Y139.004 E8.97133
G1 X95.904 Y134.841 E9.46267
G1 X95.173 Y134.841 E9.52374
G1 X99.336 Y139.004 E10.01508
G1 X98.604 Y139.004 E10.07615
G1 X94.441 Y134.841 E10.56749
G1 X93.709 Y134.841 E10.62856
G1 X97.872 Y139.004 E11.11990
G1 X97.141 Y139.004 E11.18096
G1 X92.978 Y134.841 E11.67231
G1 X92.246 Y134.841 E11.73337
G1 X96.409 Y139.004 E12.22472
G1 X95.677 Y139.004 E12.28578
G1 X91.514 Y134.841 E12.77713
G1 X90.783 Y134.841 E12.83819
G1 X94.945 Y139.004 E13.32953
G1 X94.214 Y139.004 E13.39060
G1 X90.051 Y134.841 E13.88194
G1 X89.319 Y134.841 E13.94301
G1 X93.482 Y139.004 E14.43435
G1 X92.750 Y139.004 E14.49542
G1 X88.588 Y134.841 E14.98676
G1 X88.509 Y134.841 E14.99336
G1 X88.509 Y135.494 E15.04783
G1 X92.019 Y139.004 E15.46213
G1 X91.287 Y139.004 E15.52320
G1 X88.509 Y136.225 E15.85114
G1 X88.509 Y136.957 E15.91221
G1 X90.555 Y139.004 E16.15378
G1 X89.824 Y139.004 E16.21485
G1 X88.509 Y137.689 E16.37007
G1 X88.509 Y138.420 E16.43113
G1 X89.323 Y139.235 E16.52729
G10 ; retract
G92 E0
G1 Z0.600 F10800.000
G1 X115.477 Y147.097
G1 Z0.400
G11 ; unretract
G92 E0
G1 F1800
G1 X116.384 Y148.004 E0.10707
G1 X117.116 Y148.004 E0.16813
G1 X115.709 Y146.596 E0.33425
G1 X115.709 Y145.865 E0.39532
G1 X117.848 Y148.004 E0.64780
G1 X118.579 Y148.004 E0.70887
G1 X115.709 Y145.133 E1.04771
G1 X115.698 Y144.391 E1.10966
G1 X119.311 Y148.004 E1.53610
G1 X120.043 Y148.004 E1.59717
G1 X115.596 Y143.557 E2.12199
G1 X115.517 Y143.200 E2.15251
G1 X115.369 Y142.729 E2.19375
G1 X115.276 Y142.505 E2.21398
G1 X120.774 Y148.004 E2.86299
G1 X121.506 Y148.004 E2.92406
G1 X108.343 Y134.841 E4.47768
G1 X109.075 Y134.841 E4.53874
G1 X122.238 Y148.004 E6.09237
G1 X122.970 Y148.004 E6.15343
G1 X109.807 Y134.841 E7.70705
G1 X110.538 Y134.841 E7.76812
G1 X123.701 Y148.004 E9.32174
G1 X124.433 Y148.004 E9.38281
G1 X111.270 Y134.841 E10.93643
G1 X112.002 Y134.841 E10.99750
G1 X125.165 Y148.004 E12.55112
G1 X125.896 Y148.004 E12.61219
G1 X112.733 Y134.841 E14.16581
G1 X113.200 Y134.576 E14.21060
G1 X126.628 Y148.004 E15.79549
G1 X127.360 Y148.004 E15.85656
G1 X113.658 Y134.302 E17.47381
G1 X114.115 Y134.028 E17.51832
G1 X128.091 Y148.004 E19.16794
G1 X128.823 Y148.004 E19.22901
G1 X114.606 Y133.786 E20.90708
G1 X115.339 Y133.787 E20.96823
G1 X129.555 Y148.004 E22.64618
G1 X130.286 Y148.004 E22.70725
G1 X116.071 Y133.788 E24.38510
G1 X116.804 Y133.789 E24.44624
G1 X131.018 Y148.004 E26.12398
G1 X131.750 Y148.004 E26.18504
G1 X117.537 Y133.790 E27.86266
G1 X118.269 Y133.791 E27.92381
G1 X132.482 Y148.004 E29.60132
G1 X133.213 Y148.004 E29.66238
G1 X119.002 Y133.792 E31.33978
G1 X119.734 Y133.793 E31.40092
G1 X133.491 Y147.550 E33.02468
G1 X133.491 Y146.818 E33.08574
G1 X120.467 Y133.794 E34.62302
G1 X121.200 Y133.795 E34.68417
G1 X133.491 Y146.087 E36.13497
G1 X133.491 Y145.355 E36.19604
G1 X121.932 Y133.796 E37.56036
G1 X122.664 Y133.796 E37.62144
G1 X133.491 Y144.623 E38.89939
G1 X133.491 Y143.892 E38.96046
G1 X123.396 Y133.796 E40.15204
G1 X124.128 Y133.796 E40.21311
G1 X133.491 Y143.160 E41.31833
G1 X133.491 Y142.428 E41.37939
G1 X124.859 Y133.796 E42.39825
