; generated by PrusaSlicer 2.0.0+win64 on 2019-07-11 at 18:08:07

; 

; external perimeters extrusion width = 0.60mm
; perimeters extrusion width = 0.60mm
; infill extrusion width = 0.60mm
; solid infill extrusion width = 0.60mm
; top infill extrusion width = 0.60mm
; support material extrusion width = 0.60mm
; first layer extrusion width = 0.60mm

M107
M83  ; extruder relative mode
M140 S95 ; set bed temp
M109 S160 ; Set extruder temp before bed level
M190 S95 ; wait for bed temp

G28  ; home all without mesh bed level

M109 S240 ; wait for extruder temp

G1 Y4.0 F1000.0 ; go outside print area
G92 E0.0
G1 E8 ; Purge Bubble
G1 X60.0 E9.0  F1000.0 ; intro line
G1 X100.0 E12.5  F1000.0 ; intro line
G92 E0.0
G21 ; set units to millimeters
G90 ; use absolute coordinates
M82 ; use absolute distances for extrusion
G92 E0

G10 ; retract
G92 E0
G1 Z0.200 F10800.000
G1 Z0.400
;AFTER_LAYER_CHANGE
;0.4
G1 Z0.600
G1 X84.621 Y85.917
G1 Z0.400
G11 ; unretract
G92 E0
M204 S1000
G1 F1800
G1 X84.886 Y85.510 E0.04025
G1 X85.232 Y85.170 E0.08050
G1 X107.869 Y67.409 E2.46693
G1 X108.408 Y67.098 E2.51848
G1 X109.218 Y66.933 E2.58705
G1 X131.883 Y66.701 E4.46699
G1 X142.310 Y66.937 E5.33206
G1 X143.013 Y67.098 E5.39183
G1 X143.631 Y67.475 E5.45191
G1 X144.087 Y68.010 E5.51016
G1 X144.357 Y68.658 E5.56841
G1 X146.473 Y79.207 E6.46079
G1 X146.459 Y116.293 E9.53672
G1 X136.971 Y155.784 E12.90525
G1 X136.790 Y156.273 E12.94856
G1 X136.477 Y156.737 E12.99493
G1 X123.085 Y171.978 E14.67768
G1 X122.593 Y172.387 E14.73076
G1 X122.010 Y172.641 E14.78353
G1 X121.412 Y172.723 E14.83356
G1 X79.240 Y172.723 E18.33126
G1 X78.718 Y172.660 E18.37487
G1 X78.225 Y172.478 E18.41849
G1 X77.729 Y172.135 E18.46852
G1 X77.339 Y171.670 E18.51885
G1 X77.088 Y171.121 E18.56888
G1 X76.992 Y170.522 E18.61921
G1 X76.997 Y123.476 E22.52120
G1 X84.422 Y86.490 E25.65003
G1 X84.597 Y85.988 E25.69415
G10 ; retract
G92 E0
G1 Z0.600 F10800.000
G1 X88.690 Y89.708
G1 Z0.400
G11 ; unretract
G92 E0
G1 F1800
G1 X88.690 Y97.556 E0.65091
G1 X89.426 Y97.556 E0.71192
G1 X89.426 Y89.950 E1.34284
G1 X90.162 Y89.950 E1.40385
G1 X90.162 Y97.556 E2.03476
G1 X90.897 Y97.556 E2.09578
G1 X90.897 Y89.950 E2.72669
G1 X91.633 Y89.950 E2.78770
G1 X91.633 Y91.581 E2.92305
G1 X92.369 Y91.581 E2.98407
G1 X92.369 Y89.950 E3.11942
G1 X93.104 Y89.950 E3.18043
G1 X93.104 Y91.822 E3.33577
G10 ; retract
G92 E0
G1 Z0.600 F10800.000
G1 X91.775 Y91.875
G1 Z0.400
G11 ; unretract
G92 E0
G1 F1800
G1 X91.775 Y100.567 E0.72092
G1 X92.804 Y100.567 E0.80621
G1 X92.804 Y96.265 E1.16302
G1 X93.832 Y96.522 E1.25094
G1 X93.832 Y100.567 E1.58642
G1 X94.860 Y100.567 E1.67171
G1 X94.860 Y96.780 E1.98581
G1 X95.889 Y97.030 E2.07359
G1 X95.889 Y100.798 E2.38614
G1 X90.747 Y100.798 F10800.000
G1 F1800
G1 X90.747 Y98.081 E2.61149
G1 X89.719 Y98.081 E2.69678
G1 X89.719 Y100.567 E2.90295
G1 X88.690 Y100.567 E2.98824
G1 X88.690 Y98.081 E3.19441
G1 X88.166 Y98.081 E3.23794
G1 X88.166 Y89.425 E3.95593
G1 X88.690 Y89.425 E3.99946
G1 X88.690 Y86.939 E4.20563
G1 X89.719 Y86.939 E4.29092
G1 X89.719 Y89.425 E4.49709
G1 X90.747 Y89.425 E4.58238
G1 X90.747 Y86.939 E4.78854
G1 X91.775 Y86.939 E4.87383
G1 X91.775 Y89.425 E5.08000
G1 X92.804 Y89.425 E5.16529
G1 X92.804 Y86.939 E5.37146
G1 X93.832 Y86.939 E5.45675
G1 X93.832 Y89.425 E5.66291
G1 X94.287 Y89.425 E5.70061
G1 X94.287 Y91.592 E5.88039
G1 X94.860 Y91.592 E5.92798
G1 X94.860 Y86.939 E6.31392
G1 X95.889 Y86.939 E6.39921
G1 X95.889 Y91.824 E6.80434
G10 ; retract
G92 E0
G1 Z0.600 F10800.000
G1 X101.030 Y96.884
G1 Z0.400
G11 ; unretract
G92 E0
G1 F1800
G1 X101.030 Y115.781 E1.56731
G1 X102.059 Y115.781 E1.65259
G1 X102.059 Y97.116 E3.20062
G1 X103.087 Y97.116 E3.28591
G1 X103.087 Y115.781 E4.83394
G1 X104.115 Y115.781 E4.91923
G1 X104.115 Y113.295 E5.12540
G1 X105.144 Y113.295 E5.21069
G1 X105.144 Y115.781 E5.41685
G1 X106.172 Y115.781 E5.50214
G1 X106.172 Y113.295 E5.70831
G1 X106.965 Y113.295 E5.77407
G1 X106.965 Y110.955 E5.96812
G1 X107.200 Y110.955 E5.98765
G1 X107.200 Y115.781 E6.38788
G1 X108.229 Y115.781 E6.47317
G1 X108.229 Y110.963 E6.87273
G1 X109.257 Y110.963 E6.95801
G1 X109.257 Y116.012 E7.37676
G10 ; retract
G92 E0
G1 Z0.600 F10800.000
G1 X111.313 Y116.012
G1 Z0.400
G11 ; unretract
G92 E0
G1 F1800
G1 X111.313 Y110.963 E0.41875
G1 X112.342 Y110.963 E0.50404
G1 X112.342 Y115.781 E0.90360
G1 X113.370 Y115.781 E0.98889
G1 X113.370 Y110.963 E1.38845
G1 X114.398 Y110.963 E1.47374
G1 X114.398 Y115.781 E1.87330
G1 X115.427 Y115.781 E1.95858
G1 X115.427 Y69.190 E5.82285
G1 X116.455 Y69.190 E5.90814
G1 X116.455 Y115.781 E9.77241
G1 X117.483 Y115.781 E9.85770
G1 X117.483 Y69.190 E13.72197
G1 X118.512 Y69.190 E13.80726
G1 X118.512 Y115.781 E17.67153
G1 X119.540 Y115.781 E17.75682
G1 X119.540 Y69.190 E21.62109
G1 X120.568 Y69.190 E21.70638
G1 X120.568 Y77.746 E22.41609
G1 X119.593 Y77.746 E22.49699
G1 X119.593 Y86.939 E23.25941
G1 X120.568 Y86.939 E23.34031
G1 X120.568 Y115.781 E25.73245
G1 X121.597 Y115.781 E25.81774
G1 X121.597 Y69.190 E29.68201
G1 X122.625 Y69.190 E29.76729
G1 X122.625 Y90.425 E31.52853
G1 X122.129 Y90.425 E31.56970
G1 X122.129 Y94.546 E31.91151
G1 X122.625 Y94.546 E31.95268
G1 X122.625 Y115.781 E33.71391
G1 X123.653 Y115.781 E33.79920
G1 X123.653 Y69.190 E37.66347
G1 X124.682 Y69.190 E37.74876
G1 X124.682 Y115.781 E41.61303
G1 X125.710 Y115.781 E41.69832
G1 X125.710 Y69.190 E45.56259
G1 X126.738 Y69.190 E45.64788
G1 X126.738 Y115.781 E49.51215
G1 X127.767 Y115.781 E49.59743
G1 X127.767 Y69.190 E53.46170
G1 X128.795 Y69.190 E53.54699
G1 X128.795 Y116.012 E57.43045
G1 X131.880 Y116.012 F10800.000
G1 F1800
G1 X131.880 Y110.963 E57.84920
G1 X130.852 Y110.963 E57.93449
G1 X130.852 Y115.781 E58.33405
G1 X129.823 Y115.781 E58.41934
G1 X129.823 Y110.963 E58.81890
G1 X129.536 Y110.963 E58.84273
G1 X129.174 Y110.602 E58.88513
G1 X129.174 Y105.498 E59.30846
G1 X129.823 Y105.151 E59.36948
G1 X129.823 Y101.649 E59.65991
G1 X130.213 Y101.531 E59.69367
G1 X130.852 Y101.502 E59.74670
G1 X130.852 Y105.414 E60.07118
G1 X131.139 Y105.374 E60.09527
G1 X131.497 Y105.254 E60.12659
G1 X131.880 Y105.032 E60.16329
G1 X131.880 Y101.591 E60.44868
G10 ; retract
G92 E0
G1 Z0.600 F10800.000
G1 X137.241 Y110.733
G1 Z0.400
G11 ; unretract
G92 E0
G1 F1800
G1 X137.241 Y112.770 E0.16896
G1 X137.977 Y112.770 E0.22997
G1 X137.977 Y110.974 E0.37894
G1 X138.188 Y110.974 E0.39644
G1 X138.556 Y110.604 E0.43973
G1 X138.547 Y106.782 E0.75675
G1 X138.599 Y100.122 E1.30910
G1 X138.582 Y96.767 E1.58739
G1 X138.600 Y96.749 E1.58954
G1 X138.582 Y95.010 E1.73378
G1 X138.599 Y94.209 E1.80021
G1 X138.575 Y91.928 E1.98943
G1 X138.528 Y91.881 E1.99496
G1 X138.495 Y88.880 E2.24387
G1 X138.713 Y88.881 E2.26195
G1 X138.713 Y113.011 E4.26334
G1 X139.078 Y116.012 F10800.000
G1 F1800
G1 X139.078 Y113.295 E4.48869
G1 X138.050 Y113.295 E4.57398
G1 X138.050 Y115.781 E4.78015
G1 X137.021 Y115.781 E4.86544
G1 X137.021 Y113.295 E5.07161
G1 X136.342 Y113.295 E5.12793
G1 X136.342 Y110.963 E5.32132
G1 X135.993 Y110.963 E5.35029
G1 X135.993 Y115.781 E5.74985
G1 X134.965 Y115.781 E5.83514
G1 X134.965 Y110.963 E6.23470
G1 X133.936 Y110.963 E6.31998
G1 X133.936 Y116.012 E6.73873
G1 X144.220 Y116.012 F10800.000
G1 F1800
G1 X144.220 Y102.153 E7.88824
G1 X143.191 Y102.153 E7.97353
G1 X143.191 Y115.781 E9.10385
G1 X142.163 Y115.781 E9.18914
G1 X142.163 Y69.190 E13.05341
G1 X141.135 Y69.190 E13.13870
G1 X141.135 Y115.781 E17.00297
G1 X140.106 Y115.781 E17.08826
G1 X140.106 Y69.190 E20.95253
G1 X139.078 Y69.190 E21.03781
G1 X139.078 Y71.675 E21.24398
G1 X138.050 Y71.675 E21.32927
G1 X138.050 Y69.190 E21.53544
G1 X137.021 Y69.190 E21.62073
G1 X137.021 Y71.584 E21.81933
G1 X137.196 Y71.584 E21.83378
G1 X137.554 Y71.930 E21.87508
G1 X137.642 Y74.307 E22.07239
G1 X137.475 Y90.798 E23.44020
G1 X137.486 Y91.758 E23.51982
G1 X137.665 Y91.937 E23.54082
G1 X137.661 Y103.889 E24.53210
G1 X137.598 Y106.784 E24.77228
G1 X137.625 Y108.696 E24.93088
G1 X137.599 Y108.722 E24.93397
G1 X137.623 Y110.449 E25.07721
G1 X137.970 Y110.449 E25.10599
G1 X138.030 Y110.388 E25.11308
G1 X138.022 Y106.781 E25.41226
G1 X138.050 Y102.658 E25.75430
G1 X138.050 Y71.941 E28.30192
G10 ; retract
G92 E0
G1 Z0.600 F10800.000
G1 X138.713 Y75.393
G1 Z0.400
G11 ; unretract
G92 E0
G1 F1800
G1 X138.713 Y82.537 E0.59253
G1 X139.012 Y82.537 E0.61733
G1 X139.003 Y83.353 E0.68506
G1 X138.713 Y83.348 E0.70919
G1 X138.713 Y86.149 E0.94149
G10 ; retract
G92 E0
G1 Z0.600 F10800.000
G1 X131.880 Y84.052
G1 Z0.400
G11 ; unretract
G92 E0
G1 F1800
G1 X131.880 Y80.622 E0.28446
G1 X130.952 Y80.250 E0.36735
G1 X130.852 Y80.255 E0.37571
G1 X130.852 Y84.167 E0.70018
G1 X130.085 Y84.072 E0.76423
G1 X129.823 Y83.904 E0.79004
G1 X129.823 Y80.405 E1.08029
G1 X129.673 Y80.450 E1.09331
G1 X129.174 Y80.080 E1.14480
G1 X129.174 Y71.946 E1.81949
G1 X129.536 Y71.584 E1.86189
G1 X129.823 Y71.584 E1.88572
G1 X129.823 Y69.190 E2.08432
G1 X130.852 Y69.190 E2.16961
G1 X130.852 Y71.584 E2.36822
G1 X131.880 Y71.584 E2.45351
G1 X131.880 Y68.958 E2.67130
G1 X114.398 Y71.816 F10800.000
G1 F1800
G1 X114.398 Y69.190 E2.88910
G1 X113.370 Y69.190 E2.97439
G1 X113.370 Y71.584 E3.17300
G1 X112.342 Y71.584 E3.25829
G1 X112.342 Y69.190 E3.45689
G1 X111.313 Y69.190 E3.54218
G1 X111.313 Y71.675 E3.74835
G1 X110.794 Y71.675 E3.79146
G1 X110.285 Y71.167 E3.85111
G1 X110.285 Y69.190 E4.01510
G1 X109.257 Y69.190 E4.10038
G1 X109.257 Y70.466 E4.20622
G10 ; retract
G92 E0
G1 Z0.600 F10800.000
G1 X109.288 Y71.959
G1 Z0.400
G11 ; unretract
G92 E0
G1 F1800
G1 X109.288 Y91.564 E1.62606
G1 X110.023 Y91.564 E1.68707
G1 X110.023 Y72.200 E3.29314
G1 X110.759 Y72.200 E3.35415
G1 X110.759 Y89.848 E4.81790
G10 ; retract
G92 E0
G1 Z0.600 F10800.000
G1 X106.345 Y113.011
G1 Z0.400
G11 ; unretract
G92 E0
G1 F1800
G1 X106.345 Y110.966 E0.16962
G1 X105.610 Y110.966 E0.23064
G1 X105.610 Y112.770 E0.38027
G1 X104.874 Y112.770 E0.44128
G1 X104.874 Y110.753 E0.60854
G1 X104.716 Y110.594 E0.62717
G1 X104.735 Y108.713 E0.78321
G1 X104.716 Y108.694 E0.78540
G1 X104.735 Y106.770 E0.94496
G1 X104.725 Y97.127 E1.74476
G1 X104.138 Y97.127 E1.79341
G1 X104.138 Y113.011 E3.11084
G10 ; retract
G92 E0
G1 Z0.600 F10800.000
G1 X87.662 Y100.798
G1 Z0.400
G11 ; unretract
G92 E0
G1 F1800
G1 X87.662 Y86.939 E1.14951
G1 X86.634 Y86.939 E1.23480
G1 X86.634 Y100.798 E2.38431
G10 ; retract
G92 E0
G1 Z0.600 F10800.000
G1 X143.191 Y93.192
G1 Z0.400
G11 ; unretract
G92 E0
G1 F1800
G1 X143.191 Y79.332 E1.14951
G1 X144.220 Y79.332 E1.23480
G1 X144.220 Y93.192 E2.38431
G10 ; retract
G92 E0
G1 Z0.600 F10800.000
G1 X113.348 Y102.274
G1 Z0.400
G11 ; unretract
G92 E0
G1 F1800
G1 X113.556 Y102.992 E0.06202
G1 X113.539 Y103.930 E0.13976
G1 X113.351 Y104.615 E0.19873
G1 X112.764 Y105.481 E0.28553
G1 X112.340 Y105.835 E0.33132
G1 X111.740 Y106.156 E0.38772
G1 X110.842 Y106.344 E0.46381
G1 X110.176 Y106.303 E0.51913
G1 X109.541 Y106.106 E0.57431
G1 X109.151 Y105.903 E0.61078
G1 X108.658 Y105.509 E0.66313
G1 X108.368 Y105.179 E0.69956
G1 X108.052 Y104.634 E0.75184
G1 X107.900 Y104.222 E0.78824
G1 X107.803 Y103.600 E0.84047
G1 X107.807 Y103.164 E0.87663
G1 X107.994 Y102.396 E0.94218
G1 X108.167 Y102.031 E0.97564
G1 X108.559 Y101.488 E1.03123
G1 X108.851 Y101.214 E1.06443
G1 X109.416 Y100.846 E1.12037
G1 X110.020 Y100.630 E1.17354
G1 X110.539 Y100.558 E1.21701
G1 X111.366 Y100.625 E1.28580
G1 X112.340 Y101.058 E1.37421
G1 X112.921 Y101.607 E1.44057
G1 X113.307 Y102.211 E1.50000
G1 X113.845 Y102.327 F10800.000
G10 ; retract
G92 E0
G1 Z0.600
G1 X113.443 Y106.254
G1 Z0.400
G11 ; unretract
G92 E0
G1 F1800
G1 X113.444 Y109.017 E0.22914
G1 X107.563 Y109.011 E0.71688
G1 X107.564 Y105.821 E0.98144
G1 X107.945 Y106.255 E1.02930
G1 X108.587 Y106.769 E1.09755
G1 X109.149 Y107.061 E1.15000
G1 X109.990 Y107.322 E1.22308
G1 X110.917 Y107.379 E1.30012
G1 X112.095 Y107.133 E1.39991
G1 X112.918 Y106.692 E1.47732
G1 X113.385 Y106.302 E1.52781
G10 ; retract
G92 E0
G1 Z0.600 F10800.000
G1 X113.738 Y104.960
G1 Z0.400
G11 ; unretract
G92 E0
G1 F1800
G1 X113.956 Y105.027 E0.01890
G1 X113.958 Y109.531 E0.39246
G1 X107.049 Y109.525 E0.96552
G1 X107.051 Y103.959 E1.42715
G1 X107.335 Y103.937 E1.45082
G1 X107.400 Y104.352 E1.48564
G1 X107.584 Y104.853 E1.52996
G1 X107.949 Y105.480 E1.59010
G1 X108.301 Y105.882 E1.63445
G1 X108.869 Y106.336 E1.69475
G1 X109.345 Y106.583 E1.73921
G1 X110.083 Y106.812 E1.80334
G1 X110.880 Y106.861 E1.86952
G1 X111.918 Y106.644 E1.95746
G1 X112.629 Y106.264 E2.02437
G1 X113.149 Y105.830 E2.08053
G1 X113.696 Y105.023 E2.16144
G10 ; retract
G92 E0
G1 Z0.600 F10800.000
G1 X113.440 Y100.683
G1 Z0.400
G11 ; unretract
G92 E0
G1 F1800
G1 X112.918 Y100.189 E0.05958
G1 X111.623 Y99.615 E0.17709
G1 X110.509 Y99.524 E0.26976
G1 X109.774 Y99.626 E0.33135
G1 X108.956 Y99.918 E0.40333
G1 X108.213 Y100.402 E0.47688
G1 X107.566 Y101.010 E0.55056
G1 X107.567 Y95.172 E1.03478
G1 X96.462 Y95.166 E1.95586
G1 X93.846 Y94.518 E2.17938
G1 X93.929 Y94.015 E2.22163
G1 X93.981 Y93.893 E2.23268
G1 X93.938 Y93.536 E2.26245
G1 X113.437 Y93.521 E3.87968
G1 X113.440 Y100.608 E4.46748
G10 ; retract
G92 E0
G1 Z0.600 F10800.000
G1 X107.053 Y95.685
G1 Z0.400
G11 ; unretract
G92 E0
G1 F1800
G1 X96.399 Y95.680 E0.88363
G1 X93.261 Y94.903 E1.15177
G1 X93.392 Y94.116 E1.21792
G1 X93.362 Y94.038 E1.22484
G1 X93.454 Y93.819 E1.24459
G1 X93.358 Y93.023 E1.31110
G1 X113.228 Y93.006 E2.95917
G1 X113.232 Y73.015 E4.61717
G1 X113.875 Y73.015 E4.67053
G1 X113.879 Y93.006 E6.32859
G1 X113.951 Y93.006 E6.33451
G1 X113.955 Y101.857 E7.06860
G1 X113.733 Y101.922 E7.08778
G1 X113.321 Y101.277 E7.15128
G1 X112.629 Y100.623 E7.23021
G1 X111.494 Y100.120 E7.33316
G1 X110.524 Y100.041 E7.41390
G1 X109.897 Y100.128 E7.46643
G1 X109.186 Y100.382 E7.52900
G1 X108.532 Y100.808 E7.59374
G1 X108.171 Y101.147 E7.63482
G1 X107.722 Y101.768 E7.69842
G1 X107.507 Y102.223 E7.74015
G1 X107.323 Y102.980 E7.80472
G1 X107.051 Y102.947 E7.82742
G1 X107.053 Y95.760 E8.42347
G1 X106.539 Y96.199 F10800.000
G1 F1800
G1 X96.336 Y96.194 E9.26966
G1 X92.676 Y95.287 E9.58241
G1 X92.861 Y94.170 E9.67637
G1 X92.807 Y94.029 E9.68891
G1 X92.927 Y93.744 E9.71450
G1 X92.777 Y92.509 E9.81773
G1 X112.714 Y92.492 E11.47131
G1 X112.718 Y72.501 E13.12934
G1 X114.389 Y72.501 E13.26799
G1 X114.393 Y92.492 E14.92604
G1 X114.465 Y92.492 E14.93195
G1 X114.473 Y110.046 E16.38786
G1 X106.535 Y110.039 E17.04624
G1 X106.539 Y96.274 E18.18783
G1 X106.453 Y95.707 F10800.000
G10 ; retract
G92 E0
G1 Z0.600
G1 X108.323 Y100.208
G1 Z0.400
G11 ; unretract
G92 E0
G1 F1800
G1 X107.900 Y99.785 E0.05121
G1 X107.900 Y99.034 E0.11560
G1 X108.610 Y99.744 E0.20167
G1 X108.807 Y99.616 E0.22177
G1 X109.122 Y99.504 E0.25041
G1 X107.901 Y98.283 E0.39843
G1 X107.901 Y97.532 E0.46281
G1 X109.676 Y99.306 E0.67795
G1 X110.332 Y99.211 E0.73479
G1 X107.901 Y96.780 E1.02946
G1 X107.901 Y96.029 E1.09385
G1 X111.362 Y99.490 E1.51337
G10 ; retract
G92 E0
G1 Z0.600 F10800.000
G1 X113.901 Y102.141
G1 Z0.400
G11 ; unretract
G92 E0
G1 F1800
G1 X113.937 Y102.394 E0.02253
G1 X114.013 Y102.962 E0.06013
G1 X114.004 Y103.970 E0.12807
G1 X114.000 Y104.022 E0.13167
G1 X113.968 Y104.262 E0.14983
G1 X113.936 Y104.502 E0.16956
G1 X113.904 Y104.742 E0.19085
G1 X113.699 Y105.608 F10800.000
G1 F1800
G1 X113.595 Y105.723 E0.19393
G1 X113.491 Y105.838 E0.19637
G10 ; retract
G92 E0
G1 Z0.600 F10800.000
G1 X113.340 Y107.517
G1 Z0.400
G11 ; unretract
G92 E0
G1 F1800
G1 X112.903 Y107.080 E0.05291
G1 X112.415 Y107.341 E0.10021
G1 X113.109 Y108.035 E0.18417
G1 X113.110 Y108.682 E0.23944
G1 X113.007 Y108.682 E0.24822
G1 X111.850 Y107.525 E0.38803
G1 X111.230 Y107.655 E0.44213
G1 X112.257 Y108.681 E0.56622
G1 X111.507 Y108.681 E0.63029
G1 X110.515 Y107.689 E0.75016
G1 X109.929 Y107.653 E0.80031
G1 X109.641 Y107.563 E0.82614
G1 X110.757 Y108.680 E0.96108
G1 X110.008 Y108.679 E1.02516
G1 X108.395 Y107.066 E1.22008
G1 X108.214 Y107.344 E1.24843
G1 X107.898 Y107.156 E1.27981
G1 X107.898 Y107.319 E1.29370
G1 X109.258 Y108.679 E1.45801
G1 X108.508 Y108.678 E1.52208
G1 X107.667 Y107.836 E1.62376
G10 ; retract
G92 E0
G1 Z0.600 F10800.000
G1 X108.167 Y106.804
G1 Z0.400
G11 ; unretract
G92 E0
G1 F1800
