; generated by PrusaSlicer 2.0.0+win64 on 2019-07-10 at 18:14:06

; 

; external perimeters extrusion width = 0.60mm
; perimeters extrusion width = 0.60mm
; infill extrusion width = 0.60mm
; solid infill extrusion width = 0.60mm
; top infill extrusion width = 0.60mm
; support material extrusion width = 0.60mm
; first layer extrusion width = 0.60mm

M107
M83  ; extruder relative mode
M140 S95 ; set bed temp
M109 S160 ; Set extruder temp before bed level
M190 S95 ; wait for bed temp

G28  ; home all without mesh bed level

M109 S240 ; wait for extruder temp

G1 Y4.0 F1000.0 ; go outside print area
G92 E0.0
G1 E8 ; Purge Bubble
G1 X60.0 E9.0  F1000.0 ; intro line
G1 X100.0 E12.5  F1000.0 ; intro line
G92 E0.0
G21 ; set units to millimeters
G90 ; use absolute coordinates
M82 ; use absolute distances for extrusion
G92 E0

G10 ; retract
G92 E0
G1 Z0.200 F10800.000
G1 Z0.400
;AFTER_LAYER_CHANGE
;0.4
G1 Z0.600
G1 X43.871 Y88.961
G1 Z0.400
G11 ; unretract
G92 E0
M204 S1000
G1 F1800
G1 X45.682 Y88.428 E0.15658
G1 X47.568 Y88.244 E0.31368
G1 X174.425 Y88.244 E10.83519
G1 X176.343 Y88.433 E10.99503
G1 X178.323 Y89.047 E11.16702
G1 X180.042 Y89.966 E11.32866
G1 X181.443 Y91.037 E11.47494
G1 X182.712 Y92.366 E11.62731
G1 X183.948 Y94.124 E11.80558
G1 X184.878 Y96.004 E11.97957
G1 X185.535 Y97.980 E12.15225
G1 X186.053 Y100.860 E12.39491
G1 X186.026 Y136.872 E15.38175
G1 X185.515 Y139.096 E15.57108
G1 X184.862 Y141.036 E15.74078
G1 X183.959 Y142.857 E15.90940
G1 X182.897 Y144.405 E16.06512
G1 X181.302 Y146.080 E16.25691
G1 X179.865 Y147.156 E16.40585
G1 X178.129 Y148.039 E16.56738
G1 X176.318 Y148.572 E16.72395
G1 X174.432 Y148.756 E16.88106
G1 X47.468 Y148.753 E27.41149
G1 X45.683 Y148.572 E27.56028
G1 X44.010 Y148.087 E27.70471
G1 X41.965 Y147.040 E27.89526
G1 X40.549 Y145.955 E28.04324
G1 X39.184 Y144.513 E28.20790
G1 X38.043 Y142.860 E28.37454
G1 X37.115 Y140.978 E28.54853
G1 X36.477 Y139.067 E28.71568
G1 X35.944 Y136.565 E28.92785
G1 X35.962 Y100.706 E31.90196
G1 X36.511 Y97.818 E32.14578
G1 X37.144 Y95.951 E32.30932
G1 X38.118 Y94.020 E32.48866
G1 X39.200 Y92.468 E32.64560
G1 X40.574 Y91.021 E32.81111
G1 X42.126 Y89.850 E32.97235
G1 X43.804 Y88.995 E33.12858
G10 ; retract
G92 E0
G1 Z0.600 F10800.000
G1 X45.176 Y92.307
G1 Z0.400
G11 ; unretract
G92 E0
G1 F1800
G1 X46.366 Y91.954 E0.10300
G1 X47.644 Y91.830 E0.20943
G1 X174.383 Y91.832 E10.72120
G1 X175.634 Y91.954 E10.82540
G1 X176.824 Y92.307 E10.92841
G1 X177.970 Y92.894 E11.03514
G1 X179.045 Y93.708 E11.14701
G1 X180.018 Y94.736 E11.26442
G1 X180.862 Y95.956 E11.38741
G1 X181.547 Y97.339 E11.51546
G1 X182.054 Y98.851 E11.64770
G1 X182.365 Y100.449 E11.78275
G1 X182.472 Y102.137 E11.92299
G1 X182.472 Y135.170 E14.66280
G1 X182.452 Y135.170 E14.66441
G1 X182.365 Y136.551 E14.77916
G1 X182.054 Y138.149 E14.91421
G1 X181.547 Y139.661 E15.04645
G1 X180.862 Y141.044 E15.17450
G1 X180.018 Y142.264 E15.29749
G1 X179.045 Y143.292 E15.41490
G1 X177.970 Y144.106 E15.52677
G1 X176.824 Y144.693 E15.63350
G1 X175.634 Y145.046 E15.73651
G1 X174.356 Y145.170 E15.84294
G1 X47.644 Y145.170 E26.35249
G1 X46.366 Y145.046 E26.45892
G1 X45.176 Y144.693 E26.56192
G1 X44.030 Y144.106 E26.66865
G1 X42.955 Y143.292 E26.78053
G1 X41.982 Y142.264 E26.89794
G1 X41.138 Y141.044 E27.02093
G1 X40.453 Y139.661 E27.14897
G1 X39.946 Y138.149 E27.28121
G1 X39.635 Y136.551 E27.41626
G1 X39.548 Y135.170 E27.53101
G1 X39.528 Y135.170 E27.53263
G1 X39.528 Y102.136 E30.27245
G1 X39.635 Y100.449 E30.41268
G1 X39.946 Y98.851 E30.54773
G1 X40.453 Y97.339 E30.67997
G1 X41.138 Y95.956 E30.80802
G1 X41.982 Y94.736 E30.93100
G1 X42.955 Y93.708 E31.04842
G1 X44.030 Y92.894 E31.16029
G1 X45.109 Y92.341 E31.26080
G1 X44.875 Y91.884 F10800.000
G1 F1800
G1 X44.984 Y91.828 E31.27099
G1 X46.268 Y91.447 E31.38203
G1 X47.619 Y91.316 E31.49462
G1 X174.408 Y91.318 E42.01053
G1 X175.732 Y91.447 E42.12089
G1 X177.016 Y91.828 E42.23194
G1 X178.244 Y92.457 E42.34637
G1 X179.389 Y93.324 E42.46550
G1 X180.419 Y94.411 E42.58969
G1 X181.306 Y95.694 E42.71905
G1 X182.024 Y97.142 E42.85311
G1 X182.552 Y98.719 E42.99108
G1 X182.876 Y100.383 E43.13168
G1 X182.966 Y101.813 E43.25046
G1 X182.986 Y101.813 E43.25207
G1 X182.986 Y135.684 E46.06139
G1 X182.935 Y135.684 E46.06562
G1 X182.876 Y136.617 E46.14309
G1 X182.552 Y138.281 E46.28369
G1 X182.024 Y139.858 E46.42166
G1 X181.306 Y141.306 E46.55572
G1 X180.419 Y142.589 E46.68507
G1 X179.389 Y143.676 E46.80927
G1 X178.244 Y144.543 E46.92839
G1 X177.016 Y145.172 E47.04283
G1 X175.732 Y145.553 E47.15388
G1 X174.381 Y145.684 E47.26646
G1 X47.619 Y145.684 E57.78016
G1 X46.268 Y145.553 E57.89274
G1 X44.984 Y145.172 E58.00379
G1 X43.756 Y144.543 E58.11823
G1 X42.611 Y143.676 E58.23735
G1 X41.581 Y142.589 E58.36155
G1 X40.694 Y141.306 E58.49091
G1 X39.976 Y139.858 E58.62496
G1 X39.448 Y138.281 E58.76293
G1 X39.124 Y136.617 E58.90353
G1 X39.065 Y135.684 E58.98101
G1 X39.014 Y135.684 E58.98524
G1 X39.014 Y101.813 E61.79455
G1 X39.034 Y101.813 E61.79617
G1 X39.124 Y100.383 E61.91495
G1 X39.448 Y98.719 E62.05555
G1 X39.976 Y97.142 E62.19351
G1 X40.694 Y95.694 E62.32757
G1 X41.581 Y94.411 E62.45693
G1 X42.611 Y93.324 E62.58113
G1 X43.756 Y92.457 E62.70025
G1 X44.808 Y91.918 E62.79828
G10 ; retract
G92 E0
G1 Z0.600 F10800.000
G1 X46.169 Y90.940
G1 Z0.400
G11 ; unretract
G92 E0
G1 F1800
G1 X47.594 Y90.802 E0.11874
G1 X174.433 Y90.804 E10.63880
G1 X175.831 Y90.940 E10.75531
G1 X177.208 Y91.348 E10.87441
G1 X178.519 Y92.020 E10.99655
G1 X179.733 Y92.940 E11.12292
G1 X180.819 Y94.086 E11.25390
G1 X181.750 Y95.432 E11.38962
G1 X182.500 Y96.945 E11.52970
G1 X183.050 Y98.588 E11.67339
G1 X183.387 Y100.318 E11.81954
G1 X183.449 Y101.299 E11.90104
G1 X183.500 Y101.299 E11.90528
G1 X183.500 Y136.199 E14.79988
G1 X183.417 Y136.199 E14.80672
G1 X183.387 Y136.682 E14.84692
G1 X183.050 Y138.412 E14.99307
G1 X182.500 Y140.055 E15.13677
G1 X181.750 Y141.568 E15.27684
G1 X180.819 Y142.914 E15.41257
G1 X179.733 Y144.060 E15.54355
G1 X178.519 Y144.980 E15.66992
G1 X177.208 Y145.652 E15.79206
G1 X175.831 Y146.060 E15.91115
G1 X174.406 Y146.199 E16.02989
G1 X47.594 Y146.199 E26.54773
G1 X46.169 Y146.060 E26.66647
G1 X44.792 Y145.652 E26.78557
G1 X43.481 Y144.980 E26.90771
G1 X42.267 Y144.060 E27.03408
G1 X41.181 Y142.914 E27.16506
G1 X40.250 Y141.568 E27.30079
G1 X39.500 Y140.055 E27.44086
G1 X38.950 Y138.412 E27.58455
G1 X38.613 Y136.682 E27.73070
G1 X38.583 Y136.199 E27.77090
G1 X38.500 Y136.199 E27.77775
G1 X38.500 Y101.299 E30.67235
G1 X38.551 Y101.299 E30.67658
G1 X38.613 Y100.318 E30.75809
G1 X38.950 Y98.588 E30.90424
G1 X39.500 Y96.945 E31.04793
G1 X40.250 Y95.432 E31.18800
G1 X41.181 Y94.086 E31.32373
G1 X42.267 Y92.940 E31.45471
G1 X43.481 Y92.020 E31.58108
G1 X44.792 Y91.348 E31.70322
G1 X46.097 Y90.962 E31.81609
G1 X46.497 Y91.318 F10800.000
G10 ; retract
G92 E0
G1 Z0.600
G1 X40.609 Y139.745
G1 Z0.400
G11 ; unretract
G92 E0
G1 F1800
G1 X45.187 Y144.323 E0.53708
G1 X45.300 Y144.381 E0.54764
G1 X46.255 Y144.664 E0.63026
G1 X40.580 Y138.989 E1.29610
G1 X40.270 Y138.064 E1.37701
G1 X40.243 Y137.925 E1.38878
G1 X47.100 Y144.781 E2.19319
G1 X47.660 Y144.836 E2.23987
G1 X47.882 Y144.836 E2.25827
G1 X40.067 Y137.022 E3.17502
G1 X39.967 Y136.508 E3.21841
G1 X39.946 Y136.173 E3.24625
G1 X48.609 Y144.836 E4.26253
G1 X49.336 Y144.836 E4.32286
G1 X39.897 Y135.397 E5.43023
G1 X39.862 Y134.635 E5.49349
G1 X50.063 Y144.836 E6.69023
G1 X50.791 Y144.836 E6.75056
G1 X39.862 Y133.908 E8.03262
G1 X39.862 Y133.181 E8.09295
G1 X51.518 Y144.836 E9.46033
G1 X52.245 Y144.836 E9.52067
G1 X39.862 Y132.453 E10.97337
G1 X39.862 Y131.726 E11.03370
G1 X52.972 Y144.836 E12.57173
G1 X53.700 Y144.836 E12.63206
G1 X39.862 Y130.999 E14.25541
G1 X39.862 Y130.272 E14.31574
G1 X54.427 Y144.836 E16.02441
G1 X55.154 Y144.836 E16.08474
G1 X39.862 Y129.544 E17.87873
G1 X39.862 Y128.817 E17.93906
G1 X55.882 Y144.836 E19.81838
G1 X56.609 Y144.836 E19.87871
G1 X39.862 Y128.090 E21.84334
G1 X39.862 Y127.362 E21.90368
G1 X57.336 Y144.836 E23.95363
G1 X58.063 Y144.836 E24.01396
G1 X39.862 Y126.635 E26.14924
G1 X39.862 Y125.908 E26.20957
G1 X58.791 Y144.836 E28.43017
G1 X59.518 Y144.836 E28.49051
G1 X39.862 Y125.181 E30.79643
G1 X39.862 Y124.453 E30.85676
G1 X60.245 Y144.836 E33.24800
G1 X60.972 Y144.836 E33.30834
G1 X39.862 Y123.726 E35.78490
G1 X39.862 Y122.999 E35.84523
G1 X61.700 Y144.836 E38.40712
G1 X62.427 Y144.836 E38.46745
G1 X39.862 Y122.272 E41.11466
G1 X39.862 Y121.544 E41.17499
G1 X63.154 Y144.836 E43.90752
G1 X63.882 Y144.836 E43.96785
G1 X39.862 Y120.817 E46.78571
G1 X39.862 Y120.090 E46.84604
G1 X64.609 Y144.836 E49.74921
G1 X65.336 Y144.836 E49.80954
G1 X39.862 Y119.362 E52.79804
G1 X39.862 Y118.635 E52.85837
G1 X66.063 Y144.836 E55.93219
G1 X66.791 Y144.836 E55.99252
G1 X39.862 Y117.908 E59.15166
G1 X39.862 Y117.181 E59.21199
G1 X67.518 Y144.836 E62.45645
G1 X68.245 Y144.836 E62.51678
G1 X39.862 Y116.453 E65.84656
G1 X39.862 Y115.726 E65.90690
G1 X68.972 Y144.836 E69.32200
G1 X69.700 Y144.836 E69.38233
G1 X39.862 Y114.999 E72.88276
G1 X39.862 Y114.272 E72.94309
G1 X70.427 Y144.836 E76.52884
G1 X71.154 Y144.836 E76.58917
G1 X39.862 Y113.544 E80.26024
G1 X39.862 Y112.817 E80.32057
G1 X71.882 Y144.836 E84.07696
G1 X72.609 Y144.836 E84.13729
G1 X39.862 Y112.090 E87.97900
G1 X39.862 Y111.362 E88.03934
G1 X73.336 Y144.836 E91.96637
G1 X74.063 Y144.836 E92.02670
G1 X39.862 Y110.635 E96.03906
G1 X39.862 Y109.908 E96.09939
G1 X74.791 Y144.836 E100.19707
G1 X75.518 Y144.836 E100.25740
G1 X39.862 Y109.181 E104.44040
G1 X39.862 Y108.453 E104.50073
G1 X76.245 Y144.836 E108.76905
G1 X76.972 Y144.836 E108.82938
G1 X39.862 Y107.726 E113.18303
G1 X39.862 Y106.999 E113.24336
G1 X77.700 Y144.836 E117.68232
G1 X78.427 Y144.836 E117.74265
G1 X39.862 Y106.272 E122.26694
G1 X39.862 Y105.544 E122.32727
G1 X79.154 Y144.836 E126.93688
G1 X79.882 Y144.836 E126.99721
G1 X39.862 Y104.817 E131.69214
G1 X39.862 Y104.090 E131.75247
G1 X80.609 Y144.836 E136.53272
G1 X81.336 Y144.836 E136.59306
G1 X39.862 Y103.362 E141.45863
G1 X39.862 Y102.635 E141.51896
G1 X82.063 Y144.836 E146.46986
G1 X82.791 Y144.836 E146.53019
G1 X39.877 Y101.922 E151.56473
G1 X39.920 Y101.238 E151.62158
G1 X83.518 Y144.836 E156.73636
G1 X84.245 Y144.836 E156.79670
G1 X39.963 Y100.554 E161.99172
G1 X40.075 Y99.939 E162.04362
G1 X84.972 Y144.836 E167.31087
G1 X85.700 Y144.836 E167.37120
G1 X40.193 Y99.330 E172.70988
G1 X40.270 Y98.936 E172.74315
G1 X40.335 Y98.744 E172.75999
G1 X86.427 Y144.836 E178.16744
G1 X87.154 Y144.836 E178.22777
G1 X40.517 Y98.199 E183.69913
G1 X40.699 Y97.654 E183.74680
G1 X87.882 Y144.836 E189.28207
G1 X88.609 Y144.836 E189.34240
G1 X40.920 Y97.148 E194.93708
G1 X41.161 Y96.661 E194.98210
G1 X89.336 Y144.836 E200.63382
G1 X90.063 Y144.836 E200.69416
G1 X41.403 Y96.175 E206.40292
G1 X41.694 Y95.739 E206.44641
G1 X90.791 Y144.836 E212.20629
G1 X91.518 Y144.836 E212.26662
G1 X41.991 Y95.309 E218.07695
G1 X42.297 Y94.888 E218.12014
G1 X92.245 Y144.836 E223.97987
G1 X92.972 Y144.836 E224.04020
G1 X42.651 Y94.515 E229.94375
G1 X43.005 Y94.141 E229.98642
G1 X93.700 Y144.836 E235.93378
G1 X94.427 Y144.836 E235.99411
G1 X43.389 Y93.799 E241.98170
G1 X43.803 Y93.485 E242.02476
G1 X95.154 Y144.836 E248.04913
G1 X95.882 Y144.836 E248.10946
G1 X44.218 Y93.173 E254.17046
G1 X44.699 Y92.926 E254.21528
G1 X96.609 Y144.836 E260.30518
G1 X97.336 Y144.836 E260.36551
G1 X45.180 Y92.680 E266.48430
G1 X45.300 Y92.619 E266.49550
G1 X45.721 Y92.494 E266.53191
G1 X98.063 Y144.836 E272.67255
G1 X98.791 Y144.836 E272.73288
G1 X46.282 Y92.328 E278.89302
G1 X46.431 Y92.284 E278.90586
G1 X46.918 Y92.236 E278.94649
G1 X99.518 Y144.836 E285.11736
G1 X100.245 Y144.836 E285.17769
G1 X47.581 Y92.172 E291.35613
G1 X48.300 Y92.164 E291.41583
G1 X100.972 Y144.836 E297.59518
G1 X101.700 Y144.836 E297.65551
G1 X49.028 Y92.164 E303.83485
G1 X49.755 Y92.164 E303.89518
G1 X102.427 Y144.836 E310.07452
G1 X103.154 Y144.836 E310.13485
G1 X50.482 Y92.164 E316.31419
G1 X51.210 Y92.164 E316.37452
G1 X103.881 Y144.836 E322.55386
G1 X104.609 Y144.836 E322.61419
G1 X51.937 Y92.164 E328.79353
G1 X52.664 Y92.164 E328.85386
G1 X105.336 Y144.836 E335.03319
G1 X106.063 Y144.836 E335.09352
G1 X53.391 Y92.164 E341.27286
G1 X54.119 Y92.164 E341.33319
G1 X106.791 Y144.836 E347.51252
G1 X107.518 Y144.836 E347.57285
G1 X54.846 Y92.164 E353.75218
G1 X55.573 Y92.164 E353.81251
G1 X108.245 Y144.836 E359.99184
G1 X108.972 Y144.836 E360.05217
G1 X56.301 Y92.164 E366.23149
G1 X57.028 Y92.164 E366.29182
G1 X109.700 Y144.836 E372.47115
G1 X110.427 Y144.836 E372.53148
G1 X57.755 Y92.164 E378.71080
G1 X58.482 Y92.164 E378.77113
G1 X111.154 Y144.836 E384.95045
G1 X111.881 Y144.836 E385.01078
G1 X59.210 Y92.164 E391.19010
G1 X59.937 Y92.164 E391.25043
G1 X112.609 Y144.836 E397.42975
G1 X113.336 Y144.836 E397.49008
G1 X60.664 Y92.164 E403.66939
G1 X61.392 Y92.164 E403.72973
G1 X114.063 Y144.836 E409.90904
G1 X114.791 Y144.836 E409.96937
G1 X62.119 Y92.164 E416.14868
G1 X62.846 Y92.164 E416.20901
G1 X115.518 Y144.836 E422.38832
G1 X116.245 Y144.836 E422.44865
G1 X63.573 Y92.164 E428.62796
G1 X64.301 Y92.164 E428.68829
G1 X116.972 Y144.836 E434.86760
G1 X117.700 Y144.836 E434.92793
G1 X65.028 Y92.164 E441.10723
G1 X65.755 Y92.164 E441.16757
G1 X118.427 Y144.836 E447.34687
G1 X119.154 Y144.836 E447.40720
G1 X66.483 Y92.164 E453.58650
G1 X67.210 Y92.164 E453.64683
G1 X119.881 Y144.836 E459.82613
G1 X120.609 Y144.836 E459.88646
G1 X67.937 Y92.164 E466.06576
G1 X68.664 Y92.164 E466.12609
G1 X121.336 Y144.836 E472.30538
G1 X122.063 Y144.836 E472.36572
G1 X69.392 Y92.164 E478.54501
G1 X70.119 Y92.164 E478.60534
G1 X122.791 Y144.836 E484.78463
G1 X123.518 Y144.836 E484.84496
G1 X70.846 Y92.164 E491.02425
G1 X71.574 Y92.164 E491.08459
G1 X124.245 Y144.836 E497.26387
G1 X124.972 Y144.836 E497.32420
G1 X72.301 Y92.165 E503.50349
G1 X73.028 Y92.165 E503.56382
G1 X125.700 Y144.836 E509.74311
G1 X126.427 Y144.836 E509.80344
G1 X73.755 Y92.165 E515.98272
G1 X74.483 Y92.165 E516.04305
G1 X127.154 Y144.836 E522.22233
G1 X127.881 Y144.836 E522.28267
G1 X75.210 Y92.165 E528.46195
G1 X75.937 Y92.165 E528.52228
G1 X128.609 Y144.836 E534.70156
G1 X129.336 Y144.836 E534.76189
G1 X76.665 Y92.165 E540.94116
G1 X77.392 Y92.165 E541.00149
G1 X130.063 Y144.836 E547.18077
G1 X130.791 Y144.836 E547.24110
G1 X78.119 Y92.165 E553.42037
G1 X78.846 Y92.165 E553.48070
G1 X131.518 Y144.836 E559.65997
G1 X132.245 Y144.836 E559.72031
G1 X79.574 Y92.165 E565.89957
G1 X80.301 Y92.165 E565.95991
G1 X132.972 Y144.836 E572.13917
G1 X133.700 Y144.836 E572.19951
G1 X81.028 Y92.165 E578.37877
G1 X81.756 Y92.165 E578.43910
G1 X134.427 Y144.836 E584.61837
G1 X135.154 Y144.836 E584.67870
G1 X82.483 Y92.165 E590.85796
G1 X83.210 Y92.165 E590.91829
G1 X135.881 Y144.836 E597.09755
G1 X136.609 Y144.836 E597.15788
G1 X83.937 Y92.165 E603.33714
G1 X84.665 Y92.165 E603.39747
G1 X137.336 Y144.836 E609.57673
G1 X138.063 Y144.836 E609.63706
G1 X85.392 Y92.165 E615.81632
G1 X86.119 Y92.165 E615.87665
G1 X138.791 Y144.836 E622.05590
G1 X139.518 Y144.836 E622.11623
G1 X86.847 Y92.165 E628.29548
G1 X87.574 Y92.165 E628.35582
G1 X140.245 Y144.836 E634.53507
G1 X140.972 Y144.836 E634.59540
G1 X88.301 Y92.165 E640.77464
G1 X89.028 Y92.165 E640.83498
G1 X141.700 Y144.836 E647.01422
G1 X142.427 Y144.836 E647.07455
G1 X89.756 Y92.165 E653.25380
G1 X90.483 Y92.165 E653.31413
G1 X143.154 Y144.836 E659.49337
G1 X143.881 Y144.836 E659.55370
G1 X91.210 Y92.165 E665.73294
G1 X91.938 Y92.165 E665.79328
G1 X144.609 Y144.836 E671.97252
G1 X145.336 Y144.836 E672.03285
G1 X92.665 Y92.165 E678.21208
G1 X93.392 Y92.165 E678.27242
G1 X146.063 Y144.836 E684.45165
G1 X146.791 Y144.836 E684.51198
G1 X94.119 Y92.165 E690.69122
G1 X94.847 Y92.165 E690.75155
G1 X147.518 Y144.836 E696.93078
G1 X148.245 Y144.836 E696.99111
G1 X95.574 Y92.165 E703.17034
G1 X96.301 Y92.165 E703.23068
G1 X148.972 Y144.836 E709.40990
G1 X149.700 Y144.836 E709.47024
G1 X97.029 Y92.165 E715.64946
G1 X97.756 Y92.165 E715.70980
G1 X150.427 Y144.836 E721.88902
G1 X151.154 Y144.836 E721.94935
G1 X98.483 Y92.165 E728.12857
G1 X99.211 Y92.165 E728.18891
