; generated by PrusaSlicer 2.0.0+win64 on 2019-07-09 at 23:22:48

; 

; external perimeters extrusion width = 0.60mm
; perimeters extrusion width = 0.60mm
; infill extrusion width = 0.60mm
; solid infill extrusion width = 0.60mm
; top infill extrusion width = 0.60mm
; support material extrusion width = 0.60mm
; first layer extrusion width = 0.60mm

M107
M83  ; extruder relative mode
M140 S95 ; set bed temp
M109 S160 ; Set extruder temp before bed level
M190 S95 ; wait for bed temp

G28  ; home all without mesh bed level

M109 S240 ; wait for extruder temp

G1 Y4.0 F1000.0 ; go outside print area
G92 E0.0
G1 E8 ; Purge Bubble
G1 X60.0 E9.0  F1000.0 ; intro line
G1 X100.0 E12.5  F1000.0 ; intro line
G92 E0.0
G21 ; set units to millimeters
G90 ; use absolute coordinates
M82 ; use absolute distances for extrusion
G92 E0

G10 ; retract
G92 E0
G1 Z0.200 F10800.000
G1 Z0.400
;AFTER_LAYER_CHANGE
;0.4
G1 Z0.600
G1 X73.093 Y49.634
G1 Z0.400
G11 ; unretract
G92 E0
M204 S1000
G1 F1800
G1 X74.170 Y48.197 E0.15350
G1 X75.845 Y46.602 E0.35130
G1 X77.392 Y45.541 E0.51168
G1 X79.225 Y44.633 E0.68663
G1 X81.185 Y43.976 E0.86338
G1 X83.258 Y43.574 E1.04392
G1 X85.336 Y43.443 E1.22197
G1 X137.757 Y43.443 E5.70417
G1 X140.758 Y43.962 E5.96462
G1 X142.736 Y44.617 E6.14273
G1 X144.621 Y45.548 E6.32257
G1 X146.363 Y46.767 E6.50431
G1 X147.833 Y48.201 E6.67992
G1 X148.898 Y49.620 E6.83157
G1 X149.694 Y51.154 E6.97941
G1 X150.313 Y53.135 E7.15687
G1 X150.499 Y54.890 E7.30773
G1 X150.507 Y181.932 E18.17049
G1 X150.322 Y183.821 E18.33275
G1 X149.784 Y185.644 E18.49527
G1 X148.901 Y187.376 E18.66152
G1 X147.729 Y188.926 E18.82770
G1 X146.285 Y190.299 E18.99809
G1 X144.728 Y191.384 E19.16037
G1 X142.799 Y192.357 E19.34510
G1 X140.929 Y192.990 E19.51393
G1 X137.966 Y193.547 E19.77168
G1 X85.297 Y193.557 E24.27510
G1 X83.245 Y193.424 E24.45098
G1 X81.329 Y193.057 E24.61778
G1 X79.254 Y192.379 E24.80442
G1 X77.385 Y191.455 E24.98268
G1 X75.734 Y190.314 E25.15430
G1 X74.292 Y188.950 E25.32398
G1 X73.207 Y187.533 E25.47658
G1 X72.162 Y185.492 E25.67267
G1 X71.677 Y183.818 E25.82173
G1 X71.496 Y182.032 E25.97515
G1 X71.493 Y55.068 E36.83127
G1 X71.678 Y53.179 E36.99352
G1 X72.216 Y51.356 E37.15604
G1 X73.059 Y49.701 E37.31493
G10 ; retract
G92 E0
G1 Z0.600 F10800.000
G1 X77.016 Y52.079
G1 Z0.400
G11 ; unretract
G92 E0
G1 F1800
G1 X77.725 Y51.144 E0.10040
G1 X78.634 Y50.282 E0.20745
G1 X79.728 Y49.527 E0.32111
G1 X80.981 Y48.905 E0.44071
G1 X82.362 Y48.443 E0.56524
G1 X83.829 Y48.157 E0.69303
G1 X85.417 Y48.057 E0.82906
G1 X136.583 Y48.057 E5.20401
G1 X138.171 Y48.157 E5.34012
G1 X139.638 Y48.443 E5.46790
G1 X141.019 Y48.905 E5.59243
G1 X142.272 Y49.527 E5.71203
G1 X143.366 Y50.282 E5.82569
G1 X144.275 Y51.144 E5.93274
G1 X144.984 Y52.079 E6.03314
G1 X145.486 Y53.059 E6.12728
G1 X145.783 Y54.064 E6.21688
G1 X145.893 Y55.194 E6.31391
G1 X145.893 Y181.806 E17.13996
G1 X145.783 Y182.936 E17.23698
G1 X145.486 Y183.941 E17.32658
G1 X144.984 Y184.921 E17.42073
G1 X144.275 Y185.856 E17.52113
G1 X143.366 Y186.718 E17.62818
G1 X142.272 Y187.473 E17.74184
G1 X141.019 Y188.095 E17.86144
G1 X139.638 Y188.557 E17.98597
G1 X138.171 Y188.843 E18.11375
G1 X136.583 Y188.943 E18.24982
G1 X85.417 Y188.943 E22.62481
G1 X83.829 Y188.843 E22.76084
G1 X82.362 Y188.557 E22.88863
G1 X80.981 Y188.095 E23.01316
G1 X79.728 Y187.473 E23.13276
G1 X78.634 Y186.718 E23.24642
G1 X77.725 Y185.856 E23.35347
G1 X77.016 Y184.921 E23.45387
G1 X76.514 Y183.941 E23.54801
G1 X76.217 Y182.936 E23.63761
G1 X76.107 Y181.806 E23.73464
G1 X76.107 Y55.194 E34.56069
G1 X76.217 Y54.064 E34.65771
G1 X76.514 Y53.059 E34.74731
G1 X76.982 Y52.146 E34.83504
G10 ; retract
G92 E0
G1 Z0.600 F10800.000
G1 X75.710 Y53.965
G1 Z0.400
G11 ; unretract
G92 E0
G1 F1800
G1 X76.035 Y52.868 E0.09789
G1 X76.579 Y51.805 E0.19998
G1 X77.341 Y50.799 E0.30785
G1 X78.309 Y49.882 E0.42190
G1 X79.466 Y49.082 E0.54212
G1 X80.784 Y48.429 E0.66793
G1 X82.231 Y47.944 E0.79835
G1 X83.763 Y47.646 E0.93186
G1 X85.400 Y47.542 E1.07213
G1 X136.599 Y47.542 E5.44986
G1 X138.237 Y47.646 E5.59019
G1 X139.769 Y47.944 E5.72370
G1 X141.216 Y48.429 E5.85413
G1 X142.534 Y49.082 E5.97993
G1 X143.691 Y49.882 E6.10016
G1 X144.659 Y50.799 E6.21421
G1 X145.421 Y51.805 E6.32207
G1 X145.965 Y52.868 E6.42416
G1 X146.290 Y53.965 E6.52206
G1 X146.408 Y55.169 E6.62543
G1 X146.408 Y181.831 E17.45575
G1 X146.290 Y183.035 E17.55912
G1 X145.965 Y184.132 E17.65702
G1 X145.421 Y185.195 E17.75910
G1 X144.659 Y186.201 E17.86697
G1 X143.691 Y187.118 E17.98102
G1 X142.534 Y187.918 E18.10125
G1 X141.216 Y188.571 E18.22705
G1 X139.769 Y189.056 E18.35748
G1 X138.237 Y189.354 E18.49098
G1 X136.599 Y189.458 E18.63128
G1 X85.400 Y189.458 E23.00905
G1 X83.763 Y189.354 E23.14931
G1 X82.231 Y189.056 E23.28282
G1 X80.784 Y188.571 E23.41325
G1 X79.466 Y187.918 E23.53905
G1 X78.309 Y187.118 E23.65928
G1 X77.341 Y186.201 E23.77333
G1 X76.579 Y185.195 E23.88119
G1 X76.035 Y184.132 E23.98328
G1 X75.710 Y183.035 E24.08118
G1 X75.592 Y181.831 E24.18455
G1 X75.592 Y55.169 E35.01487
G1 X75.702 Y54.040 E35.11183
G1 X75.191 Y53.990 F10800.000
G1 F1800
G1 X75.203 Y53.866 E35.12245
G1 X75.556 Y52.676 E35.22864
G1 X76.142 Y51.530 E35.33867
G1 X76.957 Y50.455 E35.45401
G1 X77.984 Y49.482 E35.57505
G1 X79.204 Y48.638 E35.70185
G1 X80.587 Y47.953 E35.83385
G1 X82.099 Y47.446 E35.97018
G1 X83.698 Y47.135 E36.10941
G1 X85.384 Y47.028 E36.25390
G1 X136.615 Y47.028 E40.63442
G1 X138.302 Y47.135 E40.77898
G1 X139.901 Y47.446 E40.91821
G1 X141.413 Y47.953 E41.05454
G1 X142.796 Y48.638 E41.18654
G1 X144.016 Y49.482 E41.31334
G1 X145.043 Y50.455 E41.43438
G1 X145.858 Y51.530 E41.54972
G1 X146.444 Y52.676 E41.65975
G1 X146.797 Y53.866 E41.76594
G1 X146.922 Y55.144 E41.87566
G1 X146.922 Y181.856 E52.71025
G1 X146.797 Y183.134 E52.81997
G1 X146.444 Y184.324 E52.92616
G1 X145.858 Y185.470 E53.03619
G1 X145.043 Y186.545 E53.15153
G1 X144.016 Y187.518 E53.27257
G1 X142.796 Y188.362 E53.39936
G1 X141.413 Y189.047 E53.53136
G1 X139.901 Y189.554 E53.66769
G1 X138.302 Y189.865 E53.80692
G1 X136.616 Y189.972 E53.95145
G1 X85.384 Y189.972 E58.33200
G1 X83.698 Y189.865 E58.47649
G1 X82.099 Y189.554 E58.61572
G1 X80.587 Y189.047 E58.75205
G1 X79.204 Y188.362 E58.88406
G1 X77.984 Y187.518 E59.01085
G1 X76.957 Y186.545 E59.13189
G1 X76.142 Y185.470 E59.24723
G1 X75.556 Y184.324 E59.35726
G1 X75.203 Y183.134 E59.46345
G1 X75.078 Y181.856 E59.57317
G1 X75.078 Y55.144 E70.40776
G1 X75.183 Y54.065 E70.50045
G1 X74.696 Y53.768 F10800.000
G1 F1800
G1 X75.076 Y52.484 E70.61493
G1 X75.705 Y51.256 E70.73290
G1 X76.573 Y50.111 E70.85571
G1 X77.659 Y49.081 E70.98375
G1 X78.942 Y48.194 E71.11711
G1 X80.391 Y47.476 E71.25531
G1 X81.968 Y46.948 E71.39755
G1 X83.632 Y46.624 E71.54250
G1 X85.368 Y46.514 E71.69122
G1 X136.939 Y46.514 E76.10080
G1 X136.939 Y46.534 E76.10247
G1 X138.368 Y46.624 E76.22492
G1 X140.032 Y46.948 E76.36987
G1 X141.609 Y47.476 E76.51210
G1 X143.058 Y48.194 E76.65031
G1 X144.340 Y49.081 E76.78367
G1 X145.427 Y50.111 E76.91170
G1 X146.295 Y51.256 E77.03451
G1 X146.924 Y52.484 E77.15249
G1 X147.304 Y53.768 E77.26697
G1 X147.436 Y55.119 E77.38304
G1 X147.436 Y181.881 E88.22190
G1 X147.304 Y183.232 E88.33797
G1 X146.924 Y184.516 E88.45245
G1 X146.295 Y185.744 E88.57042
G1 X145.427 Y186.889 E88.69323
G1 X144.341 Y187.919 E88.82127
G1 X143.058 Y188.806 E88.95463
G1 X141.609 Y189.524 E89.09283
G1 X140.032 Y190.052 E89.23507
G1 X138.368 Y190.376 E89.38001
G1 X136.939 Y190.466 E89.50247
G1 X136.939 Y190.486 E89.50413
G1 X85.368 Y190.486 E93.91372
G1 X83.632 Y190.376 E94.06244
G1 X81.968 Y190.052 E94.20739
G1 X80.391 Y189.524 E94.34962
G1 X78.942 Y188.806 E94.48783
G1 X77.659 Y187.919 E94.62118
G1 X76.573 Y186.889 E94.74922
G1 X75.705 Y185.744 E94.87203
G1 X75.076 Y184.516 E94.99000
G1 X74.696 Y183.232 E95.10449
G1 X74.564 Y181.881 E95.22055
G1 X74.564 Y55.119 E106.05942
G1 X74.688 Y53.842 E106.16907
G1 X74.177 Y53.792 F10800.000
G1 F1800
G1 X74.189 Y53.669 E106.17969
G1 X74.597 Y52.292 E106.30247
G1 X75.268 Y50.981 E106.42839
G1 X76.188 Y49.767 E106.55867
G1 X77.335 Y48.681 E106.69370
G1 X78.681 Y47.750 E106.83362
G1 X80.194 Y47.000 E106.97803
G1 X81.837 Y46.450 E107.12617
G1 X83.566 Y46.113 E107.27684
G1 X85.351 Y46.000 E107.42979
G1 X137.453 Y46.000 E111.88473
G1 X137.453 Y46.051 E111.88909
G1 X138.434 Y46.113 E111.97311
G1 X140.163 Y46.450 E112.12378
G1 X141.806 Y47.000 E112.27192
G1 X143.319 Y47.750 E112.41633
G1 X144.665 Y48.681 E112.55625
G1 X145.812 Y49.767 E112.69128
G1 X146.732 Y50.981 E112.82156
G1 X147.403 Y52.292 E112.94748
G1 X147.811 Y53.669 E113.07026
G1 X147.950 Y55.094 E113.19267
G1 X147.950 Y181.906 E124.03581
G1 X147.811 Y183.331 E124.15822
G1 X147.403 Y184.708 E124.28100
G1 X146.732 Y186.019 E124.40691
G1 X145.812 Y187.233 E124.53719
G1 X144.665 Y188.319 E124.67222
G1 X143.319 Y189.250 E124.81215
G1 X141.806 Y190.000 E124.95655
G1 X140.163 Y190.550 E125.10469
G1 X138.434 Y190.887 E125.25536
G1 X137.453 Y190.949 E125.33938
G1 X137.453 Y191.000 E125.34375
G1 X85.351 Y191.000 E129.79869
G1 X83.566 Y190.887 E129.95164
G1 X81.837 Y190.550 E130.10231
G1 X80.194 Y190.000 E130.25044
G1 X78.681 Y189.250 E130.39485
G1 X77.335 Y188.319 E130.53477
G1 X76.188 Y187.233 E130.66980
G1 X75.268 Y186.019 E130.80008
G1 X74.597 Y184.708 E130.92600
G1 X74.189 Y183.331 E131.04878
G1 X74.050 Y181.906 E131.17119
G1 X74.050 Y55.094 E142.01433
G1 X74.169 Y53.867 E142.11971
G1 X74.288 Y53.737 F10800.000
G10 ; retract
G92 E0
G1 Z0.600
G1 X142.391 Y49.734
G1 Z0.400
G11 ; unretract
G92 E0
G1 F1800
G1 X145.006 Y52.349 E0.31674
G10 ; retract
G92 E0
G1 Z0.600 F10800.000
G1 X145.543 Y53.614
G1 Z0.400
G11 ; unretract
G92 E0
G1 F1800
G1 X141.392 Y49.463 E0.50274
G1 X140.891 Y49.215 E0.55065
G1 X140.176 Y48.975 E0.61527
G1 X145.467 Y54.267 E1.25625
G1 X145.546 Y55.074 E1.32570
G1 X139.163 Y48.691 E2.09891
G1 X138.259 Y48.515 E2.17783
G1 X145.559 Y55.815 E3.06220
G1 X145.559 Y56.544 E3.12459
G1 X137.463 Y48.447 E4.10537
G1 X136.685 Y48.398 E4.17212
G1 X145.559 Y57.272 E5.24711
G1 X145.559 Y58.001 E5.30950
G1 X135.949 Y48.391 E6.47360
G1 X135.221 Y48.391 E6.53599
G1 X145.559 Y58.729 E7.78832
G1 X145.559 Y59.457 E7.85072
G1 X134.493 Y48.391 E9.19129
G1 X133.764 Y48.391 E9.25368
G1 X145.559 Y60.186 E10.68249
G1 X145.559 Y60.914 E10.74488
G1 X133.036 Y48.391 E12.26193
G1 X132.307 Y48.391 E12.32432
G1 X145.559 Y61.643 E13.92960
G1 X145.559 Y62.371 E13.99200
G1 X131.579 Y48.391 E15.68552
G1 X130.850 Y48.391 E15.74791
G1 X145.559 Y63.100 E17.52967
G1 X145.559 Y63.828 E17.59206
G1 X130.122 Y48.391 E19.46206
G1 X129.394 Y48.391 E19.52446
G1 X145.559 Y64.556 E21.48269
G1 X145.559 Y65.285 E21.54508
G1 X128.665 Y48.391 E23.59156
G1 X127.937 Y48.391 E23.65395
G1 X145.559 Y66.013 E25.78866
G1 X145.559 Y66.742 E25.85105
G1 X127.208 Y48.391 E28.07400
G1 X126.480 Y48.391 E28.13640
G1 X145.559 Y67.470 E30.44758
G1 X145.559 Y68.198 E30.50998
G1 X125.752 Y48.391 E32.90940
G1 X125.023 Y48.391 E32.97179
G1 X145.559 Y68.927 E35.45946
G1 X145.559 Y69.655 E35.52185
G1 X124.295 Y48.391 E38.09775
G1 X123.566 Y48.391 E38.16014
G1 X145.559 Y70.384 E40.82428
G1 X145.559 Y71.112 E40.88667
G1 X122.838 Y48.391 E43.63905
G1 X122.109 Y48.391 E43.70144
G1 X145.559 Y71.841 E46.54205
G1 X145.559 Y72.569 E46.60445
G1 X121.381 Y48.391 E49.53330
G1 X120.653 Y48.391 E49.59569
G1 X145.559 Y73.297 E52.61278
G1 X145.559 Y74.026 E52.67518
G1 X119.924 Y48.391 E55.78050
G1 X119.196 Y48.391 E55.84290
G1 X145.559 Y74.754 E59.03646
G1 X145.559 Y75.483 E59.09885
G1 X118.467 Y48.391 E62.38066
G1 X117.739 Y48.391 E62.44305
G1 X145.559 Y76.211 E65.81309
G1 X145.559 Y76.939 E65.87548
G1 X117.011 Y48.391 E69.33376
G1 X116.282 Y48.391 E69.39615
G1 X145.559 Y77.668 E72.94267
G1 X145.559 Y78.396 E73.00506
G1 X115.554 Y48.391 E76.63982
G1 X114.825 Y48.391 E76.70221
G1 X145.559 Y79.125 E80.42520
G1 X145.559 Y79.853 E80.48760
G1 X114.097 Y48.391 E84.29883
G1 X113.368 Y48.391 E84.36122
G1 X145.559 Y80.582 E88.26069
G1 X145.559 Y81.310 E88.32308
G1 X112.640 Y48.391 E92.31079
G1 X111.912 Y48.391 E92.37318
G1 X145.559 Y82.038 E96.44912
G1 X145.559 Y82.767 E96.51152
G1 X111.183 Y48.391 E100.67570
G1 X110.455 Y48.391 E100.73809
G1 X145.559 Y83.495 E104.99051
G1 X145.559 Y84.224 E105.05290
G1 X109.726 Y48.391 E109.39356
G1 X108.998 Y48.391 E109.45595
G1 X145.559 Y84.952 E113.88485
G1 X145.559 Y85.680 E113.94724
G1 X108.270 Y48.391 E118.46437
G1 X107.541 Y48.391 E118.52677
G1 X145.559 Y86.409 E123.13213
G1 X145.559 Y87.137 E123.19453
G1 X106.813 Y48.391 E127.88814
G1 X106.084 Y48.391 E127.95053
G1 X145.559 Y87.866 E132.73238
G1 X145.559 Y88.594 E132.79477
G1 X105.356 Y48.391 E137.66485
G1 X104.627 Y48.391 E137.72725
G1 X145.559 Y89.323 E142.68557
G1 X145.559 Y90.051 E142.74796
G1 X103.899 Y48.391 E147.79452
G1 X103.171 Y48.391 E147.85691
G1 X145.559 Y90.779 E152.99171
G1 X145.559 Y91.508 E153.05410
G1 X102.442 Y48.391 E158.27714
G1 X101.714 Y48.391 E158.33953
G1 X145.559 Y92.236 E163.65080
G1 X145.559 Y92.965 E163.71320
G1 X100.985 Y48.391 E169.11271
G1 X100.257 Y48.391 E169.17510
G1 X145.559 Y93.693 E174.66285
G1 X145.559 Y94.421 E174.72524
G1 X99.529 Y48.391 E180.30123
G1 X98.800 Y48.391 E180.36362
G1 X145.559 Y95.150 E186.02785
G1 X145.559 Y95.878 E186.09024
G1 X98.072 Y48.391 E191.84270
G1 X97.343 Y48.391 E191.90510
G1 X145.559 Y96.607 E197.74580
G1 X145.559 Y97.335 E197.80819
G1 X96.615 Y48.391 E203.73713
G1 X95.886 Y48.391 E203.79952
G1 X145.559 Y98.064 E209.81670
G1 X145.559 Y98.792 E209.87909
G1 X95.158 Y48.391 E215.98450
G1 X94.430 Y48.391 E216.04690
G1 X145.559 Y99.520 E222.24055
G1 X145.559 Y100.249 E222.30294
G1 X93.701 Y48.391 E228.58483
G1 X92.973 Y48.391 E228.64722
G1 X145.559 Y100.977 E235.01735
G1 X145.559 Y101.706 E235.07974
G1 X92.244 Y48.391 E241.53811
G1 X91.516 Y48.391 E241.60050
G1 X145.559 Y102.434 E248.14710
G1 X145.559 Y103.162 E248.20950
G1 X90.788 Y48.391 E254.84434
G1 X90.059 Y48.391 E254.90673
G1 X145.559 Y103.891 E261.62981
G1 X145.559 Y104.619 E261.69220
G1 X89.331 Y48.391 E268.50352
G1 X88.602 Y48.391 E268.56591
G1 X145.559 Y105.348 E275.46547
G1 X145.559 Y106.076 E275.52786
G1 X87.874 Y48.391 E282.51565
G1 X87.145 Y48.391 E282.57804
G1 X145.559 Y106.805 E289.65407
G1 X145.559 Y107.533 E289.71647
G1 X86.417 Y48.391 E296.88073
G1 X85.689 Y48.391 E296.94313
G1 X145.559 Y108.261 E304.19563
G1 X145.559 Y108.990 E304.25803
G1 X84.988 Y48.419 E311.59540
G1 X84.303 Y48.462 E311.65419
G1 X145.559 Y109.718 E319.07453
G1 X145.559 Y110.447 E319.13693
G1 X83.646 Y48.533 E326.63688
G1 X83.036 Y48.652 E326.69009
G1 X145.559 Y111.175 E334.26391
G1 X145.559 Y111.903 E334.32630
G1 X82.429 Y48.773 E341.97372
G1 X81.883 Y48.956 E342.02301
G1 X145.559 Y112.632 E349.73653
G1 X145.559 Y113.360 E349.79893
G1 X81.337 Y49.138 E357.57854
G1 X81.109 Y49.215 E357.59918
G1 X80.826 Y49.355 E357.62625
G1 X145.559 Y114.089 E365.46783
G1 X145.559 Y114.817 E365.53022
G1 X80.339 Y49.597 E373.43080
G1 X79.857 Y49.843 E373.47715
G1 X145.559 Y115.546 E381.43607
G1 X145.559 Y116.274 E381.49847
G1 X79.426 Y50.141 E389.50956
G1 X78.996 Y50.439 E389.55441
G1 X145.559 Y117.002 E397.61767
G1 X145.559 Y117.731 E397.68007
G1 X78.602 Y50.773 E405.79103
G1 X78.228 Y51.128 E405.83517
G1 X145.559 Y118.459 E413.99144
G1 X145.559 Y119.188 E414.05384
G1 X77.873 Y51.502 E422.25306
G1 X77.559 Y51.916 E422.29760
G1 X145.559 Y119.916 E430.53486
G1 X145.559 Y120.645 E430.59726
G1 X77.257 Y52.342 E438.87113
G1 X77.010 Y52.824 E438.91749
G1 X145.559 Y121.373 E447.22125
G1 X145.559 Y122.101 E447.28364
G1 X76.784 Y53.326 E455.61483
G1 X76.617 Y53.888 E455.66503
G1 X145.559 Y122.830 E464.01639
G1 X145.559 Y123.558 E464.07878
G1 X76.509 Y54.508 E472.44325
G1 X76.445 Y55.172 E472.50037
G1 X145.559 Y124.287 E480.87267
G1 X145.559 Y125.015 E480.93506
G1 X76.441 Y55.897 E489.30781
G1 X76.441 Y56.625 E489.37020
G1 X145.559 Y125.743 E497.74295
G1 X145.559 Y126.472 E497.80534
G1 X76.441 Y57.353 E506.17809
G1 X76.441 Y58.082 E506.24048
G1 X145.559 Y127.200 E514.61323
G1 X145.559 Y127.929 E514.67562
G1 X76.441 Y58.810 E523.04837
G1 X76.441 Y59.539 E523.11076
G1 X145.559 Y128.657 E531.48351
