; generated by PrusaSlicer 2.0.0+win64 on 2019-07-11 at 18:01:48

; 

; external perimeters extrusion width = 0.60mm
; perimeters extrusion width = 0.60mm
; infill extrusion width = 0.60mm
; solid infill extrusion width = 0.60mm
; top infill extrusion width = 0.60mm
; support material extrusion width = 0.60mm
; first layer extrusion width = 0.60mm

M107
M83  ; extruder relative mode
M140 S95 ; set bed temp
M109 S160 ; Set extruder temp before bed level
M190 S95 ; wait for bed temp

G28  ; home all without mesh bed level

M109 S240 ; wait for extruder temp

G1 Y4.0 F1000.0 ; go outside print area
G92 E0.0
G1 E8 ; Purge Bubble
G1 X60.0 E9.0  F1000.0 ; intro line
G1 X100.0 E12.5  F1000.0 ; intro line
G92 E0.0
G21 ; set units to millimeters
G90 ; use absolute coordinates
M82 ; use absolute distances for extrusion
G92 E0

G10 ; retract
G92 E0
G1 Z0.200 F10800.000
G1 Z0.400
;AFTER_LAYER_CHANGE
;0.4
G1 Z0.600
G1 X84.070 Y95.719
G1 Z0.400
G11 ; unretract
G92 E0
M204 S1000
G1 F1800
G1 X89.569 Y90.754 E0.61447
G1 X90.116 Y90.423 E0.66755
G1 X90.739 Y90.258 E0.72093
G1 X131.004 Y90.243 E4.06052
G1 X131.501 Y90.299 E4.10199
G1 X131.970 Y90.462 E4.14316
G1 X132.395 Y90.725 E4.18463
G1 X132.749 Y91.073 E4.22580
G1 X136.097 Y95.890 E4.71235
G1 X136.330 Y96.382 E4.75749
G1 X136.439 Y96.911 E4.80233
G1 X136.446 Y149.009 E9.12328
G1 X136.323 Y149.726 E9.18366
G1 X135.978 Y150.367 E9.24404
G1 X135.625 Y150.732 E9.28612
G1 X135.196 Y151.010 E9.32851
G1 X134.716 Y151.185 E9.37091
G1 X134.209 Y151.247 E9.41330
G1 X85.836 Y151.247 E13.42531
G1 X85.122 Y151.124 E13.48539
G1 X84.484 Y150.781 E13.54547
G1 X84.117 Y150.426 E13.58786
G1 X83.838 Y149.997 E13.63025
G1 X83.664 Y149.517 E13.67264
G1 X83.601 Y149.006 E13.71534
G1 X83.601 Y97.078 E18.02224
G1 X83.725 Y96.360 E18.08262
G1 X84.034 Y95.785 E18.13678
G10 ; retract
G92 E0
G1 Z0.600 F10800.000
G1 X109.390 Y104.843
G1 Z0.400
G11 ; unretract
G92 E0
G1 F1800
G1 X109.390 Y107.714 E0.23810
G1 X110.126 Y107.714 E0.29912
G1 X110.126 Y105.204 E0.50728
G1 X110.862 Y105.204 E0.56829
G1 X110.862 Y107.714 E0.77646
G1 X111.597 Y107.714 E0.83747
G1 X111.597 Y105.204 E1.04564
G1 X112.333 Y105.204 E1.10665
G1 X112.333 Y107.714 E1.31482
G1 X113.069 Y107.714 E1.37583
G1 X113.069 Y104.691 E1.62652
G1 X113.153 Y104.018 E1.68280
G1 X113.216 Y103.976 E1.68907
G1 X113.450 Y103.410 E1.73989
G1 X113.804 Y102.949 E1.78811
G1 X113.804 Y107.955 E2.20332
G1 X112.595 Y104.786 F10800.000
G1 F1800
G1 X112.595 Y102.925 E2.35764
G1 X111.566 Y102.925 E2.44293
G1 X111.566 Y104.679 E2.58838
G1 X110.538 Y104.679 E2.67367
G1 X110.538 Y102.925 E2.81911
G1 X109.510 Y102.925 E2.90440
G1 X109.510 Y104.878 E3.06637
G1 X85.858 Y148.990 F10800.000
G1 F1800
G1 X85.858 Y97.096 E7.37044
G1 X86.887 Y97.096 E7.45573
G1 X86.887 Y148.759 E11.74060
G1 X87.915 Y148.759 E11.82589
G1 X87.915 Y97.096 E16.11077
G1 X88.943 Y97.096 E16.19606
G1 X88.943 Y148.759 E20.48094
G1 X89.972 Y148.759 E20.56623
G1 X89.972 Y97.096 E24.85110
G1 X90.383 Y97.096 E24.88521
G1 X90.383 Y101.849 E25.27939
G1 X90.744 Y102.210 E25.32179
G1 X91.000 Y102.210 E25.34299
G1 X91.000 Y148.759 E29.20371
G1 X92.028 Y148.759 E29.28900
G1 X92.028 Y102.210 E33.14971
G1 X93.057 Y102.210 E33.23500
G1 X93.057 Y148.759 E37.09572
G1 X94.085 Y148.759 E37.18101
G1 X94.085 Y102.210 E41.04173
G1 X95.113 Y102.210 E41.12702
G1 X95.113 Y148.759 E44.98774
G1 X96.142 Y148.759 E45.07302
G1 X96.142 Y102.210 E48.93374
G1 X97.170 Y102.210 E49.01903
G1 X97.170 Y148.759 E52.87975
G1 X98.198 Y148.759 E52.96504
G1 X98.198 Y102.210 E56.82576
G1 X99.227 Y102.210 E56.91105
G1 X99.227 Y148.759 E60.77176
G1 X100.255 Y148.759 E60.85705
G1 X100.255 Y102.210 E64.71777
G1 X101.283 Y102.210 E64.80306
G1 X101.283 Y148.759 E68.66378
G1 X102.311 Y148.759 E68.74907
G1 X102.311 Y102.210 E72.60979
G1 X103.340 Y102.210 E72.69507
G1 X103.340 Y148.759 E76.55579
G1 X104.368 Y148.759 E76.64108
G1 X104.368 Y102.210 E80.50180
G1 X105.396 Y102.210 E80.58709
G1 X105.396 Y148.759 E84.44781
G1 X106.425 Y148.759 E84.53310
G1 X106.425 Y102.210 E88.39382
G1 X107.115 Y102.297 E88.45154
G1 X107.453 Y102.436 E88.48186
G1 X107.453 Y148.759 E92.32381
G1 X108.481 Y148.759 E92.40910
G1 X108.481 Y108.239 E95.76983
G1 X109.510 Y108.239 E95.85512
G1 X109.510 Y148.759 E99.21584
G1 X110.538 Y148.759 E99.30113
G1 X110.538 Y108.239 E102.66186
G1 X111.566 Y108.239 E102.74715
G1 X111.566 Y148.759 E106.10788
G1 X112.595 Y148.759 E106.19316
G1 X112.595 Y108.239 E109.55389
G1 X113.623 Y108.239 E109.63918
G1 X113.623 Y148.759 E112.99991
G1 X114.651 Y148.759 E113.08520
G1 X114.651 Y102.393 E116.93074
G1 X114.885 Y102.297 E116.95168
G1 X115.540 Y102.210 E117.00655
G1 X115.680 Y102.210 E117.01809
G1 X115.680 Y148.759 E120.87881
G1 X116.708 Y148.759 E120.96410
G1 X116.708 Y102.210 E124.82482
G1 X117.736 Y102.210 E124.91011
G1 X117.736 Y148.759 E128.77082
G1 X118.765 Y148.759 E128.85611
G1 X118.765 Y102.210 E132.71683
G1 X119.793 Y102.210 E132.80212
G1 X119.793 Y148.759 E136.66284
G1 X120.821 Y148.759 E136.74813
G1 X120.821 Y102.210 E140.60885
G1 X121.850 Y102.210 E140.69413
G1 X121.850 Y148.759 E144.55485
G1 X122.878 Y148.759 E144.64014
G1 X122.878 Y102.210 E148.50086
G1 X123.906 Y102.210 E148.58615
G1 X123.906 Y148.759 E152.44687
G1 X124.934 Y148.759 E152.53216
G1 X124.934 Y102.210 E156.39287
G1 X125.963 Y102.210 E156.47816
G1 X125.963 Y148.759 E160.33888
G1 X126.991 Y148.759 E160.42417
G1 X126.991 Y102.210 E164.28489
G1 X128.019 Y102.210 E164.37018
G1 X128.019 Y148.759 E168.23090
G1 X129.048 Y148.759 E168.31618
G1 X129.048 Y102.210 E172.17690
G1 X130.076 Y102.210 E172.26219
G1 X130.076 Y148.759 E176.12291
G1 X131.104 Y148.759 E176.20820
G1 X131.104 Y102.210 E180.06892
G1 X131.256 Y102.210 E180.08146
G1 X131.617 Y101.849 E180.12386
G1 X131.617 Y97.096 E180.51804
G1 X132.133 Y97.096 E180.56080
G1 X132.133 Y148.759 E184.84568
G1 X133.161 Y148.759 E184.93097
G1 X133.161 Y97.096 E189.21585
G1 X134.189 Y97.096 E189.30114
G1 X134.189 Y148.990 E193.60520
G10 ; retract
G92 E0
G1 Z0.600 F10800.000
G1 X129.672 Y100.265
G1 Z0.400
G11 ; unretract
G92 E0
G1 F1800
G1 X115.413 Y100.265 E1.18262
G1 X114.377 Y100.401 E1.26930
G1 X113.330 Y100.835 E1.36326
G1 X113.141 Y100.980 E1.38304
G1 X108.859 Y100.980 E1.73818
G1 X108.670 Y100.835 E1.75795
G1 X107.623 Y100.401 E1.85192
G1 X106.587 Y100.265 E1.93860
G1 X92.328 Y100.265 E3.12122
G1 X92.328 Y93.828 E3.65506
G1 X129.672 Y93.828 E6.75232
G1 X129.672 Y100.190 E7.27994
G1 X130.186 Y100.779 F10800.000
G1 F1800
G1 X115.447 Y100.779 E8.50241
G1 X114.511 Y100.902 E8.58068
G1 X113.589 Y101.284 E8.66341
G1 X113.315 Y101.494 E8.69205
G1 X108.685 Y101.494 E9.07614
G1 X108.411 Y101.284 E9.10478
G1 X107.489 Y100.902 E9.18751
G1 X106.553 Y100.779 E9.26579
G1 X91.814 Y100.779 E10.48825
G1 X91.814 Y93.314 E11.10739
G1 X130.186 Y93.314 E14.28993
G1 X130.186 Y100.704 E14.90284
G1 X130.700 Y101.293 F10800.000
G1 F1800
G1 X115.480 Y101.293 E16.16516
G1 X114.645 Y101.403 E16.23502
G1 X113.849 Y101.733 E16.30653
G1 X113.490 Y102.008 E16.34403
G1 X108.510 Y102.008 E16.75707
G1 X108.151 Y101.733 E16.79457
G1 X107.355 Y101.403 E16.86608
G1 X106.520 Y101.293 E16.93594
G1 X91.300 Y101.293 E18.19825
G1 X91.300 Y92.800 E18.90268
G1 X130.700 Y92.800 E22.17051
G1 X130.700 Y101.218 E22.86871
G1 X130.201 Y101.258 F10800.000
G10 ; retract
G92 E0
G1 Z0.600
G1 X129.569 Y94.985
G1 Z0.400
G11 ; unretract
G92 E0
G1 F1800
G1 X128.746 Y94.162 E0.09776
G1 X128.010 Y94.162 E0.15968
G1 X129.338 Y95.490 E0.31751
G1 X129.338 Y96.227 E0.37943
G1 X127.273 Y94.162 E0.62484
G1 X126.536 Y94.162 E0.68676
G1 X129.338 Y96.964 E1.01974
G1 X129.338 Y97.701 E1.08166
G1 X125.799 Y94.162 E1.50221
G1 X125.062 Y94.162 E1.56413
G1 X129.338 Y98.438 E2.07226
G1 X129.338 Y99.174 E2.13418
G1 X124.326 Y94.162 E2.72987
G1 X123.589 Y94.162 E2.79180
G1 X129.338 Y99.911 E3.47506
G1 X129.338 Y99.931 E3.47670
G1 X128.620 Y99.931 E3.53699
G1 X122.852 Y94.162 E4.22256
G1 X122.115 Y94.162 E4.28449
G1 X127.883 Y99.931 E4.97006
G1 X127.147 Y99.931 E5.03199
G1 X121.378 Y94.162 E5.71756
G1 X120.642 Y94.162 E5.77949
G1 X126.410 Y99.931 E6.46506
G1 X125.673 Y99.931 E6.52698
G1 X119.905 Y94.162 E7.21256
G1 X119.168 Y94.162 E7.27448
G1 X124.936 Y99.931 E7.96006
G1 X124.199 Y99.931 E8.02198
G1 X118.431 Y94.162 E8.70756
G1 X117.694 Y94.162 E8.76948
G1 X123.462 Y99.931 E9.45506
G1 X122.726 Y99.931 E9.51698
G1 X116.958 Y94.162 E10.20256
G1 X116.221 Y94.162 E10.26448
G1 X121.989 Y99.931 E10.95005
G1 X121.252 Y99.931 E11.01198
G1 X115.484 Y94.162 E11.69755
G1 X114.747 Y94.162 E11.75948
G1 X120.515 Y99.931 E12.44505
G1 X119.778 Y99.931 E12.50698
G1 X114.010 Y94.162 E13.19255
G1 X113.273 Y94.162 E13.25447
G1 X119.042 Y99.931 E13.94005
G1 X118.305 Y99.931 E14.00197
G1 X112.537 Y94.162 E14.68755
G1 X111.800 Y94.162 E14.74947
G1 X117.568 Y99.931 E15.43505
G1 X116.831 Y99.931 E15.49697
G1 X111.063 Y94.162 E16.18255
G1 X110.326 Y94.162 E16.24447
G1 X116.094 Y99.931 E16.93005
G1 X115.362 Y99.935 E16.99164
G1 X109.589 Y94.162 E17.67768
G1 X108.853 Y94.162 E17.73960
G1 X114.710 Y100.020 E18.43583
G1 X114.290 Y100.076 E18.47151
G1 X114.105 Y100.152 E18.48826
G1 X108.116 Y94.162 E19.20014
G1 X107.379 Y94.162 E19.26207
G1 X113.584 Y100.368 E19.99960
G1 X113.162 Y100.543 E20.03806
G1 X113.083 Y100.603 E20.04638
G1 X106.642 Y94.162 E20.81189
G1 X105.905 Y94.162 E20.87382
G1 X112.389 Y100.646 E21.64439
G1 X111.652 Y100.646 E21.70631
G1 X105.169 Y94.162 E22.47688
G1 X104.432 Y94.162 E22.53880
G1 X110.915 Y100.646 E23.30937
G1 X110.178 Y100.646 E23.37130
G1 X103.695 Y94.162 E24.14187
G1 X102.958 Y94.162 E24.20379
G1 X109.442 Y100.646 E24.97436
G1 X108.972 Y100.646 E25.01378
G1 X108.838 Y100.543 E25.02798
G1 X108.435 Y100.376 E25.06472
G1 X102.221 Y94.162 E25.80318
G1 X101.485 Y94.162 E25.86511
G1 X107.350 Y100.028 E26.56228
G1 X106.516 Y99.931 E26.63289
G1 X100.748 Y94.162 E27.31846
G1 X100.011 Y94.162 E27.38039
G1 X105.779 Y99.931 E28.06596
G1 X105.042 Y99.931 E28.12789
G1 X99.274 Y94.162 E28.81346
G1 X98.537 Y94.162 E28.87539
G1 X104.306 Y99.931 E29.56096
G1 X103.569 Y99.931 E29.62288
G1 X97.801 Y94.162 E30.30846
G1 X97.064 Y94.162 E30.37038
G1 X102.832 Y99.931 E31.05596
G1 X102.095 Y99.931 E31.11788
G1 X96.327 Y94.162 E31.80346
G1 X95.590 Y94.162 E31.86538
G1 X101.358 Y99.931 E32.55096
G1 X100.622 Y99.931 E32.61288
G1 X94.853 Y94.162 E33.29846
G1 X94.117 Y94.162 E33.36038
G1 X99.885 Y99.931 E34.04596
G1 X99.148 Y99.931 E34.10788
G1 X93.380 Y94.162 E34.79345
G1 X92.662 Y94.162 E34.85374
G1 X92.662 Y94.182 E34.85538
G1 X98.411 Y99.931 E35.53863
G1 X97.674 Y99.931 E35.60056
G1 X92.662 Y94.919 E36.19624
G1 X92.662 Y95.656 E36.25817
G1 X96.938 Y99.931 E36.76628
G1 X96.201 Y99.931 E36.82820
G1 X92.662 Y96.392 E37.24874
G1 X92.662 Y97.129 E37.31066
G1 X95.464 Y99.931 E37.64363
G1 X94.727 Y99.931 E37.70555
G1 X92.662 Y97.866 E37.95094
G1 X92.662 Y98.603 E38.01287
G1 X93.990 Y99.931 E38.17069
G1 X93.254 Y99.931 E38.23261
G1 X92.431 Y99.108 E38.33036

G10 ; retract
G92 E0
G1 Z0.600 F10800.000
;AFTER_LAYER_CHANGE
;0.55
G1 X90.613 Y100.107
G1 Z0.550
G11 ; unretract
G92 E0
G1 F3000
G1 X88.464 Y100.107 E0.07381
G1 X88.464 Y102.642 E0.16090
G1 X107.812 Y102.642 E0.82547
G1 X108.174 Y102.920 E0.84110
G1 X108.214 Y102.972 E0.84337
G1 X108.214 Y105.178 E0.91915
G1 X88.464 Y105.178 E1.59749
G1 X88.464 Y107.714 E1.68459
G1 X96.071 Y107.714 E1.94587
G1 X96.071 Y110.249 E2.03296
G1 X88.464 Y110.249 E2.29424
G1 X88.464 Y112.785 E2.38134
G1 X96.071 Y112.785 E2.64262
G1 X96.071 Y115.321 E2.72971
G1 X88.464 Y115.321 E2.99099
G1 X88.464 Y117.856 E3.07808
G1 X96.071 Y117.856 E3.33937
G1 X96.071 Y120.392 E3.42646
G1 X88.464 Y120.392 E3.68774
G1 X88.464 Y122.927 E3.77483
G1 X96.071 Y122.927 E4.03611
G1 X96.071 Y125.463 E4.12321
G1 X88.464 Y125.463 E4.38449
G1 X88.464 Y127.999 E4.47158
G1 X96.071 Y127.999 E4.73286
G1 X96.071 Y130.534 E4.81996
G1 X88.464 Y130.534 E5.08124
G1 X88.464 Y133.070 E5.16833
G1 X96.071 Y133.070 E5.42961
G1 X96.071 Y135.606 E5.51670
G1 X88.464 Y135.606 E5.77798
G1 X88.464 Y138.141 E5.86508
G1 X96.071 Y138.141 E6.12636
G1 X96.071 Y140.677 E6.21345
G1 X101.142 Y140.677 E6.38764
G1 X101.142 Y138.141 E6.47473
G1 X121.427 Y138.141 E7.17147
G1 X121.427 Y135.606 E7.25857
G1 X101.142 Y135.606 E7.95531
G1 X101.142 Y133.070 E8.04241
G1 X121.427 Y133.070 E8.73915
G1 X121.427 Y130.534 E8.82625
G1 X101.142 Y130.534 E9.52299
G1 X101.142 Y127.999 E9.61009
G1 X121.427 Y127.999 E10.30683
G1 X121.427 Y125.463 E10.39393
G1 X101.142 Y125.463 E11.09067
G1 X101.142 Y122.927 E11.17777
G1 X121.427 Y122.927 E11.87451
G1 X121.427 Y120.392 E11.96161
G1 X101.142 Y120.392 E12.65835
G1 X101.142 Y117.856 E12.74545
G1 X121.427 Y117.856 E13.44219
G1 X121.427 Y115.321 E13.52929
G1 X101.142 Y115.321 E14.22603
G1 X101.142 Y112.785 E14.31313
G1 X121.427 Y112.785 E15.00987
G1 X121.427 Y110.249 E15.09697
G1 X101.142 Y110.249 E15.79371
G1 X101.142 Y107.714 E15.88081
G1 X108.214 Y107.714 E16.12369
G1 X108.214 Y108.249 E16.14208
G1 X114.356 Y108.249 E16.35307
G1 X114.356 Y107.714 E16.37146
G1 X121.427 Y107.714 E16.61435
G1 X121.427 Y105.178 E16.70144
G1 X126.499 Y105.178 E16.87562
G1 X126.499 Y107.714 E16.96272
G1 X131.570 Y107.714 E17.13690
G1 X131.570 Y105.178 E17.22400
G1 X114.356 Y105.178 E17.81525
G1 X114.356 Y102.642 E17.90235
G1 X131.811 Y102.642 E18.50188
G1 X131.811 Y110.249 F10800.000
G1 F3000
G1 X126.499 Y110.249 E18.68435
G1 X126.499 Y112.785 E18.77144
G1 X131.570 Y112.785 E18.94563
G1 X131.570 Y115.321 E19.03272
G1 X126.499 Y115.321 E19.20691
G1 X126.499 Y117.856 E19.29400
G1 X131.570 Y117.856 E19.46819
G1 X131.570 Y120.392 E19.55528
G1 X126.499 Y120.392 E19.72947
G1 X126.499 Y122.927 E19.81656
G1 X131.570 Y122.927 E19.99075
G1 X131.570 Y125.463 E20.07784
G1 X126.499 Y125.463 E20.25203
G1 X126.499 Y127.999 E20.33913
G1 X131.570 Y127.999 E20.51331
G1 X131.570 Y130.534 E20.60041
G1 X126.499 Y130.534 E20.77459
G1 X126.499 Y133.070 E20.86169
G1 X131.570 Y133.070 E21.03588
G1 X131.570 Y135.606 E21.12297
G1 X126.499 Y135.606 E21.29716
G1 X126.499 Y138.141 E21.38425
G1 X131.570 Y138.141 E21.55844
G1 X131.570 Y140.677 E21.64553
G1 X88.464 Y140.677 E23.12612
G1 X88.464 Y143.212 E23.21321
G1 X131.570 Y143.212 E24.69379
G1 X131.570 Y145.748 E24.78089
G1 X88.223 Y145.748 E26.26975
G10 ; retract
G92 E0
G1 Z0.750 F10800.000
G1 X113.804 Y107.955
G1 Z0.550
G11 ; unretract
G92 E0
G1 F3000
G1 X113.804 Y102.949 E0.17195
G1 X113.450 Y103.410 E0.19192
G1 X113.216 Y103.976 E0.21297
G1 X113.153 Y104.018 E0.21556
G1 X113.069 Y104.691 E0.23887
G1 X113.069 Y107.714 E0.34269
G1 X112.333 Y107.714 E0.36796
G1 X112.333 Y105.204 E0.45416
G1 X111.597 Y105.204 E0.47943
G1 X111.597 Y107.714 E0.56564
G1 X110.862 Y107.714 E0.59091
G1 X110.862 Y105.204 E0.67712
G1 X110.126 Y105.204 E0.70238
G1 X110.126 Y107.714 E0.78859
G1 X109.390 Y107.714 E0.81386
G1 X109.390 Y104.843 E0.91247

G10 ; retract
G92 E0
G1 Z0.750 F10800.000
;AFTER_LAYER_CHANGE
;0.66266
G1 X109.390 Y105.019
G1 Z0.663
G11 ; unretract
G92 E0
G1 F3000
G1 X109.390 Y107.714 E0.07049
G1 X110.126 Y107.714 E0.08974
G1 X110.126 Y105.260 E0.15393
G1 X110.862 Y105.260 E0.17317
G1 X110.862 Y107.714 E0.23736
G1 X111.597 Y107.714 E0.25661
G1 X111.597 Y105.260 E0.32079
G1 X112.333 Y105.260 E0.34004
G1 X112.333 Y107.714 E0.40423
G1 X113.069 Y107.714 E0.42347
G1 X113.069 Y104.952 E0.49573
G1 X113.128 Y104.892 E0.49792
G1 X113.128 Y104.634 E0.50468
G1 X113.214 Y103.981 E0.52193
G1 X113.450 Y103.410 E0.53809
G1 X113.804 Y102.949 E0.55330
G1 X113.804 Y107.955 E0.68427
G10 ; retract
G92 E0
G1 Z0.863 F10800.000
G1 X131.811 Y110.249
G1 Z0.663
G11 ; unretract
G92 E0
G1 F3000
G1 X126.499 Y110.249 E0.13898
G1 X126.499 Y112.785 E0.20532
G1 X131.570 Y112.785 E0.33799
G1 X131.570 Y115.321 E0.40432
G1 X126.499 Y115.321 E0.53700
G1 X126.499 Y117.856 E0.60333
G1 X131.570 Y117.856 E0.73601
G1 X131.570 Y120.392 E0.80234
G1 X126.499 Y120.392 E0.93502
G1 X126.499 Y122.927 E1.00135
G1 X131.570 Y122.927 E1.13403
G1 X131.570 Y125.463 E1.20036
G1 X126.499 Y125.463 E1.33304
G1 X126.499 Y127.999 E1.39937
G1 X131.570 Y127.999 E1.53204
G1 X131.570 Y130.534 E1.59838
G1 X126.499 Y130.534 E1.73105
G1 X126.499 Y133.070 E1.79739
