; generated by PrusaSlicer 2.0.0+win64 on 2019-07-10 at 19:30:36

; 

; external perimeters extrusion width = 0.60mm
; perimeters extrusion width = 0.60mm
; infill extrusion width = 0.60mm
; solid infill extrusion width = 0.60mm
; top infill extrusion width = 0.60mm
; support material extrusion width = 0.60mm
; first layer extrusion width = 0.60mm

M107
M83  ; extruder relative mode
M140 S95 ; set bed temp
M109 S160 ; Set extruder temp before bed level
M190 S95 ; wait for bed temp

G28  ; home all without mesh bed level

M109 S240 ; wait for extruder temp

G1 Y4.0 F1000.0 ; go outside print area
G92 E0.0
G1 E8 ; Purge Bubble
G1 X60.0 E9.0  F1000.0 ; intro line
G1 X100.0 E12.5  F1000.0 ; intro line
G92 E0.0
G21 ; set units to millimeters
G90 ; use absolute coordinates
M82 ; use absolute distances for extrusion
G92 E0

G10 ; retract
G92 E0
G1 Z0.200 F10800.000
G1 Z0.400
;AFTER_LAYER_CHANGE
;0.4
G1 Z0.600
G1 X90.214 Y110.101
G1 Z0.400
G11 ; unretract
G92 E0
M204 S1000
G1 F1800
G1 X90.992 Y109.960 E0.06554
G1 X131.000 Y109.960 E3.38382
G1 X131.840 Y110.123 E3.45480
G1 X132.557 Y110.584 E3.52549
G1 X133.054 Y111.281 E3.59648
G1 X133.255 Y112.113 E3.66746
G1 X133.246 Y125.005 E4.73674
G1 X133.099 Y125.613 E4.78860
G1 X132.788 Y126.160 E4.84077
G1 X132.339 Y126.600 E4.89293
G1 X131.786 Y126.899 E4.94509
G1 X131.008 Y127.040 E5.01063
G1 X90.929 Y127.039 E8.33476
G1 X90.274 Y126.920 E8.38997
G1 X89.683 Y126.615 E8.44518
G1 X89.205 Y126.151 E8.50038
G1 X88.884 Y125.568 E8.55559
G1 X88.743 Y124.806 E8.61992
G1 X88.751 Y112.025 E9.67998
G1 X88.894 Y111.405 E9.73275
G1 X89.205 Y110.849 E9.78553
G1 X89.658 Y110.403 E9.83830
G1 X90.148 Y110.137 E9.88455
G10 ; retract
G92 E0
G1 Z0.600 F10800.000
G1 X92.328 Y113.546
G1 Z0.400
G11 ; unretract
G92 E0
G1 F1800
G1 X129.672 Y113.546 E3.09725
G1 X129.672 Y123.454 E3.91907
G1 X92.328 Y123.454 E7.01633
G1 X92.328 Y113.621 E7.83192
G1 X91.814 Y113.032 F10800.000
G1 F1800
G1 X130.186 Y113.032 E11.01447
G1 X130.186 Y123.968 E11.92157
G1 X91.814 Y123.968 E15.10411
G1 X91.814 Y113.107 E16.00500
G1 X91.300 Y112.517 F10800.000
G1 F1800
G1 X130.700 Y112.517 E19.27283
G1 X130.700 Y124.483 E20.26522
G1 X91.300 Y124.483 E23.53305
G1 X91.300 Y112.592 E24.51923
G1 X91.798 Y112.566 F10800.000
G10 ; retract
G92 E0
G1 Z0.600
G1 X93.480 Y123.351
G1 Z0.400
G11 ; unretract
G92 E0
G1 F1800
G1 X92.662 Y122.534 E0.09672
G1 X92.662 Y121.801 E0.15809
G1 X93.982 Y123.120 E0.31422
G1 X94.716 Y123.120 E0.37559
G1 X92.662 Y121.067 E0.61851
G1 X92.662 Y120.334 E0.67988
G1 X95.449 Y123.120 E1.00958
G1 X96.183 Y123.120 E1.07095
G1 X92.662 Y119.600 E1.48744
G1 X92.662 Y118.867 E1.54881
G1 X96.916 Y123.120 E2.05209
G1 X97.650 Y123.120 E2.11346
G1 X92.662 Y118.133 E2.70353
G1 X92.662 Y117.400 E2.76490
G1 X98.383 Y123.120 E3.44175
G1 X99.117 Y123.120 E3.50312
G1 X92.662 Y116.666 E4.26676
G1 X92.662 Y115.933 E4.32813
G1 X99.850 Y123.120 E5.17856
G1 X100.583 Y123.120 E5.23993
G1 X92.662 Y115.199 E6.17715
G1 X92.662 Y114.466 E6.23852
G1 X101.317 Y123.120 E7.26252
G1 X102.050 Y123.120 E7.32389
G1 X92.810 Y113.880 E8.41720
G1 X93.544 Y113.880 E8.47857
G1 X102.784 Y123.120 E9.57188
G1 X103.517 Y123.120 E9.63325
G1 X94.277 Y113.880 E10.72656
G1 X95.011 Y113.880 E10.78792
G1 X104.251 Y123.120 E11.88124
G1 X104.984 Y123.120 E11.94260
G1 X95.744 Y113.880 E13.03591
G1 X96.478 Y113.880 E13.09728
G1 X105.718 Y123.120 E14.19059
G1 X106.451 Y123.120 E14.25196
G1 X97.211 Y113.880 E15.34527
G1 X97.945 Y113.880 E15.40664
G1 X107.185 Y123.120 E16.49995
G1 X107.918 Y123.120 E16.56132
G1 X98.678 Y113.880 E17.65463
G1 X99.412 Y113.880 E17.71600
G1 X108.652 Y123.120 E18.80931
G1 X109.385 Y123.120 E18.87067
G1 X100.145 Y113.880 E19.96398
G1 X100.879 Y113.880 E20.02535
G1 X110.119 Y123.120 E21.11866
G1 X110.852 Y123.120 E21.18003
G1 X101.612 Y113.880 E22.27334
G1 X102.346 Y113.880 E22.33471
G1 X111.586 Y123.120 E23.42802
G1 X112.319 Y123.120 E23.48939
G1 X103.079 Y113.880 E24.58270
G1 X103.813 Y113.880 E24.64407
G1 X113.053 Y123.120 E25.73738
G1 X113.786 Y123.120 E25.79874
G1 X104.546 Y113.880 E26.89205
G1 X105.280 Y113.880 E26.95342
G1 X114.520 Y123.120 E28.04673
G1 X115.253 Y123.120 E28.10810
G1 X106.013 Y113.880 E29.20141
G1 X106.747 Y113.880 E29.26278
G1 X115.987 Y123.120 E30.35609
G1 X116.720 Y123.120 E30.41746
G1 X107.480 Y113.880 E31.51077
G1 X108.214 Y113.880 E31.57213
G1 X117.454 Y123.120 E32.66544
G1 X118.187 Y123.120 E32.72681
G1 X108.947 Y113.880 E33.82012
G1 X109.681 Y113.880 E33.88149
G1 X118.921 Y123.120 E34.97480
G1 X119.654 Y123.120 E35.03617
G1 X110.414 Y113.880 E36.12948
G1 X111.148 Y113.880 E36.19084
G1 X120.388 Y123.120 E37.28415
G1 X121.121 Y123.120 E37.34552
G1 X111.881 Y113.880 E38.43883
G1 X112.615 Y113.880 E38.50020
G1 X121.855 Y123.120 E39.59351
G1 X122.588 Y123.120 E39.65488
G1 X113.348 Y113.880 E40.74819
G1 X114.082 Y113.880 E40.80956
G1 X123.322 Y123.120 E41.90287
G1 X124.055 Y123.120 E41.96423
G1 X114.815 Y113.880 E43.05754
G1 X115.548 Y113.880 E43.11891
G1 X124.789 Y123.120 E44.21222
G1 X125.522 Y123.120 E44.27359
G1 X116.282 Y113.880 E45.36690
G1 X117.015 Y113.880 E45.42827
G1 X126.256 Y123.120 E46.52158
G1 X126.989 Y123.120 E46.58294
G1 X117.749 Y113.880 E47.67625
G1 X118.482 Y113.880 E47.73762
G1 X127.723 Y123.120 E48.83093
G1 X128.456 Y123.120 E48.89230
G1 X119.216 Y113.880 E49.98561
G1 X119.949 Y113.880 E50.04698
G1 X129.190 Y123.120 E51.14029
G1 X129.338 Y123.120 E51.15265
G1 X129.338 Y122.534 E51.20165
G1 X120.683 Y113.880 E52.22567
G1 X121.416 Y113.880 E52.28704
G1 X129.338 Y121.801 E53.22426
G1 X129.338 Y121.067 E53.28563
G1 X122.150 Y113.880 E54.13607
G1 X122.883 Y113.880 E54.19744
G1 X129.338 Y120.334 E54.96109
G1 X129.338 Y119.600 E55.02246
G1 X123.617 Y113.880 E55.69933
G1 X124.350 Y113.880 E55.76069
G1 X129.338 Y118.867 E56.35077
G1 X129.338 Y118.134 E56.41214
G1 X125.084 Y113.880 E56.91543
G1 X125.817 Y113.880 E56.97680
G1 X129.338 Y117.400 E57.39330
G1 X129.338 Y116.667 E57.45467
G1 X126.551 Y113.880 E57.78438
G1 X127.284 Y113.880 E57.84575
G1 X129.338 Y115.933 E58.08868
G1 X129.338 Y115.200 E58.15005
G1 X128.018 Y113.880 E58.30619
G1 X128.751 Y113.880 E58.36756
G1 X129.569 Y114.697 E58.46429

G10 ; retract
G92 E0
G1 Z0.600 F10800.000
G1 Z0.700
;AFTER_LAYER_CHANGE
;0.7
G1 X129.629 Y113.969
G11 ; unretract
G92 E0
M204 S800
G1 F3000
G1 X129.629 Y123.031 E0.58722
G1 X92.371 Y123.031 E3.00155
G1 X92.371 Y113.969 E3.58878
G1 X129.554 Y113.969 E5.99825
M204 S1000
G1 X130.164 Y113.433 F10800.000
M204 S800
G1 F3000
G1 X130.164 Y123.567 E6.65489
G1 X91.836 Y123.567 E9.13864
G1 X91.836 Y113.433 E9.79528
G1 X130.089 Y113.433 E12.27417
M204 S1000
G1 X130.700 Y112.898 F10800.000
M204 S800
G1 F3000
G1 X130.700 Y124.102 E13.00023
G1 X91.300 Y124.102 E15.55339
G1 X91.300 Y112.898 E16.27945
G1 X130.625 Y112.898 E18.82776
M204 S1000
G1 X130.491 Y113.352 F10800.000
G10 ; retract
G92 E0
G1 Z0.900
G1 X128.425 Y122.924
G1 Z0.700
G11 ; unretract
G92 E0
M204 S1500
G1 F3000
G1 X129.281 Y122.068 E0.07934
G1 X129.281 Y121.302 E0.12962
G1 X127.900 Y122.683 E0.25771
G1 X127.133 Y122.683 E0.30799
G1 X129.281 Y120.535 E0.50719
G1 X129.281 Y119.768 E0.55747
G1 X126.366 Y122.683 E0.82777
G1 X125.600 Y122.683 E0.87805
G1 X129.281 Y119.002 E1.21946
G1 X129.281 Y118.235 E1.26974
G1 X124.833 Y122.683 E1.68225
G1 X124.066 Y122.683 E1.73253
G1 X129.281 Y117.469 E2.21615
G1 X129.281 Y116.702 E2.26643
G1 X123.300 Y122.683 E2.82115
G1 X122.533 Y122.683 E2.87143
G1 X129.281 Y115.935 E3.49726
G1 X129.281 Y115.169 E3.54754
G1 X121.767 Y122.683 E4.24448
G1 X121.000 Y122.683 E4.29476
G1 X129.281 Y114.402 E5.06280
G1 X129.281 Y114.317 E5.06836
G1 X128.599 Y114.317 E5.11308
G1 X120.233 Y122.683 E5.88899
G1 X119.467 Y122.683 E5.93926
G1 X127.832 Y114.317 E6.71518
G1 X127.066 Y114.317 E6.76545
G1 X118.700 Y122.683 E7.54136
G1 X117.933 Y122.683 E7.59164
G1 X126.299 Y114.317 E8.36755
G1 X125.532 Y114.317 E8.41783
G1 X117.167 Y122.683 E9.19374
G1 X116.400 Y122.683 E9.24402
G1 X124.766 Y114.317 E10.01993
G1 X123.999 Y114.317 E10.07021
G1 X115.633 Y122.683 E10.84612
G1 X114.867 Y122.683 E10.89640
G1 X123.232 Y114.317 E11.67231
G1 X122.466 Y114.317 E11.72259
G1 X114.100 Y122.683 E12.49850
G1 X113.334 Y122.683 E12.54878
G1 X121.699 Y114.317 E13.32469
G1 X120.932 Y114.317 E13.37497
G1 X112.567 Y122.683 E14.15088
G1 X111.800 Y122.683 E14.20116
G1 X120.166 Y114.317 E14.97707
G1 X119.399 Y114.317 E15.02735
G1 X111.034 Y122.683 E15.80326
G1 X110.267 Y122.683 E15.85354
G1 X118.633 Y114.317 E16.62945
G1 X117.866 Y114.317 E16.67973
G1 X109.500 Y122.683 E17.45564
G1 X108.734 Y122.683 E17.50592
G1 X117.099 Y114.317 E18.28183
G1 X116.333 Y114.317 E18.33211
G1 X107.967 Y122.683 E19.10802
G1 X107.200 Y122.683 E19.15830
G1 X115.566 Y114.317 E19.93421
G1 X114.799 Y114.317 E19.98449
G1 X106.434 Y122.683 E20.76040
G1 X105.667 Y122.683 E20.81068
G1 X114.033 Y114.317 E21.58659
G1 X113.266 Y114.317 E21.63687
G1 X104.901 Y122.683 E22.41278
G1 X104.134 Y122.683 E22.46306
G1 X112.500 Y114.317 E23.23897
G1 X111.733 Y114.317 E23.28925
G1 X103.367 Y122.683 E24.06516
G1 X102.601 Y122.683 E24.11544
G1 X110.966 Y114.317 E24.89135
G1 X110.200 Y114.317 E24.94163
G1 X101.834 Y122.683 E25.71754
G1 X101.067 Y122.683 E25.76782
G1 X109.433 Y114.317 E26.54373
G1 X108.666 Y114.317 E26.59401
G1 X100.301 Y122.683 E27.36992
G1 X99.534 Y122.683 E27.42020
G1 X107.900 Y114.317 E28.19611
G1 X107.133 Y114.317 E28.24639
G1 X98.767 Y122.683 E29.02230
G1 X98.001 Y122.683 E29.07258
G1 X106.366 Y114.317 E29.84849
G1 X105.600 Y114.317 E29.89877
G1 X97.234 Y122.683 E30.67468
G1 X96.468 Y122.683 E30.72496
G1 X104.833 Y114.317 E31.50087
G1 X104.067 Y114.317 E31.55115
G1 X95.701 Y122.683 E32.32706
G1 X94.934 Y122.683 E32.37734
G1 X103.300 Y114.317 E33.15325
G1 X102.533 Y114.317 E33.20353
G1 X94.168 Y122.683 E33.97944
G1 X93.401 Y122.683 E34.02972
G1 X101.767 Y114.317 E34.80564
G1 X101.000 Y114.317 E34.85591
G1 X92.719 Y122.598 E35.62394
G1 X92.719 Y121.831 E35.67422
G1 X100.233 Y114.317 E36.37115
G1 X99.467 Y114.317 E36.42143
G1 X92.719 Y121.065 E37.04725
G1 X92.719 Y120.298 E37.09753
G1 X98.700 Y114.317 E37.65224
G1 X97.933 Y114.317 E37.70252
G1 X92.719 Y119.531 E38.18613
G1 X92.719 Y118.765 E38.23641
G1 X97.167 Y114.317 E38.64891
G1 X96.400 Y114.317 E38.69919
G1 X92.719 Y117.998 E39.04059
G1 X92.719 Y117.231 E39.09087
G1 X95.634 Y114.317 E39.36116
G1 X94.867 Y114.317 E39.41144
G1 X92.719 Y116.465 E39.61063
G1 X92.719 Y115.698 E39.66091
G1 X94.100 Y114.317 E39.78899
G1 X93.334 Y114.317 E39.83927
G1 X92.478 Y115.173 E39.91860
M204 S1000

G10 ; retract
G92 E0
G1 Z0.900 F10800.000
G1 Z1.000
;AFTER_LAYER_CHANGE
;1
G1 X92.371 Y114.295
G11 ; unretract
G92 E0
M204 S800
G1 F3000
G1 X129.629 Y114.295 E2.41433
G1 X129.629 Y122.705 E2.95929
G1 X92.371 Y122.705 E5.37363
G1 X92.371 Y114.370 E5.91373
M204 S1000
G1 X91.836 Y113.760 F10800.000
M204 S800
G1 F3000
G1 X130.164 Y113.760 E8.39748
G1 X130.164 Y123.240 E9.01185
G1 X91.836 Y123.240 E11.49561
G1 X91.836 Y113.835 E12.10512
M204 S1000
G1 X91.300 Y113.224 F10800.000
M204 S800
G1 F3000
G1 X130.700 Y113.224 E14.65829
G1 X130.700 Y123.776 E15.34209
G1 X91.300 Y123.776 E17.89526
G1 X91.300 Y113.299 E18.57419
M204 S1000
G1 X91.798 Y113.267 F10800.000
G10 ; retract
G92 E0
G1 Z1.200
G1 X92.478 Y121.498
G1 Z1.000
G11 ; unretract
G92 E0
M204 S1500
G1 F3000
G1 X93.337 Y122.357 E0.07980
G1 X94.105 Y122.357 E0.13034
G1 X92.719 Y120.971 E0.25919
G1 X92.719 Y120.202 E0.30973
G1 X94.874 Y122.357 E0.51005
G1 X95.642 Y122.357 E0.56058
G1 X92.719 Y119.434 E0.83237
G1 X92.719 Y118.665 E0.88290
G1 X96.411 Y122.357 E1.22616
G1 X97.179 Y122.357 E1.27669
G1 X92.719 Y117.897 E1.69141
G1 X92.719 Y117.128 E1.74194
G1 X97.948 Y122.357 E2.22813
G1 X98.717 Y122.357 E2.27866
G1 X92.719 Y116.360 E2.83631
G1 X92.719 Y115.591 E2.88685
G1 X99.485 Y122.357 E3.51596
G1 X100.254 Y122.357 E3.56650
G1 X92.719 Y114.822 E4.26708
G1 X92.719 Y114.643 E4.27885
G1 X93.309 Y114.643 E4.31761
G1 X101.022 Y122.357 E5.03485
G1 X101.791 Y122.357 E5.08538
G1 X94.077 Y114.643 E5.80261
G1 X94.846 Y114.643 E5.85315
G1 X102.559 Y122.357 E6.57038
G1 X103.328 Y122.357 E6.62091
G1 X95.615 Y114.643 E7.33815
G1 X96.383 Y114.643 E7.38868
G1 X104.097 Y122.357 E8.10591
G1 X104.865 Y122.357 E8.15645
G1 X97.152 Y114.643 E8.87368
G1 X97.920 Y114.643 E8.92421
G1 X105.634 Y122.357 E9.64144
G1 X106.402 Y122.357 E9.69198
G1 X98.689 Y114.643 E10.40921
G1 X99.457 Y114.643 E10.45974
G1 X107.171 Y122.357 E11.17698
G1 X107.939 Y122.357 E11.22751
G1 X100.226 Y114.643 E11.94474
G1 X100.995 Y114.643 E11.99528
G1 X108.708 Y122.357 E12.71251
G1 X109.477 Y122.357 E12.76304
G1 X101.763 Y114.643 E13.48028
G1 X102.532 Y114.643 E13.53081
G1 X110.245 Y122.357 E14.24804
G1 X111.014 Y122.357 E14.29858
G1 X103.300 Y114.643 E15.01581
G1 X104.069 Y114.643 E15.06634
G1 X111.782 Y122.357 E15.78357
G1 X112.551 Y122.357 E15.83411
G1 X104.838 Y114.643 E16.55134
G1 X105.606 Y114.643 E16.60187
G1 X113.319 Y122.357 E17.31911
G1 X114.088 Y122.357 E17.36964
G1 X106.375 Y114.643 E18.08687
G1 X107.143 Y114.643 E18.13741
G1 X114.857 Y122.357 E18.85464
G1 X115.625 Y122.357 E18.90517
G1 X107.912 Y114.643 E19.62241
G1 X108.680 Y114.643 E19.67294
G1 X116.394 Y122.357 E20.39017
G1 X117.162 Y122.357 E20.44071
G1 X109.449 Y114.643 E21.15794
G1 X110.218 Y114.643 E21.20847
G1 X117.931 Y122.357 E21.92570
G1 X118.700 Y122.357 E21.97624
G1 X110.986 Y114.643 E22.69347
G1 X111.755 Y114.643 E22.74400
G1 X119.468 Y122.357 E23.46123
G1 X120.237 Y122.357 E23.51177
G1 X112.523 Y114.643 E24.22900
G1 X113.292 Y114.643 E24.27953
G1 X121.005 Y122.357 E24.99677
G1 X121.774 Y122.357 E25.04730
G1 X114.060 Y114.643 E25.76453
G1 X114.829 Y114.643 E25.81507
G1 X122.542 Y122.357 E26.53230
G1 X123.311 Y122.357 E26.58283
G1 X115.598 Y114.643 E27.30006
G1 X116.366 Y114.643 E27.35060
G1 X124.080 Y122.357 E28.06783
G1 X124.848 Y122.357 E28.11836
G1 X117.135 Y114.643 E28.83560
G1 X117.903 Y114.643 E28.88613
G1 X125.617 Y122.357 E29.60336
G1 X126.385 Y122.357 E29.65390
G1 X118.672 Y114.643 E30.37113
G1 X119.440 Y114.643 E30.42166
G1 X127.154 Y122.357 E31.13889
G1 X127.922 Y122.357 E31.18943
G1 X120.209 Y114.643 E31.90666
G1 X120.978 Y114.643 E31.95719
G1 X128.691 Y122.357 E32.67442
G1 X129.281 Y122.357 E32.71319
G1 X129.281 Y122.178 E32.72496
G1 X121.746 Y114.643 E33.42555
G1 X122.515 Y114.643 E33.47609
G1 X129.281 Y121.409 E34.10521
G1 X129.281 Y120.641 E34.15575
G1 X123.283 Y114.643 E34.71341
G1 X124.052 Y114.643 E34.76394
G1 X129.281 Y119.872 E35.25014
G1 X129.281 Y119.103 E35.30067
G1 X124.820 Y114.643 E35.71540
G1 X125.589 Y114.643 E35.76594
G1 X129.281 Y118.335 E36.10920
G1 X129.281 Y117.566 E36.15974
G1 X126.358 Y114.643 E36.43153
G1 X127.126 Y114.643 E36.48207
G1 X129.281 Y116.798 E36.68240
G1 X129.281 Y116.029 E36.73294
G1 X127.895 Y114.643 E36.86180
G1 X128.663 Y114.643 E36.91234
G1 X129.522 Y115.502 E36.99215
M204 S1000

G10 ; retract
G92 E0
G1 Z1.200 F10800.000
G1 Z1.300
;AFTER_LAYER_CHANGE
;1.3
G1 X129.629 Y114.621
G11 ; unretract
G92 E0
M204 S800
G1 F3000
G1 X129.629 Y122.379 E0.50270
G1 X92.371 Y122.379 E2.91703
G1 X92.371 Y114.621 E3.41973
G1 X129.554 Y114.621 E5.82920
M204 S1000
G1 X130.164 Y114.086 F10800.000
M204 S800
G1 F3000
G1 X130.164 Y122.914 E6.40132
G1 X91.836 Y122.914 E8.88507
G1 X91.836 Y114.086 E9.45718
G1 X130.089 Y114.086 E11.93608
M204 S1000
G1 X130.700 Y113.550 F10800.000
M204 S800
G1 F3000
G1 X130.700 Y123.450 E12.57761
G1 X91.300 Y123.450 E15.13078
G1 X91.300 Y113.550 E15.77231
G1 X130.625 Y113.550 E18.32062
M204 S1000
G1 X130.486 Y114.002 F10800.000
G10 ; retract
G92 E0
G1 Z1.500
G1 X128.439 Y122.272
G1 Z1.300
G11 ; unretract
G92 E0
M204 S1500
G1 F3000
G1 X129.281 Y121.430 E0.07715
G1 X129.281 Y120.672 E0.12624
G1 X127.922 Y122.031 E0.25072
G1 X127.165 Y122.031 E0.29981
G1 X129.281 Y119.915 E0.49371
G1 X129.281 Y119.157 E0.54280
G1 X126.407 Y122.031 E0.80613
G1 X125.650 Y122.031 E0.85522
G1 X129.281 Y118.400 E1.18798
G1 X129.281 Y117.642 E1.23707
G1 X124.892 Y122.031 E1.63925
G1 X124.135 Y122.031 E1.68834
G1 X129.281 Y116.885 E2.15994
G1 X129.281 Y116.127 E2.20903
G1 X123.377 Y122.031 E2.75006
G1 X122.620 Y122.031 E2.79915
G1 X129.281 Y115.370 E3.40961
