; generated by PrusaSlicer 2.0.0+win64 on 2019-07-22 at 20:34:57

; 

; external perimeters extrusion width = 0.50mm
; perimeters extrusion width = 0.50mm
; infill extrusion width = 0.50mm
; solid infill extrusion width = 0.50mm
; top infill extrusion width = 0.50mm
; first layer extrusion width = 0.60mm

M107
G28 ; home all axes
M300 S2500 P100; Beep

M104 S200 ; set extruder temp
M140 S50 ; set bed temp
M190 S50 ; wait for bed temp
M109 S200 ; wait for extruder temp

; Start of print
G21; metric values
G90 ; absolute positioning
M82; set extruder to absolute mode

; Prepare nozzle
G91;
G92 E0 ; Set extrusion distance to 0
G1 F1800 E3;
G92 E0 ; Set extrusion distance to 0
G90;


; You may want to adjust the X and Y here so the nozzle is really above the bed!
G1 Z0.6; Move nozzle above 0.6 mm of the bed
G1 X0.5 Y7.0 F7200 ; Move to a position in the left front of the bed


G91 ; Use relative mode
; Make some jerky zick-zack move at the beginning
; This is supposed to get rid of residue at the nozzle
G1 X5.0 Y1.0 Z-0.1 E-1.0 F7200 
G1 X-5.0 Y1.0 Z0.1 E2.0 F7200 
G1 X5.0 Y2 Z-0.1 F7200
G1 X-5 Y2 Z0.1 F7200
G1 X5 Y2 F7200
G1 X-5 2 F7200

; now print a line of filament to prepare extrusion
G1 Y200 E40 F1000 ; prints a line in the fron

; Done with the dancing :)
G92 E0 ; Set extrusion distance to 0
G90 ; switch back to absolute mode


; Start of actual GCode for the print
; Filament gcode
G21 ; set units to millimeters
G90 ; use absolute coordinates
M82 ; use absolute distances for extrusion
G92 E0
G1 Z0.400 F10800.000
G10 ; retract
G92 E0
G1 Z0.700
G1 X69.694 Y105.159
G1 Z0.400
G11 ; unretract
G92 E0
M204 S1000
G1 F1200
G1 X70.295 Y104.856 E0.05179
G1 X70.995 Y104.743 E0.10640
G1 X151.004 Y104.743 E6.26340
G1 X151.823 Y104.898 E6.32758
G1 X152.530 Y105.341 E6.39176
G1 X153.027 Y106.006 E6.45566
G1 X153.249 Y106.810 E6.51984
G1 X153.231 Y131.344 E8.40782
G1 X153.022 Y132.003 E8.46102
G1 X152.624 Y132.568 E8.51423
G1 X146.556 Y138.635 E9.17452
G1 X146.158 Y138.937 E9.21300
G1 X145.703 Y139.145 E9.25148
G1 X145.002 Y139.257 E9.30610
G1 X76.781 Y139.246 E14.55600
G1 X76.061 Y139.052 E14.61343
G1 X75.445 Y138.636 E14.67058
G1 X69.365 Y132.556 E15.33231
G1 X69.063 Y132.158 E15.37079
G1 X68.855 Y131.703 E15.40927
G1 X68.743 Y131.010 E15.46332
G1 X68.746 Y106.881 E17.32011
G1 X68.883 Y106.219 E17.37218
G1 X69.207 Y105.629 E17.42397
G1 X69.640 Y105.211 E17.47027
; printing object Broken-USB-filet.stl id:0 copy 0
G10 ; retract
G92 E0
G1 Z0.700 F10800.000
G1 X136.012 Y135.332
G1 Z0.400
G11 ; unretract
G92 E0
G1 F1200
G1 X135.565 Y135.303 E0.03447
G1 X135.138 Y135.218 E0.06801
G1 X134.725 Y135.078 E0.10154
G1 X134.334 Y134.885 E0.13507
G1 X133.972 Y134.643 E0.16860
G1 X133.645 Y134.355 E0.20213
G1 X133.357 Y134.028 E0.23567
G1 X133.115 Y133.666 E0.26920
G1 X132.922 Y133.275 E0.30273
G1 X132.782 Y132.862 E0.33626
G1 X132.697 Y132.435 E0.36979
G1 X132.669 Y132.000 E0.40333
G1 X132.697 Y131.565 E0.43686
G1 X132.782 Y131.138 E0.47039
G1 X132.922 Y130.725 E0.50392
G1 X133.115 Y130.334 E0.53745
G1 X133.327 Y130.018 E0.56676
G1 X133.635 Y129.653 E0.60355
G1 X133.972 Y129.357 E0.63803
G1 X134.334 Y129.115 E0.67156
G1 X134.725 Y128.922 E0.70509
G1 X135.138 Y128.782 E0.73862
G1 X135.565 Y128.697 E0.77216
G1 X135.945 Y128.672 E0.80146
G1 X136.423 Y128.695 E0.83826
G1 X136.862 Y128.782 E0.87273
G1 X137.275 Y128.922 E0.90626
G1 X137.666 Y129.115 E0.93979
G1 X138.028 Y129.357 E0.97333
G1 X138.355 Y129.645 E1.00686
G1 X138.643 Y129.972 E1.04039
G1 X138.885 Y130.334 E1.07392
G1 X139.078 Y130.725 E1.10745
G1 X139.218 Y131.138 E1.14099
G1 X139.303 Y131.565 E1.17452
G1 X139.331 Y132.000 E1.20805
G1 X139.303 Y132.435 E1.24158
G1 X139.218 Y132.862 E1.27511
G1 X139.078 Y133.275 E1.30865
G1 X138.885 Y133.666 E1.34218
G1 X138.643 Y134.028 E1.37571
G1 X138.355 Y134.355 E1.40924
G1 X138.028 Y134.643 E1.44277
G1 X137.666 Y134.885 E1.47631
G1 X137.275 Y135.078 E1.50984
G1 X136.862 Y135.218 E1.54337
G1 X136.489 Y135.292 E1.57267
G1 X136.087 Y135.326 E1.60370
G1 X136.007 Y134.816 F10800.000
G1 F1200
G1 X135.632 Y134.792 E1.63262
G1 X135.271 Y134.720 E1.66097
G1 X134.922 Y134.602 E1.68931
G1 X134.592 Y134.439 E1.71766
G1 X134.286 Y134.234 E1.74600
G1 X134.009 Y133.991 E1.77435
G1 X133.766 Y133.714 E1.80269
G1 X133.561 Y133.408 E1.83104
G1 X133.398 Y133.078 E1.85938
G1 X133.280 Y132.729 E1.88773
G1 X133.208 Y132.368 E1.91607
G1 X133.184 Y132.000 E1.94442
G1 X133.208 Y131.632 E1.97276
G1 X133.280 Y131.271 E2.00111
G1 X133.398 Y130.922 E2.02946
G1 X133.561 Y130.592 E2.05780
G1 X133.738 Y130.328 E2.08228
G1 X134.003 Y130.014 E2.11389
G1 X134.286 Y129.766 E2.14281
G1 X134.592 Y129.561 E2.17116
G1 X134.922 Y129.398 E2.19950
G1 X135.271 Y129.280 E2.22785
G1 X135.632 Y129.208 E2.25619
G1 X135.950 Y129.187 E2.28068
G1 X136.360 Y129.207 E2.31229
G1 X136.729 Y129.280 E2.34121
G1 X137.078 Y129.398 E2.36955
G1 X137.408 Y129.561 E2.39790
G1 X137.714 Y129.766 E2.42624
G1 X137.991 Y130.009 E2.45459
G1 X138.234 Y130.286 E2.48293
G1 X138.439 Y130.592 E2.51128
G1 X138.602 Y130.922 E2.53962
G1 X138.720 Y131.271 E2.56797
G1 X138.792 Y131.632 E2.59632
G1 X138.816 Y132.000 E2.62466
G1 X138.792 Y132.368 E2.65301
G1 X138.720 Y132.729 E2.68135
G1 X138.602 Y133.078 E2.70970
G1 X138.439 Y133.408 E2.73804
G1 X138.234 Y133.714 E2.76639
G1 X137.991 Y133.991 E2.79473
G1 X137.714 Y134.234 E2.82308
G1 X137.408 Y134.439 E2.85142
G1 X137.078 Y134.602 E2.87977
G1 X136.729 Y134.720 E2.90811
G1 X136.417 Y134.782 E2.93260
G1 X136.082 Y134.810 E2.95843
G1 X136.003 Y134.301 F10800.000
G1 F1200
G1 X135.700 Y134.281 E2.98180
G1 X135.405 Y134.222 E3.00496
G1 X135.120 Y134.126 E3.02812
G1 X134.850 Y133.992 E3.05128
G1 X134.599 Y133.825 E3.07444
G1 X134.373 Y133.627 E3.09760
G1 X134.175 Y133.401 E3.12076
G1 X134.008 Y133.150 E3.14391
G1 X133.874 Y132.880 E3.16707
G1 X133.778 Y132.595 E3.19023
G1 X133.719 Y132.300 E3.21339
G1 X133.699 Y132.000 E3.23655
G1 X133.719 Y131.700 E3.25971
G1 X133.778 Y131.405 E3.28287
G1 X133.874 Y131.120 E3.30602
G1 X134.008 Y130.850 E3.32918
G1 X134.150 Y130.637 E3.34884
G1 X134.371 Y130.375 E3.37526
G1 X134.599 Y130.175 E3.39864
G1 X134.850 Y130.008 E3.42179
G1 X135.120 Y129.874 E3.44495
G1 X135.405 Y129.778 E3.46811
G1 X135.700 Y129.719 E3.49127
G1 X135.955 Y129.702 E3.51093
G1 X136.298 Y129.718 E3.53735
G1 X136.595 Y129.778 E3.56072
G1 X136.880 Y129.874 E3.58388
G1 X137.150 Y130.008 E3.60704
G1 X137.401 Y130.175 E3.63020
G1 X137.627 Y130.373 E3.65336
G1 X137.825 Y130.599 E3.67651
G1 X137.992 Y130.850 E3.69967
G1 X138.126 Y131.120 E3.72283
G1 X138.222 Y131.405 E3.74599
G1 X138.281 Y131.700 E3.76915
G1 X138.301 Y132.000 E3.79231
G1 X138.281 Y132.300 E3.81547
G1 X138.222 Y132.595 E3.83862
G1 X138.126 Y132.880 E3.86178
G1 X137.992 Y133.150 E3.88494
G1 X137.825 Y133.401 E3.90810
G1 X137.627 Y133.627 E3.93126
G1 X137.401 Y133.825 E3.95442
G1 X137.150 Y133.992 E3.97758
G1 X136.880 Y134.126 E4.00073
G1 X136.595 Y134.222 E4.02389
G1 X136.345 Y134.272 E4.04355
G1 X136.077 Y134.295 E4.06420
G1 X135.851 Y134.564 F10800.000
G10 ; retract
G92 E0
G1 Z0.700
G1 X89.331 Y132.000
G1 Z0.400
G11 ; unretract
G92 E0
G1 F1200
G1 X89.303 Y132.435 E0.03353
G1 X89.218 Y132.862 E0.06706
G1 X89.078 Y133.275 E0.10060
G1 X88.885 Y133.666 E0.13413
G1 X88.643 Y134.028 E0.16766
G1 X88.355 Y134.355 E0.20119
G1 X88.028 Y134.643 E0.23472
G1 X87.666 Y134.885 E0.26826
G1 X87.275 Y135.078 E0.30179
G1 X86.862 Y135.218 E0.33532
G1 X86.435 Y135.303 E0.36885
G1 X86.000 Y135.331 E0.40238
G1 X85.565 Y135.303 E0.43592
G1 X85.138 Y135.218 E0.46945
G1 X84.725 Y135.078 E0.50298
G1 X84.334 Y134.885 E0.53651
G1 X83.972 Y134.643 E0.57004
G1 X83.645 Y134.355 E0.60358
G1 X83.357 Y134.028 E0.63711
G1 X83.115 Y133.666 E0.67064
G1 X82.922 Y133.275 E0.70417
G1 X82.782 Y132.862 E0.73770
G1 X82.697 Y132.435 E0.77124
G1 X82.669 Y132.000 E0.80477
G1 X82.697 Y131.565 E0.83830
G1 X82.782 Y131.138 E0.87183
G1 X82.922 Y130.725 E0.90536
G1 X83.115 Y130.334 E0.93890
G1 X83.357 Y129.972 E0.97243
G1 X83.645 Y129.645 E1.00596
G1 X83.972 Y129.357 E1.03949
G1 X84.334 Y129.115 E1.07302
G1 X84.725 Y128.922 E1.10656
G1 X85.138 Y128.782 E1.14009
G1 X85.565 Y128.697 E1.17362
G1 X85.945 Y128.672 E1.20292
G1 X86.423 Y128.695 E1.23972
G1 X86.862 Y128.782 E1.27419
G1 X87.275 Y128.922 E1.30773
G1 X87.666 Y129.115 E1.34126
G1 X88.028 Y129.357 E1.37479
G1 X88.355 Y129.645 E1.40832
G1 X88.643 Y129.972 E1.44185
G1 X88.885 Y130.334 E1.47539
G1 X89.078 Y130.725 E1.50892
G1 X89.218 Y131.138 E1.54245
G1 X89.303 Y131.565 E1.57598
G1 X89.326 Y131.925 E1.60374
G1 X88.816 Y132.000 F10800.000
G1 F1200
G1 X88.792 Y132.368 E1.63209
G1 X88.720 Y132.729 E1.66043
G1 X88.602 Y133.078 E1.68878
G1 X88.439 Y133.408 E1.71712
G1 X88.234 Y133.714 E1.74547
G1 X87.991 Y133.991 E1.77381
G1 X87.714 Y134.234 E1.80216
G1 X87.408 Y134.439 E1.83050
G1 X87.078 Y134.602 E1.85885
G1 X86.729 Y134.720 E1.88719
G1 X86.368 Y134.792 E1.91554
G1 X86.000 Y134.816 E1.94389
G1 X85.632 Y134.792 E1.97223
G1 X85.271 Y134.720 E2.00058
G1 X84.922 Y134.602 E2.02892
G1 X84.592 Y134.439 E2.05727
G1 X84.286 Y134.234 E2.08561
G1 X84.009 Y133.991 E2.11396
G1 X83.766 Y133.714 E2.14230
G1 X83.561 Y133.408 E2.17065
G1 X83.398 Y133.078 E2.19899
G1 X83.280 Y132.729 E2.22734
G1 X83.208 Y132.368 E2.25568
G1 X83.184 Y132.000 E2.28403
G1 X83.208 Y131.632 E2.31237
G1 X83.280 Y131.271 E2.34072
G1 X83.398 Y130.922 E2.36906
G1 X83.561 Y130.592 E2.39741
G1 X83.766 Y130.286 E2.42576
G1 X84.009 Y130.009 E2.45410
G1 X84.286 Y129.766 E2.48245
G1 X84.592 Y129.561 E2.51079
G1 X84.922 Y129.398 E2.53914
G1 X85.271 Y129.280 E2.56748
G1 X85.632 Y129.208 E2.59583
G1 X85.950 Y129.187 E2.62031
G1 X86.360 Y129.207 E2.65192
G1 X86.729 Y129.280 E2.68084
G1 X87.078 Y129.398 E2.70919
G1 X87.408 Y129.561 E2.73753
G1 X87.714 Y129.766 E2.76588
G1 X87.991 Y130.009 E2.79422
G1 X88.234 Y130.286 E2.82257
G1 X88.439 Y130.592 E2.85091
G1 X88.602 Y130.922 E2.87926
G1 X88.720 Y131.271 E2.90760
G1 X88.792 Y131.632 E2.93595
G1 X88.811 Y131.925 E2.95852
G1 X88.301 Y132.000 F10800.000
G1 F1200
G1 X88.281 Y132.300 E2.98168
G1 X88.222 Y132.595 E3.00484
G1 X88.126 Y132.880 E3.02800
G1 X87.992 Y133.150 E3.05116
G1 X87.825 Y133.401 E3.07431
G1 X87.627 Y133.627 E3.09747
G1 X87.401 Y133.825 E3.12063
G1 X87.150 Y133.992 E3.14379
G1 X86.880 Y134.126 E3.16695
G1 X86.595 Y134.222 E3.19011
G1 X86.300 Y134.281 E3.21327
G1 X86.000 Y134.301 E3.23642
G1 X85.700 Y134.281 E3.25958
G1 X85.405 Y134.222 E3.28274
G1 X85.120 Y134.126 E3.30590
G1 X84.850 Y133.992 E3.32906
G1 X84.599 Y133.825 E3.35222
G1 X84.373 Y133.627 E3.37538
G1 X84.175 Y133.401 E3.39853
G1 X84.008 Y133.150 E3.42169
G1 X83.874 Y132.880 E3.44485
G1 X83.778 Y132.595 E3.46801
G1 X83.719 Y132.300 E3.49117
G1 X83.699 Y132.000 E3.51433
G1 X83.719 Y131.700 E3.53749
G1 X83.778 Y131.405 E3.56064
G1 X83.874 Y131.120 E3.58380
G1 X84.008 Y130.850 E3.60696
G1 X84.175 Y130.599 E3.63012
G1 X84.373 Y130.373 E3.65328
G1 X84.599 Y130.175 E3.67644
G1 X84.850 Y130.008 E3.69960
G1 X85.120 Y129.874 E3.72275
G1 X85.405 Y129.778 E3.74591
G1 X85.700 Y129.719 E3.76907
G1 X85.955 Y129.702 E3.78873
G1 X86.298 Y129.718 E3.81515
G1 X86.595 Y129.778 E3.83852
G1 X86.880 Y129.874 E3.86168
G1 X87.150 Y130.008 E3.88484
G1 X87.401 Y130.175 E3.90800
G1 X87.627 Y130.373 E3.93116
G1 X87.825 Y130.599 E3.95432
G1 X87.992 Y130.850 E3.97748
G1 X88.126 Y131.120 E4.00063
G1 X88.222 Y131.405 E4.02379
G1 X88.281 Y131.700 E4.04695
G1 X88.296 Y131.925 E4.06434
G1 X88.561 Y132.150 F10800.000
G10 ; retract
G92 E0
G1 Z0.700
G1 X77.550 Y135.672
G1 Z0.400
G11 ; unretract
G92 E0
G1 F1200
G1 X72.328 Y130.450 E0.56830
G1 X72.328 Y108.328 E2.27065
G1 X149.672 Y108.328 E8.22257
G1 X149.672 Y130.450 E9.92492
G1 X144.450 Y135.672 E10.49322
G1 X77.625 Y135.672 E15.63567
G1 X77.337 Y136.186 F10800.000
G1 F1200
G1 X71.814 Y130.663 E16.23675
G1 X71.814 Y107.814 E17.99505
G1 X150.186 Y107.814 E24.02611
G1 X150.186 Y130.663 E25.78441
G1 X144.663 Y136.186 E26.38549
G1 X77.412 Y136.186 E31.56072
G1 X77.124 Y136.700 F10800.000
G1 F1200
G1 X71.300 Y130.876 E32.19458
G1 X71.300 Y107.300 E34.00884
G1 X150.700 Y107.300 E40.11903
G1 X150.700 Y130.876 E41.93329
G1 X144.876 Y136.700 E42.56714
G1 X77.199 Y136.700 E47.77515
G1 X77.111 Y136.200 F10800.000
G10 ; retract
G92 E0
G1 Z0.700
G1 X83.767 Y135.517
G1 Z0.400
G11 ; unretract
G92 E0
G1 F1200
G1 X72.714 Y124.464 E1.20455
G1 X72.714 Y125.193 E1.26066
G1 X82.807 Y135.286 E2.36065
G1 X82.079 Y135.286 E2.41676
G1 X72.714 Y125.921 E3.43739
G1 X72.714 Y126.649 E3.49350
G1 X81.351 Y135.286 E4.43479
G1 X80.623 Y135.286 E4.49090
G1 X72.714 Y127.377 E5.35283
G1 X72.714 Y128.105 E5.40894
G1 X79.895 Y135.286 E6.19152
G1 X79.167 Y135.286 E6.24763
G1 X72.714 Y128.833 E6.95086
G1 X72.714 Y129.561 E7.00697
G1 X78.439 Y135.286 E7.63084
G1 X77.710 Y135.286 E7.68695
G1 X72.483 Y130.058 E8.25669
G10 ; retract
G92 E0
G1 Z0.700 F10800.000
G1 X83.939 Y134.961
G1 Z0.400
G11 ; unretract
G92 E0
G1 F1200
G1 X72.714 Y123.736 E1.22326
G1 X72.714 Y123.008 E1.27937
G1 X82.345 Y132.639 E2.32895
G1 X82.314 Y132.485 E2.34103
G1 X82.282 Y132.000 E2.37851
G1 X82.292 Y131.858 E2.38948
G1 X72.714 Y122.280 E3.43327
G1 X72.714 Y121.552 E3.48938
G1 X82.374 Y131.212 E4.54218
G1 X82.409 Y131.038 E4.55589
G1 X82.541 Y130.650 E4.58741
G1 X72.714 Y120.824 E5.65832
G1 X72.714 Y120.096 E5.71443
G1 X82.774 Y130.155 E6.81073
G1 X83.066 Y129.720 E6.85117
G1 X72.714 Y119.368 E7.97932
G1 X72.714 Y118.639 E8.03543
G1 X83.411 Y129.336 E9.20119
G1 X83.807 Y129.004 E9.24102
G1 X72.714 Y117.911 E10.44990
G1 X72.714 Y117.183 E10.50601
G1 X84.255 Y128.724 E11.76377
G1 X84.577 Y128.565 E11.79146
G1 X84.762 Y128.503 E11.80646
G1 X72.714 Y116.455 E13.11943
G1 X72.714 Y115.727 E13.17554
G1 X85.337 Y128.350 E14.55116
G1 X85.515 Y128.314 E14.56516
G1 X86.004 Y128.289 E14.60293
G1 X72.714 Y114.999 E16.05132
G1 X72.714 Y114.271 E16.10743
G1 X87.166 Y128.723 E17.68240
G10 ; retract
G92 E0
G1 Z0.700 F10800.000
G1 X87.884 Y135.056
G1 Z0.400
G11 ; unretract
G92 E0
G1 F1200
G1 X87.742 Y135.415 E0.00996
G1 X87.943 Y135.253 F10800.000
G1 F1200
G1 X87.390 Y135.364 E0.01878
G1 X87.264 Y135.384 E0.02071
G1 X88.864 Y135.517 F10800.000
G1 F1200
G1 X88.428 Y135.081 E0.06824
G1 X88.504 Y134.888 E0.08430
G1 X88.387 Y134.841 E0.09405
G1 X88.664 Y134.589 E0.12289
G1 X89.361 Y135.286 E0.19886
G1 X90.089 Y135.286 E0.25497
G1 X88.996 Y134.193 E0.37405
G1 X89.220 Y133.859 E0.40506
G1 X89.276 Y133.745 E0.41484
G1 X90.817 Y135.286 E0.58280
G1 X91.545 Y135.286 E0.63891
G1 X89.497 Y133.238 E0.86208
G1 X89.591 Y132.962 E0.88455
G1 X89.650 Y132.663 E0.90803
G1 X92.273 Y135.286 E1.19385
G1 X93.001 Y135.286 E1.24996
G1 X89.717 Y132.002 E1.60783
G1 X89.686 Y131.515 E1.64548
G1 X89.618 Y131.175 E1.67218
G1 X93.729 Y135.286 E2.12022
G1 X94.458 Y135.286 E2.17633
G1 X72.714 Y113.542 E4.54594
G1 X72.714 Y112.814 E4.60205
G1 X95.186 Y135.286 E7.05102
G1 X95.914 Y135.286 E7.10713
G1 X72.714 Y112.086 E9.63545
G1 X72.714 Y111.358 E9.69156
G1 X96.642 Y135.286 E12.29923
G1 X97.370 Y135.286 E12.35534
G1 X72.714 Y110.630 E15.04236
G1 X72.714 Y109.902 E15.09847
G1 X98.098 Y135.286 E17.86484
G1 X98.826 Y135.286 E17.92095
G1 X72.714 Y109.174 E20.76668
G1 X72.714 Y108.714 E20.80211
G1 X72.982 Y108.714 E20.82279
G1 X99.554 Y135.286 E23.71862
G1 X100.283 Y135.286 E23.77473
G1 X73.710 Y108.714 E26.67057
G1 X74.439 Y108.714 E26.72668
G1 X101.011 Y135.286 E29.62251
G1 X101.739 Y135.286 E29.67862
G1 X75.167 Y108.714 E32.57446
G1 X75.895 Y108.714 E32.63057
G1 X102.467 Y135.286 E35.52640
G1 X103.195 Y135.286 E35.58251
G1 X76.623 Y108.714 E38.47834
G1 X77.351 Y108.714 E38.53445
G1 X103.923 Y135.286 E41.43029
G1 X104.651 Y135.286 E41.48640
G1 X78.079 Y108.714 E44.38223
G1 X78.807 Y108.714 E44.43834
G1 X105.379 Y135.286 E47.33417
G1 X106.108 Y135.286 E47.39028
G1 X79.535 Y108.714 E50.28612
G1 X80.264 Y108.714 E50.34223
G1 X106.836 Y135.286 E53.23806
G1 X107.564 Y135.286 E53.29417
G1 X80.992 Y108.714 E56.19001
G1 X81.720 Y108.714 E56.24612
G1 X108.292 Y135.286 E59.14195
G1 X109.020 Y135.286 E59.19806
G1 X82.448 Y108.714 E62.09389
G1 X83.176 Y108.714 E62.15000
G1 X109.748 Y135.286 E65.04584
G1 X110.476 Y135.286 E65.10195
