; generated by PrusaSlicer 2.0.0+win64 on 2019-07-24 at 08:44:12

; 

; external perimeters extrusion width = 0.60mm
; perimeters extrusion width = 0.60mm
; infill extrusion width = 0.60mm
; solid infill extrusion width = 0.60mm
; top infill extrusion width = 0.60mm
; support material extrusion width = 0.35mm
; first layer extrusion width = 0.60mm

M107
G28 ; home all axes
M300 S2500 P100; Beep

M104 S200 ; set extruder temp
M140 S50 ; set bed temp
M190 S50 ; wait for bed temp
M109 S200 ; wait for extruder temp

; Start of print
G21; metric values
G90 ; absolute positioning
M82; set extruder to absolute mode

; Prepare nozzle
G91;
G92 E0 ; Set extrusion distance to 0
G1 F1800 E3;
G92 E0 ; Set extrusion distance to 0
G90;


; You may want to adjust the X and Y here so the nozzle is really above the bed!
G1 Z0.6; Move nozzle above 0.6 mm of the bed
G1 X0.5 Y7.0 F7200 ; Move to a position in the left front of the bed


G91 ; Use relative mode
; Make some jerky zick-zack move at the beginning
; This is supposed to get rid of residue at the nozzle
G1 X5.0 Y1.0 Z-0.1 E-1.0 F7200 
G1 X-5.0 Y1.0 Z0.1 E2.0 F7200 
G1 X5.0 Y2 Z-0.1 F7200
G1 X-5 Y2 Z0.1 F7200
G1 X5 Y2 F7200
G1 X-5 2 F7200

; now print a line of filament to prepare extrusion
G1 Y200 E40 F1000 ; prints a line in the fron

; Done with the dancing :)
G92 E0 ; Set extrusion distance to 0
G90 ; switch back to absolute mode


; Start of actual GCode for the print
; Filament gcode
G21 ; set units to millimeters
G90 ; use absolute coordinates
M82 ; use absolute distances for extrusion
G92 E0
G1 Z0.400 F10800.000
G10 ; retract
G92 E0
G1 Z0.700
G1 X101.938 Y109.955
G1 Z0.400
G11 ; unretract
G92 E0
M204 S1000
G1 F1200
G1 X102.809 Y109.745 E0.06895
G1 X121.004 Y109.743 E1.46911
G1 X121.830 Y109.901 E1.53385
G1 X122.541 Y110.351 E1.59860
G1 X123.036 Y111.026 E1.66306
G1 X123.251 Y111.840 E1.72780
G1 X123.256 Y132.059 E3.28379
G1 X123.096 Y132.837 E3.34488
G1 X122.679 Y133.508 E3.40569
G1 X121.926 Y134.058 E3.47744
G1 X121.016 Y134.257 E3.54918
G1 X100.941 Y134.256 E5.09405
G1 X100.163 Y134.096 E5.15514
G1 X99.492 Y133.679 E5.21594
G1 X98.957 Y132.960 E5.28489
G1 X98.745 Y132.086 E5.35412
G1 X98.749 Y114.512 E6.70654
G1 X98.852 Y113.985 E6.74786
G1 X99.077 Y113.497 E6.78918
G1 X101.216 Y110.491 E7.07309
G1 X101.878 Y110.000 E7.13654
; printing object CalibrationCube XYZ+.stl id:0 copy 0
G10 ; retract
G92 E0
G1 Z0.700 F10800.000
G1 X120.186 Y131.186
G1 Z0.400
G11 ; unretract
G92 E0
G1 F1200
G1 X101.814 Y131.186 E1.41378
G1 X101.814 Y114.937 E2.66417
G1 X103.316 Y112.814 E2.86429
G1 X120.186 Y112.814 E4.16254
G1 X120.186 Y131.111 E5.57055
G1 X120.700 Y131.700 F10800.000
G1 F1200
G1 X101.300 Y131.700 E7.06347
G1 X101.300 Y114.774 E8.36600
G1 X103.049 Y112.300 E8.59917
G1 X120.700 Y112.300 E9.95747
G1 X120.700 Y131.625 E11.44461
G1 X120.219 Y131.563 F10800.000
G10 ; retract
G92 E0
G1 Z0.700
G1 X120.057 Y114.004
G1 Z0.400
G11 ; unretract
G92 E0
G1 F1200
G1 X119.228 Y113.174 E0.09205
G1 X118.486 Y113.174 E0.15024
G1 X119.826 Y114.514 E0.29890
G1 X119.826 Y115.255 E0.35709
G1 X117.745 Y113.174 E0.58804
G1 X117.003 Y113.174 E0.64622
G1 X119.826 Y115.997 E0.95945
G1 X119.826 Y116.738 E1.01764
G1 X116.262 Y113.174 E1.41316
G1 X115.520 Y113.174 E1.47134
G1 X119.826 Y117.480 E1.94915
G1 X119.826 Y118.221 E2.00734
G1 X114.779 Y113.174 E2.56743
G1 X114.038 Y113.174 E2.62561
G1 X119.826 Y118.962 E3.26799
G1 X119.826 Y119.704 E3.32617
G1 X113.296 Y113.174 E4.05084
G1 X112.555 Y113.174 E4.10902
G1 X119.826 Y120.445 E4.91597
G1 X119.826 Y121.187 E4.97416
G1 X111.813 Y113.174 E5.86339
G1 X111.072 Y113.174 E5.92158
G1 X119.826 Y121.928 E6.89310
G1 X119.826 Y122.670 E6.95128
G1 X110.330 Y113.174 E8.00509
G1 X109.589 Y113.174 E8.06327
G1 X119.826 Y123.411 E9.19936
G1 X119.826 Y124.153 E9.25755
G1 X108.847 Y113.174 E10.47593
G1 X108.106 Y113.174 E10.53411
G1 X119.826 Y124.894 E11.83477
G1 X119.826 Y125.636 E11.89296
G1 X107.364 Y113.174 E13.27591
G1 X106.623 Y113.174 E13.33409
G1 X119.826 Y126.377 E14.79933
G1 X119.826 Y127.119 E14.85751
G1 X105.881 Y113.174 E16.40503
G1 X105.140 Y113.174 E16.46322
G1 X119.826 Y127.860 E18.09302
G1 X119.826 Y128.602 E18.15121
G1 X104.398 Y113.174 E19.86330
G1 X103.657 Y113.174 E19.92149
G1 X119.826 Y129.343 E21.71586
G1 X119.826 Y130.085 E21.77405
G1 X103.259 Y113.518 E23.61259
G1 X102.952 Y113.952 E23.65434
G1 X119.826 Y130.826 E25.52696
G1 X119.084 Y130.826 E25.58515
G1 X102.645 Y114.386 E27.40957
G1 X102.338 Y114.821 E27.45131
G1 X118.343 Y130.826 E29.22753
G1 X117.601 Y130.826 E29.28572
G1 X102.174 Y115.399 E30.99780
G1 X102.174 Y116.140 E31.05598
G1 X116.860 Y130.826 E32.68578
G1 X116.119 Y130.826 E32.74396
G1 X102.174 Y116.881 E34.29148
G1 X102.174 Y117.623 E34.34966
G1 X115.377 Y130.826 E35.81489
G1 X114.636 Y130.826 E35.87307
G1 X102.174 Y118.364 E37.25601
G1 X102.174 Y119.106 E37.31419
G1 X113.894 Y130.826 E38.61485
G1 X113.153 Y130.826 E38.67303
G1 X102.174 Y119.847 E39.89140
G1 X102.174 Y120.589 E39.94959
G1 X112.411 Y130.826 E41.08567
G1 X111.670 Y130.826 E41.14385
G1 X102.174 Y121.330 E42.19765
G1 X102.174 Y122.072 E42.25583
G1 X110.928 Y130.826 E43.22734
G1 X110.187 Y130.826 E43.28553
G1 X102.174 Y122.813 E44.17475
G1 X102.174 Y123.555 E44.23294
G1 X109.445 Y130.826 E45.03988
G1 X108.704 Y130.826 E45.09806
G1 X102.174 Y124.296 E45.82272
G1 X102.174 Y125.038 E45.88090
G1 X107.962 Y130.826 E46.52327
G1 X107.221 Y130.826 E46.58145
G1 X102.174 Y125.779 E47.14153
G1 X102.174 Y126.521 E47.19972
G1 X106.479 Y130.826 E47.67752
G1 X105.738 Y130.826 E47.73570
G1 X102.174 Y127.262 E48.13121
G1 X102.174 Y128.004 E48.18940
G1 X104.996 Y130.826 E48.50262
G1 X104.255 Y130.826 E48.56080
G1 X102.174 Y128.745 E48.79174
G1 X102.174 Y129.486 E48.84993
G1 X103.514 Y130.826 E48.99858
G1 X102.772 Y130.826 E49.05677
G1 X101.943 Y129.997 E49.14881
; stop printing object CalibrationCube XYZ+.stl id:0 copy 0
M106 S242.25
G1 Z0.600 F10800.000
M104 S197 ; set temperature
; printing object CalibrationCube XYZ+.stl id:0 copy 0
G10 ; retract
G92 E0
G1 Z0.900
G1 X120.143 Y131.143
G1 Z0.600
G11 ; unretract
G92 E0
M204 S800
G1 F6000
G1 X101.857 Y131.143 E0.76232
G1 X101.857 Y114.651 E1.44985
G1 X103.126 Y112.857 E1.54145
G1 X120.143 Y112.857 E2.25089
G1 X120.143 Y131.068 E3.01009
M204 S1000
G1 X120.700 Y131.700 F10800.000
M204 S800
G1 F3000
G1 X101.300 Y131.700 E3.81886
G1 X101.300 Y114.474 E4.53700
G1 X102.837 Y112.300 E4.64800
G1 X120.700 Y112.300 E5.39268
G1 X120.700 Y131.625 E6.19833
M204 S1000
G1 X120.219 Y131.564 F10800.000
G1 X118.869 Y131.004
M204 S1250
G1 F4800
G1 X119.753 Y130.120 E6.25081
G1 X119.753 Y129.326 E6.28412
G1 X118.326 Y130.753 E6.36883
G1 X117.533 Y130.753 E6.40214
G1 X119.753 Y128.533 E6.53396
G1 X119.753 Y127.740 E6.56727
G1 X116.740 Y130.753 E6.74620
G1 X115.946 Y130.753 E6.77951
G1 X119.753 Y126.946 E7.00555
G1 X119.753 Y126.153 E7.03887
G1 X115.153 Y130.753 E7.31202
G1 X114.359 Y130.753 E7.34533
G1 X119.753 Y125.359 E7.66560
G1 X119.753 Y124.566 E7.69891
G1 X113.566 Y130.753 E8.06629
G1 X112.772 Y130.753 E8.09960
G1 X119.753 Y123.772 E8.51409
G1 X119.753 Y122.979 E8.54741
G1 X111.979 Y130.753 E9.00901
G1 X111.185 Y130.753 E9.04232
G1 X119.753 Y122.185 E9.55103
G1 X119.753 Y121.392 E9.58435
G1 X110.392 Y130.753 E10.14017
G1 X109.599 Y130.753 E10.17348
G1 X119.753 Y120.599 E10.77642
G1 X119.753 Y119.805 E10.80973
G1 X108.805 Y130.753 E11.45978
G1 X108.012 Y130.753 E11.49310
G1 X119.753 Y119.012 E12.19026
G1 X119.753 Y118.218 E12.22357
G1 X107.218 Y130.753 E12.96784
G1 X106.425 Y130.753 E13.00116
G1 X119.753 Y117.425 E13.79254
G1 X119.753 Y116.631 E13.82585
G1 X105.631 Y130.753 E14.66435
G1 X104.838 Y130.753 E14.69766
G1 X119.753 Y115.838 E15.58327
G1 X119.753 Y115.045 E15.61658
G1 X104.045 Y130.753 E16.54930
G1 X103.251 Y130.753 E16.58262
G1 X119.753 Y114.251 E17.56245
G1 X119.753 Y113.458 E17.59576
G1 X102.458 Y130.753 E18.62270
G1 X102.247 Y130.753 E18.63155
G1 X102.247 Y130.170 E18.65602
G1 X119.170 Y113.247 E19.66087
G1 X118.377 Y113.247 E19.69418
G1 X102.247 Y129.377 E20.65191
G1 X102.247 Y128.583 E20.68523
G1 X117.583 Y113.247 E21.59585
G1 X116.790 Y113.247 E21.62916
G1 X102.247 Y127.790 E22.49268
G1 X102.247 Y126.996 E22.52599
G1 X115.996 Y113.247 E23.34239
G1 X115.203 Y113.247 E23.37570
G1 X102.247 Y126.203 E24.14499
G1 X102.247 Y125.410 E24.17830
G1 X114.410 Y113.247 E24.90048
G1 X113.616 Y113.247 E24.93379
G1 X102.247 Y124.616 E25.60886
G1 X102.247 Y123.823 E25.64217
G1 X112.823 Y113.247 E26.27012
G1 X112.029 Y113.247 E26.30344
G1 X102.247 Y123.029 E26.88428
G1 X102.247 Y122.236 E26.91759
G1 X111.236 Y113.247 E27.45132
G1 X110.442 Y113.247 E27.48463
G1 X102.247 Y121.442 E27.97125
G1 X102.247 Y120.649 E28.00456
G1 X109.649 Y113.247 E28.44407
G1 X108.856 Y113.247 E28.47738
G1 X102.247 Y119.856 E28.86977
G1 X102.247 Y119.062 E28.90308
G1 X108.062 Y113.247 E29.24837
G1 X107.269 Y113.247 E29.28168
G1 X102.247 Y118.269 E29.57985
G1 X102.247 Y117.475 E29.61316
G1 X106.475 Y113.247 E29.86422
G1 X105.682 Y113.247 E29.89753
G1 X102.247 Y116.682 E30.10148
G1 X102.247 Y115.888 E30.13479
G1 X104.888 Y113.247 E30.29162
G1 X104.095 Y113.247 E30.32494
G1 X101.996 Y115.346 E30.44954
M204 S1000
; stop printing object CalibrationCube XYZ+.stl id:0 copy 0
G1 Z0.800 F10800.000
; printing object CalibrationCube XYZ+.stl id:0 copy 0
G10 ; retract
G92 E0
G1 Z1.100
G1 X120.143 Y131.143
G1 Z0.800
G11 ; unretract
G92 E0
M204 S800
G1 F6000
G1 X101.857 Y131.143 E0.76232
G1 X101.857 Y114.451 E1.45819
G1 X102.984 Y112.857 E1.53958
G1 X120.143 Y112.857 E2.25491
G1 X120.143 Y131.068 E3.01411
M204 S1000
G1 X120.700 Y131.700 F10800.000
M204 S800
G1 F3000
G1 X101.300 Y131.700 E3.82288
G1 X101.300 Y114.274 E4.54936
G1 X102.696 Y112.300 E4.65015
G1 X120.700 Y112.300 E5.40073
G1 X120.700 Y131.625 E6.20637
M204 S1000
G1 X120.219 Y131.565 F10800.000
G10 ; retract
G92 E0
G1 Z1.100
G1 X120.004 Y114.145
G1 Z0.800
G11 ; unretract
G92 E0
M204 S1250
G1 F4800
G1 X119.106 Y113.247 E0.05394
G1 X118.303 Y113.247 E0.08805
G1 X119.753 Y114.697 E0.17516
G1 X119.753 Y115.500 E0.20926
G1 X117.500 Y113.247 E0.34461
G1 X116.697 Y113.247 E0.37871
G1 X119.753 Y116.303 E0.56228
G1 X119.753 Y117.105 E0.59639
G1 X115.895 Y113.247 E0.82819
G1 X115.092 Y113.247 E0.86230
G1 X119.753 Y117.908 E1.14233
G1 X119.753 Y118.711 E1.17644
G1 X114.289 Y113.247 E1.50470
G1 X113.486 Y113.247 E1.53881
G1 X119.753 Y119.514 E1.91530
G1 X119.753 Y120.317 E1.94941
G1 X112.683 Y113.247 E2.37413
G1 X111.881 Y113.247 E2.40824
G1 X119.753 Y121.119 E2.88119
G1 X119.753 Y121.922 E2.91530
G1 X111.078 Y113.247 E3.43648
G1 X110.275 Y113.247 E3.47059
G1 X119.753 Y122.725 E4.04001
G1 X119.753 Y123.528 E4.07411
G1 X109.472 Y113.247 E4.69176
G1 X108.669 Y113.247 E4.72586
G1 X119.753 Y124.331 E5.39174
G1 X119.753 Y125.133 E5.42585
G1 X107.867 Y113.247 E6.13996
G1 X107.064 Y113.247 E6.17406
G1 X119.753 Y125.936 E6.93640
G1 X119.753 Y126.739 E6.97051
G1 X106.261 Y113.247 E7.78108
G1 X105.458 Y113.247 E7.81518
G1 X119.753 Y127.542 E8.67398
G1 X119.753 Y128.345 E8.70809
G1 X104.655 Y113.247 E9.61512
G1 X103.853 Y113.247 E9.64922
G1 X119.753 Y129.147 E10.60449
G1 X119.753 Y129.950 E10.63859
G1 X103.130 Y113.327 E11.63729
G1 X102.797 Y113.797 E11.66175
G1 X119.753 Y130.753 E12.68042
G1 X118.950 Y130.753 E12.71453
G1 X102.465 Y114.267 E13.70495
G1 X102.247 Y114.575 E13.72095
G1 X102.247 Y114.853 E13.73275
G1 X118.147 Y130.753 E14.68800
G1 X117.345 Y130.753 E14.72211
G1 X102.247 Y115.655 E15.62913
G1 X102.247 Y116.458 E15.66324
G1 X116.542 Y130.753 E16.52203
G1 X115.739 Y130.753 E16.55613
G1 X102.247 Y117.261 E17.36670
G1 X102.247 Y118.064 E17.40080
G1 X114.936 Y130.753 E18.16313
G1 X114.133 Y130.753 E18.19724
G1 X102.247 Y118.867 E18.91134
G1 X102.247 Y119.669 E18.94545
G1 X113.331 Y130.753 E19.61132
G1 X112.528 Y130.753 E19.64542
G1 X102.247 Y120.472 E20.26306
G1 X102.247 Y121.275 E20.29717
G1 X111.725 Y130.753 E20.86658
G1 X110.922 Y130.753 E20.90068
G1 X102.247 Y122.078 E21.42186
G1 X102.247 Y122.881 E21.45597
G1 X110.119 Y130.753 E21.92892
G1 X109.317 Y130.753 E21.96302
G1 X102.247 Y123.683 E22.38774
G1 X102.247 Y124.486 E22.42184
G1 X108.514 Y130.753 E22.79833
G1 X107.711 Y130.753 E22.83244
G1 X102.247 Y125.289 E23.16070
G1 X102.247 Y126.092 E23.19480
G1 X106.908 Y130.753 E23.47483
G1 X106.105 Y130.753 E23.50893
G1 X102.247 Y126.895 E23.74073
G1 X102.247 Y127.698 E23.77483
G1 X105.302 Y130.753 E23.95840
G1 X104.500 Y130.753 E23.99250
G1 X102.247 Y128.500 E24.12784
G1 X102.247 Y129.303 E24.16194
G1 X103.697 Y130.753 E24.24905
G1 X102.894 Y130.753 E24.28315
G1 X101.996 Y129.855 E24.33709
M204 S1000
; stop printing object CalibrationCube XYZ+.stl id:0 copy 0
M106 S252.45
G1 Z1.000 F10800.000
; printing object CalibrationCube XYZ+.stl id:0 copy 0
G10 ; retract
G92 E0
G1 Z1.300
G1 X120.143 Y131.143
G1 Z1.000
G11 ; unretract
G92 E0
M204 S800
G1 F3390
G1 X101.857 Y131.143 E0.76232
G1 X101.857 Y114.251 E1.46653
G1 X102.843 Y112.857 E1.53771
G1 X120.143 Y112.857 E2.25894
G1 X120.143 Y131.068 E3.01813
M204 S1000
G1 X120.700 Y131.700 F10800.000
M204 S800
G1 F3000
G1 X101.300 Y131.700 E3.82690
G1 X101.300 Y114.074 E4.56172
G1 X102.554 Y112.300 E4.65229
G1 X120.700 Y112.300 E5.40877
G1 X120.700 Y131.625 E6.21441
M204 S1000
G1 X120.219 Y131.565 F10800.000
G10 ; retract
G92 E0
G1 Z1.300
G1 X117.753 Y131.004
G1 Z1.000
G11 ; unretract
G92 E0
M204 S1250
G1 F3390
G1 X119.753 Y129.004 E0.11792
G1 X119.753 Y123.751 E0.33688
G1 X112.751 Y130.753 E0.74967
G1 X107.499 Y130.753 E0.96863
G1 X119.753 Y118.499 E1.69108
G1 X119.753 Y113.247 E1.91004
G1 X102.247 Y130.753 E2.94215
G1 X102.247 Y125.501 E3.16111
G1 X114.501 Y113.247 E3.88356
G1 X109.249 Y113.247 E4.10252
G1 X102.247 Y120.249 E4.51531
G1 X102.247 Y114.996 E4.73427
G1 X104.247 Y112.996 E4.85219
M204 S1000
; stop printing object CalibrationCube XYZ+.stl id:0 copy 0
G1 Z1.200 F10800.000
; printing object CalibrationCube XYZ+.stl id:0 copy 0
G10 ; retract
G92 E0
G1 Z1.500
G1 X120.143 Y131.143
G1 Z1.200
G11 ; unretract
G92 E0
M204 S800
G1 F3495
G1 X101.857 Y131.143 E0.76232
G1 X101.857 Y114.051 E1.47487
G1 X102.701 Y112.857 E1.53583
G1 X120.143 Y112.857 E2.26296
G1 X120.143 Y131.068 E3.02215
M204 S1000
G1 X120.700 Y131.700 F10800.000
M204 S800
G1 F3000
G1 X101.300 Y131.700 E3.83092
G1 X101.300 Y113.874 E4.57407
G1 X102.413 Y112.300 E4.65444
G1 X120.700 Y112.300 E5.41681
G1 X120.700 Y131.625 E6.22246
M204 S1000
G1 X120.218 Y131.566 F10800.000
G10 ; retract
G92 E0
G1 Z1.500
G1 X120.004 Y115.247
G1 Z1.200
G11 ; unretract
G92 E0
M204 S1250
G1 F3495
G1 X118.004 Y113.247 E0.11792
G1 X112.751 Y113.247 E0.33688
G1 X119.753 Y120.249 E0.74967
G1 X119.753 Y125.501 E0.96863
G1 X107.499 Y113.247 E1.69108
G1 X102.903 Y113.247 E1.88269
G1 X102.631 Y113.631 E1.90231
G1 X119.753 Y130.753 E2.91176
G1 X114.501 Y130.753 E3.13072
G1 X102.247 Y118.499 E3.85317
G1 X102.247 Y123.751 E4.07213
G1 X109.249 Y130.753 E4.48492
G1 X103.996 Y130.753 E4.70388
G1 X101.996 Y128.753 E4.82180
M204 S1000
; stop printing object CalibrationCube XYZ+.stl id:0 copy 0
G1 Z1.400 F10800.000
; printing object CalibrationCube XYZ+.stl id:0 copy 0
G10 ; retract
G92 E0
G1 Z1.700
G1 X120.143 Y131.143
G1 Z1.400
G11 ; unretract
G92 E0
M204 S800
G1 F3398
G1 X101.857 Y131.143 E0.76232
G1 X101.857 Y113.851 E1.48321
G1 X102.560 Y112.857 E1.53396
G1 X120.143 Y112.857 E2.26698
G1 X120.143 Y131.068 E3.02617
M204 S1000
G1 X120.700 Y131.700 F10800.000
M204 S800
G1 F3000
G1 X101.300 Y131.700 E3.83495
G1 X101.300 Y113.674 E4.58643
G1 X102.272 Y112.300 E4.65659
G1 X120.700 Y112.300 E5.42486
G1 X120.700 Y131.625 E6.23050
M204 S1000
G1 X120.218 Y131.566 F10800.000
G10 ; retract
G92 E0
G1 Z1.700
G1 X117.753 Y131.004
G1 Z1.400
G11 ; unretract
G92 E0
M204 S1250
G1 F3398
G1 X119.753 Y129.004 E0.11792
G1 X119.753 Y123.751 E0.33688
G1 X112.751 Y130.753 E0.74967
G1 X107.499 Y130.753 E0.96863
G1 X119.753 Y118.499 E1.69108
G1 X119.753 Y113.247 E1.91004
G1 X102.247 Y130.753 E2.94215
G1 X102.247 Y125.501 E3.16111
G1 X114.501 Y113.247 E3.88356
G1 X109.249 Y113.247 E4.10252
G1 X102.247 Y120.249 E4.51531
G1 X102.247 Y114.996 E4.73427
G1 X104.247 Y112.996 E4.85219
